; generated by PrusaSlicer 2.9.2 on 2025-06-20 at 21:30:49 UTC


;
;

;
;

;
;

;
;

;
;
; 

; external perimeters extrusion width = 3.00mm
; perimeters extrusion width = 3.00mm
; infill extrusion width = 2.00mm
; solid infill extrusion width = 3.00mm
; top infill extrusion width = 3.00mm
; first layer extrusion width = 2.00mm

M73 P0 R421
M73 Q0 S422
M201 X4000 Y4000 Z200 E2500 ; sets maximum accelerations, mm/sec^2
M203 X300 Y300 Z40 E100 ; sets maximum feedrates, mm / sec
M204 P4000 R1200 T4000 ; sets acceleration (P, T) and retract acceleration (R), mm/sec^2
M205 X8.00 Y8.00 Z2.00 E10.00 ; sets the jerk limits, mm/sec
M205 S0 T0 ; sets the minimum extruding and travel feed rate, mm/sec

M486 S0
M486 AShape-Box
M486 S-1

;TYPE:Custom
M17 ; enable steppers
M862.3 P "MK4" ; printer model check
M862.5 P2 ; g-code level check
M862.6 P"Input shaper" ; FW feature check
M115 U6.2.2+8853

M555 X90.4401 Y88.6408 W32 H35.2614

G90 ; use absolute coordinates
M83 ; extruder relative mode

M140 S50 ; set bed temp
M104 T0 S210 ; set extruder temp for bed leveling
M109 T0 R210 ; wait for temp

M84 E ; turn off E motor

G28 ; home all without mesh bed level

G1 X42 Y-4 Z5 F4800

M302 S160 ; lower cold extrusion limit to 160C


G1 E-4 F2400 ; retraction


M84 E ; turn off E motor

G29 P9 X10 Y-4 W32 H4

M106 S100

G0 Z40 F10000

M190 S50 ; wait for bed temp

M107

;
; MBL
;
M84 E ; turn off E motor
G29 P1 ; invalidate mbl & probe print area
G29 P1 X0 Y0 W50 H20 C ; probe near purge place
G29 P3.2 ; interpolate mbl probes
G29 P3.13 ; extrapolate mbl outside probe area
G29 A ; activate mbl

; prepare for purge
M104 S230
G1 Z0.9 F15000 NEW Z MOVE
M109 S230

G92 E0
M569 S0 E ; set spreadcycle mode for extruder

;
; Extrude purge line
;
G92 E0 ; reset extruder position
G1 E4 F2400 ; deretraction after the initial one before nozzle cleaning
G0 E7 X15 Z0.2 F500 ; purge
G0 X25 E4 F500 ; purge
G0 X35 E4 F650 ; purge
G0 X45 E4 F800 ; purge
G0 X48 Z0.05 F8000 ; wipe, move close to the bed
G0 X51 Z0.2 F8000 ; wipe, move quickly away from the bed

G92 E0
M221 S100 ; set flow to 100%
G21 ; set units to millimeters
G90 ; use absolute coordinates
M83 ; use relative distances for extrusion
M900 K0 ; Filament gcode

M142 S36 ; set heatbreak target temp
M107 ; disable fan
;LAYER_CHANGE
;Z:1
;HEIGHT:1
G1 E-2.5 F3600 ; retract
M486 S0
G1 X121.305 Y96.69 F18000 ; move to first layer point
G1 Z1.9 F15000 NEW Z MOVE
G1 E2.5 F1200 ;  ; unretract
M204 P500 ; adjust acceleration
;TYPE:Internal infill
;WIDTH:2
G1 F100.818
G1 X120.735 Y96.12 Z1.9 E0.272 F233.516 created lines
G1 X120.165 Y95.55 Z1.9 E0.272 F233.516 created lines
G1 X119.596 Y94.981 Z1.9 E0.272 F233.516 created lines
G1 X119.026 Y94.411 Z1.9 E0.272 F233.516 created lines
G1 X118.456 Y93.841 Z1.9 E0.272 F233.516 created lines
G1 X117.605 Y93.841 Z1.9 E0.287 F233.516 created lines
G1 X116.753 Y93.841 Z1.9 E0.287 F233.516 created lines
G1 X115.902 Y93.841 Z1.9 E0.287 F233.516 created lines
M73 Q0 S421
G1 X116.559 Y94.498 Z1.9 E0.314 F233.516 created lines
G1 X117.216 Y95.155 Z1.9 E0.314 F233.516 created lines
G1 X117.873 Y95.812 Z1.9 E0.314 F233.516 created lines
G1 X118.53 Y96.469 Z1.9 E0.314 F233.516 created lines
G1 X119.187 Y97.126 Z1.9 E0.314 F233.516 created lines
G1 X119.844 Y97.783 Z1.9 E0.314 F233.516 created lines
G1 X120.501 Y98.44 Z1.9 E0.314 F233.516 created lines
G1 X120.501 Y99.291 Z1.9 E0.287 F233.516 created lines
G1 X120.501 Y100.143 Z1.9 E0.287 F233.516 created lines
G1 X120.501 Y100.994 Z1.9 E0.287 F233.516 created lines
G1 X119.851 Y100.344 Z1.9 E0.311 F233.516 created lines
G1 X119.2 Y99.693 Z1.9 E0.311 F233.516 created lines
G1 X118.55 Y99.043 Z1.9 E0.311 F233.516 created lines
G1 X117.9 Y98.393 Z1.9 E0.311 F233.516 created lines
G1 X117.25 Y97.743 Z1.9 E0.311 F233.516 created lines
G1 X116.599 Y97.092 Z1.9 E0.311 F233.516 created lines
G1 X115.949 Y96.442 Z1.9 E0.311 F233.516 created lines
G1 X115.299 Y95.792 Z1.9 E0.311 F233.516 created lines
G1 X114.649 Y95.142 Z1.9 E0.311 F233.516 created lines
G1 X113.998 Y94.491 Z1.9 E0.311 F233.516 created lines
G1 X113.348 Y93.841 Z1.9 E0.311 F233.516 created lines
G1 X112.497 Y93.841 Z1.9 E0.287 F233.516 created lines
G1 X111.645 Y93.841 Z1.9 E0.287 F233.516 created lines
G1 X110.794 Y93.841 Z1.9 E0.287 F233.516 created lines
G1 X111.487 Y94.534 Z1.9 E0.331 F233.516 created lines
G1 X112.181 Y95.228 Z1.9 E0.331 F233.516 created lines
G1 X112.874 Y95.921 Z1.9 E0.331 F233.516 created lines
G1 X113.567 Y96.614 Z1.9 E0.331 F233.516 created lines
G1 X114.261 Y97.308 Z1.9 E0.331 F233.516 created lines
G1 X114.954 Y98.001 Z1.9 E0.331 F233.516 created lines
G1 X115.648 Y98.695 Z1.9 E0.331 F233.516 created lines
G1 X116.341 Y99.388 Z1.9 E0.331 F233.516 created lines
G1 X117.034 Y100.081 Z1.9 E0.331 F233.516 created lines
G1 X117.728 Y100.775 Z1.9 E0.331 F233.516 created lines
G1 X118.421 Y101.468 Z1.9 E0.331 F233.516 created lines
G1 X119.114 Y102.161 Z1.9 E0.331 F233.516 created lines
G1 X119.808 Y102.855 Z1.9 E0.331 F233.516 created lines
G1 X120.501 Y103.548 Z1.9 E0.331 F233.516 created lines
G1 X120.501 Y104.399 Z1.9 E0.287 F233.516 created lines
G1 X120.501 Y105.251 Z1.9 E0.287 F233.516 created lines
G1 X120.501 Y106.102 Z1.9 E0.287 F233.516 created lines
G1 X119.82 Y105.421 Z1.9 E0.325 F233.516 created lines
G1 X119.139 Y104.74 Z1.9 E0.325 F233.516 created lines
G1 X118.458 Y104.059 Z1.9 E0.325 F233.516 created lines
G1 X117.776 Y103.377 Z1.9 E0.325 F233.516 created lines
G1 X117.095 Y102.696 Z1.9 E0.325 F233.516 created lines
G1 X116.414 Y102.015 Z1.9 E0.325 F233.516 created lines
G1 X115.733 Y101.334 Z1.9 E0.325 F233.516 created lines
G1 X115.052 Y100.653 Z1.9 E0.325 F233.516 created lines
G1 X114.37 Y99.971 Z1.9 E0.325 F233.516 created lines
G1 X113.689 Y99.29 Z1.9 E0.325 F233.516 created lines
G1 X113.008 Y98.609 Z1.9 E0.325 F233.516 created lines
G1 X112.327 Y97.928 Z1.9 E0.325 F233.516 created lines
G1 X111.646 Y97.247 Z1.9 E0.325 F233.516 created lines
G1 X110.965 Y96.566 Z1.9 E0.325 F233.516 created lines
G1 X110.284 Y95.885 Z1.9 E0.325 F233.516 created lines
G1 X109.602 Y95.203 Z1.9 E0.325 F233.516 created lines
G1 X108.921 Y94.522 Z1.9 E0.325 F233.516 created lines
G1 X108.24 Y93.841 Z1.9 E0.325 F233.516 created lines
G1 X107.389 Y93.841 Z1.9 E0.287 F233.516 created lines
G1 X106.537 Y93.841 Z1.9 E0.287 F233.516 created lines
G1 X105.686 Y93.841 Z1.9 E0.287 F233.516 created lines
G1 X106.391 Y94.546 Z1.9 E0.337 F233.516 created lines
G1 X107.097 Y95.252 Z1.9 E0.337 F233.516 created lines
G1 X107.802 Y95.957 Z1.9 E0.337 F233.516 created lines
G1 X108.508 Y96.663 Z1.9 E0.337 F233.516 created lines
G1 X109.213 Y97.368 Z1.9 E0.337 F233.516 created lines
G1 X109.919 Y98.074 Z1.9 E0.337 F233.516 created lines
G1 X110.624 Y98.779 Z1.9 E0.337 F233.516 created lines
G1 X111.33 Y99.485 Z1.9 E0.337 F233.516 created lines
G1 X112.035 Y100.19 Z1.9 E0.337 F233.516 created lines
G1 X112.741 Y100.896 Z1.9 E0.337 F233.516 created lines
G1 X113.446 Y101.601 Z1.9 E0.337 F233.516 created lines
G1 X114.152 Y102.307 Z1.9 E0.337 F233.516 created lines
G1 X114.857 Y103.012 Z1.9 E0.337 F233.516 created lines
G1 X115.563 Y103.718 Z1.9 E0.337 F233.516 created lines
G1 X116.268 Y104.423 Z1.9 E0.337 F233.516 created lines
G1 X116.974 Y105.129 Z1.9 E0.337 F233.516 created lines
G1 X117.679 Y105.834 Z1.9 E0.337 F233.516 created lines
G1 X118.385 Y106.54 Z1.9 E0.337 F233.516 created lines
G1 X119.09 Y107.245 Z1.9 E0.337 F233.516 created lines
G1 X119.796 Y107.951 Z1.9 E0.337 F233.516 created lines
G1 X120.501 Y108.656 Z1.9 E0.337 F233.516 created lines
G1 X120.501 Y109.507 Z1.9 E0.287 F233.516 created lines
G1 X120.501 Y110.359 Z1.9 E0.287 F233.516 created lines
G1 X120.501 Y111.21 Z1.9 E0.287 F233.516 created lines
M73 P0 R420
G1 X119.806 Y110.515 Z1.9 E0.332 F233.516 created lines
G1 X119.112 Y109.82 Z1.9 E0.332 F233.516 created lines
G1 X118.417 Y109.126 Z1.9 E0.332 F233.516 created lines
G1 X117.722 Y108.431 Z1.9 E0.332 F233.516 created lines
G1 X117.027 Y107.736 Z1.9 E0.332 F233.516 created lines
G1 X116.333 Y107.041 Z1.9 E0.332 F233.516 created lines
G1 X115.638 Y106.347 Z1.9 E0.332 F233.516 created lines
G1 X114.943 Y105.652 Z1.9 E0.332 F233.516 created lines
G1 X114.249 Y104.957 Z1.9 E0.332 F233.516 created lines
G1 X113.554 Y104.262 Z1.9 E0.332 F233.516 created lines
G1 X112.859 Y103.568 Z1.9 E0.332 F233.516 created lines
G1 X112.164 Y102.873 Z1.9 E0.332 F233.516 created lines
G1 X111.47 Y102.178 Z1.9 E0.332 F233.516 created lines
G1 X110.775 Y101.483 Z1.9 E0.332 F233.516 created lines
G1 X110.08 Y100.789 Z1.9 E0.332 F233.516 created lines
G1 X109.385 Y100.094 Z1.9 E0.332 F233.516 created lines
G1 X108.691 Y99.399 Z1.9 E0.332 F233.516 created lines
G1 X107.996 Y98.704 Z1.9 E0.332 F233.516 created lines
G1 X107.301 Y98.01 Z1.9 E0.332 F233.516 created lines
G1 X106.607 Y97.315 Z1.9 E0.332 F233.516 created lines
G1 X105.912 Y96.62 Z1.9 E0.332 F233.516 created lines
G1 X105.217 Y95.925 Z1.9 E0.332 F233.516 created lines
G1 X104.522 Y95.231 Z1.9 E0.332 F233.516 created lines
G1 X103.828 Y94.536 Z1.9 E0.332 F233.516 created lines
G1 X103.133 Y93.841 Z1.9 E0.332 F233.516 created lines
G1 X102.282 Y93.841 Z1.9 E0.287 F233.516 created lines
G1 X101.43 Y93.841 Z1.9 E0.287 F233.516 created lines
G1 X100.579 Y93.841 Z1.9 E0.287 F233.516 created lines
M73 Q0 S420
G1 X101.266 Y94.528 Z1.9 E0.328 F233.516 created lines
G1 X101.953 Y95.215 Z1.9 E0.328 F233.516 created lines
G1 X102.64 Y95.902 Z1.9 E0.328 F233.516 created lines
G1 X103.327 Y96.589 Z1.9 E0.328 F233.516 created lines
G1 X104.014 Y97.276 Z1.9 E0.328 F233.516 created lines
G1 X104.701 Y97.963 Z1.9 E0.328 F233.516 created lines
G1 X105.388 Y98.65 Z1.9 E0.328 F233.516 created lines
G1 X106.075 Y99.337 Z1.9 E0.328 F233.516 created lines
G1 X106.762 Y100.024 Z1.9 E0.328 F233.516 created lines
G1 X107.449 Y100.711 Z1.9 E0.328 F233.516 created lines
G1 X108.136 Y101.398 Z1.9 E0.328 F233.516 created lines
G1 X108.823 Y102.085 Z1.9 E0.328 F233.516 created lines
G1 X109.51 Y102.772 Z1.9 E0.328 F233.516 created lines
G1 X110.197 Y103.459 Z1.9 E0.328 F233.516 created lines
G1 X110.883 Y104.146 Z1.9 E0.328 F233.516 created lines
G1 X111.57 Y104.833 Z1.9 E0.328 F233.516 created lines
G1 X112.257 Y105.52 Z1.9 E0.328 F233.516 created lines
G1 X112.944 Y106.207 Z1.9 E0.328 F233.516 created lines
G1 X113.631 Y106.894 Z1.9 E0.328 F233.516 created lines
G1 X114.318 Y107.581 Z1.9 E0.328 F233.516 created lines
G1 X115.005 Y108.268 Z1.9 E0.328 F233.516 created lines
G1 X115.692 Y108.955 Z1.9 E0.328 F233.516 created lines
G1 X116.379 Y109.642 Z1.9 E0.328 F233.516 created lines
G1 X117.066 Y110.329 Z1.9 E0.328 F233.516 created lines
G1 X117.753 Y111.016 Z1.9 E0.328 F233.516 created lines
G1 X118.44 Y111.703 Z1.9 E0.328 F233.516 created lines
G1 X119.127 Y112.39 Z1.9 E0.328 F233.516 created lines
G1 X119.814 Y113.077 Z1.9 E0.328 F233.516 created lines
G1 X120.501 Y113.764 Z1.9 E0.328 F233.516 created lines
G1 X120.501 Y114.615 Z1.9 E0.287 F233.516 created lines
G1 X120.501 Y115.467 Z1.9 E0.287 F233.516 created lines
G1 X120.501 Y116.318 Z1.9 E0.287 F233.516 created lines
G1 X119.799 Y115.616 Z1.9 E0.335 F233.516 created lines
G1 X119.096 Y114.913 Z1.9 E0.335 F233.516 created lines
G1 X118.394 Y114.211 Z1.9 E0.335 F233.516 created lines
G1 X117.692 Y113.508 Z1.9 E0.335 F233.516 created lines
G1 X116.989 Y112.806 Z1.9 E0.335 F233.516 created lines
G1 X116.287 Y112.104 Z1.9 E0.335 F233.516 created lines
G1 X115.584 Y111.401 Z1.9 E0.335 F233.516 created lines
G1 X114.882 Y110.699 Z1.9 E0.335 F233.516 created lines
G1 X114.18 Y109.996 Z1.9 E0.335 F233.516 created lines
G1 X113.477 Y109.294 Z1.9 E0.335 F233.516 created lines
G1 X112.775 Y108.592 Z1.9 E0.335 F233.516 created lines
G1 X112.073 Y107.889 Z1.9 E0.335 F233.516 created lines
G1 X111.37 Y107.187 Z1.9 E0.335 F233.516 created lines
G1 X110.668 Y106.484 Z1.9 E0.335 F233.516 created lines
G1 X109.965 Y105.782 Z1.9 E0.335 F233.516 created lines
G1 X109.263 Y105.079 Z1.9 E0.335 F233.516 created lines
G1 X108.561 Y104.377 Z1.9 E0.335 F233.516 created lines
G1 X107.858 Y103.675 Z1.9 E0.335 F233.516 created lines
G1 X107.156 Y102.972 Z1.9 E0.335 F233.516 created lines
G1 X106.454 Y102.27 Z1.9 E0.335 F233.516 created lines
G1 X105.751 Y101.567 Z1.9 E0.335 F233.516 created lines
G1 X105.049 Y100.865 Z1.9 E0.335 F233.516 created lines
G1 X104.346 Y100.163 Z1.9 E0.335 F233.516 created lines
G1 X103.644 Y99.46 Z1.9 E0.335 F233.516 created lines
G1 X102.942 Y98.758 Z1.9 E0.335 F233.516 created lines
G1 X102.239 Y98.055 Z1.9 E0.335 F233.516 created lines
G1 X101.537 Y97.353 Z1.9 E0.335 F233.516 created lines
G1 X100.835 Y96.651 Z1.9 E0.335 F233.516 created lines
G1 X100.132 Y95.948 Z1.9 E0.335 F233.516 created lines
G1 X99.43 Y95.246 Z1.9 E0.335 F233.516 created lines
G1 X98.727 Y94.543 Z1.9 E0.335 F233.516 created lines
G1 X98.025 Y93.841 Z1.9 E0.335 F233.516 created lines
G1 X97.174 Y93.841 Z1.9 E0.287 F233.516 created lines
G1 X96.322 Y93.841 Z1.9 E0.287 F233.516 created lines
G1 X95.471 Y93.841 Z1.9 E0.287 F233.516 created lines
G1 X96.166 Y94.536 Z1.9 E0.332 F233.516 created lines
G1 X96.862 Y95.232 Z1.9 E0.332 F233.516 created lines
G1 X97.557 Y95.927 Z1.9 E0.332 F233.516 created lines
G1 X98.252 Y96.622 Z1.9 E0.332 F233.516 created lines
G1 X98.947 Y97.317 Z1.9 E0.332 F233.516 created lines
G1 X99.643 Y98.013 Z1.9 E0.332 F233.516 created lines
G1 X100.338 Y98.708 Z1.9 E0.332 F233.516 created lines
G1 X101.033 Y99.403 Z1.9 E0.332 F233.516 created lines
G1 X101.728 Y100.099 Z1.9 E0.332 F233.516 created lines
G1 X102.424 Y100.794 Z1.9 E0.332 F233.516 created lines
G1 X103.119 Y101.489 Z1.9 E0.332 F233.516 created lines
G1 X103.814 Y102.184 Z1.9 E0.332 F233.516 created lines
G1 X104.51 Y102.88 Z1.9 E0.332 F233.516 created lines
G1 X105.205 Y103.575 Z1.9 E0.332 F233.516 created lines
G1 X105.9 Y104.27 Z1.9 E0.332 F233.516 created lines
G1 X106.595 Y104.965 Z1.9 E0.332 F233.516 created lines
G1 X107.291 Y105.661 Z1.9 E0.332 F233.516 created lines
G1 X107.986 Y106.356 Z1.9 E0.332 F233.516 created lines
G1 X108.681 Y107.051 Z1.9 E0.332 F233.516 created lines
G1 X109.377 Y107.747 Z1.9 E0.332 F233.516 created lines
G1 X110.072 Y108.442 Z1.9 E0.332 F233.516 created lines
G1 X110.767 Y109.137 Z1.9 E0.332 F233.516 created lines
G1 X111.462 Y109.832 Z1.9 E0.332 F233.516 created lines
G1 X112.158 Y110.528 Z1.9 E0.332 F233.516 created lines
G1 X112.853 Y111.223 Z1.9 E0.332 F233.516 created lines
G1 X113.548 Y111.918 Z1.9 E0.332 F233.516 created lines
G1 X114.244 Y112.613 Z1.9 E0.332 F233.516 created lines
G1 X114.939 Y113.309 Z1.9 E0.332 F233.516 created lines
G1 X115.634 Y114.004 Z1.9 E0.332 F233.516 created lines
G1 X116.329 Y114.699 Z1.9 E0.332 F233.516 created lines
G1 X117.025 Y115.395 Z1.9 E0.332 F233.516 created lines
G1 X117.72 Y116.09 Z1.9 E0.332 F233.516 created lines
G1 X118.415 Y116.785 Z1.9 E0.332 F233.516 created lines
G1 X119.11 Y117.48 Z1.9 E0.332 F233.516 created lines
G1 X119.806 Y118.176 Z1.9 E0.332 F233.516 created lines
G1 X120.501 Y118.871 Z1.9 E0.332 F233.516 created lines
G1 X120.501 Y119.722 Z1.9 E0.287 F233.516 created lines
G1 X120.501 Y120.574 Z1.9 E0.287 F233.516 created lines
G1 X120.501 Y121.425 Z1.9 E0.287 F233.516 created lines
M73 P0 R419
M73 Q0 S419
G1 X119.811 Y120.735 Z1.9 E0.329 F233.516 created lines
G1 X119.122 Y120.046 Z1.9 E0.329 F233.516 created lines
G1 X118.432 Y119.356 Z1.9 E0.329 F233.516 created lines
G1 X117.743 Y118.667 Z1.9 E0.329 F233.516 created lines
G1 X117.053 Y117.977 Z1.9 E0.329 F233.516 created lines
G1 X116.363 Y117.287 Z1.9 E0.329 F233.516 created lines
G1 X115.674 Y116.598 Z1.9 E0.329 F233.516 created lines
G1 X114.984 Y115.908 Z1.9 E0.329 F233.516 created lines
G1 X114.295 Y115.219 Z1.9 E0.329 F233.516 created lines
G1 X113.605 Y114.529 Z1.9 E0.329 F233.516 created lines
G1 X112.915 Y113.839 Z1.9 E0.329 F233.516 created lines
G1 X112.226 Y113.15 Z1.9 E0.329 F233.516 created lines
G1 X111.536 Y112.46 Z1.9 E0.329 F233.516 created lines
G1 X110.847 Y111.771 Z1.9 E0.329 F233.516 created lines
