; generated by PrusaSlicer 2.9.2 on 2025-06-10 at 20:01:12 UTC


;
;

;
;

;
;

;
;

;
;
; 

; external perimeters extrusion width = 0.45mm
; perimeters extrusion width = 0.45mm
; infill extrusion width = 5.00mm
; solid infill extrusion width = 0.45mm
; top infill extrusion width = 0.42mm
; first layer extrusion width = 0.50mm

M73 P0 R18
M73 Q0 S19
M201 X10000 Y10000 Z400 E5000 ; sets maximum accelerations, mm/sec^2
M203 X350 Y350 Z12 E100 ; sets maximum feedrates, mm / sec
M204 P7000 R2500 T7000 ; sets acceleration (P, T) and retract acceleration (R), mm/sec^2
M205 X10.00 Y10.00 Z2.00 E10.00 ; sets the jerk limits, mm/sec
M205 S0 T0 ; sets the minimum extruding and travel feed rate, mm/sec

M486 S0
M486 AMerged
M486 S-1

;TYPE:Custom
M17 ; enable steppers
M862.1 P5 A0 F1 ; nozzle check
M862.3 P "COREONE" ; printer model check
M862.5 P2 ; g-code level check
M862.6 P"Input shaper" ; FW feature check
M115 U6.3.0+10073

M555 X110.332 Y94.1516 W47.3971 H29.4155

G90 ; use absolute coordinates
M83 ; extruder relative mode


M140 S115 ; set bed temp for chamber heating


M109 R170 ; wait for temp

M84 E ; turn off E motor

G28 ; home all without mesh bed level


; Min chamber temp section
M104 S130 ; set idle temp
G1 X242 Y-9 F4800 ; set print head position
M73 Q0 S18
M191 S40 ; wait for minimal chamber temp
M141 S0 ; set nominal chamber temp
M107
M140 S110 ; set bed temp



G0 Z40 F10000
M104 T0 S130
M190 R110 ; wait for bed temp
M107

G29 G ; absorb heat

M109 R170 ; wait for MBL temp

M302 S160 ; lower cold extrusion limit to 160C


G1 E-2 F2400 ; retraction


M84 E ; turn off E motor

G29 P9 X208 Y-2.5 W32 H4

;
; MBL
;
M84 E ; turn off E motor
G29 P1 ; invalidate mbl & probe print area
G29 P1 X150 Y0 W100 H20 C ; probe near purge place
G29 P3.2 ; interpolate mbl probes
G29 P3.13 ; extrapolate mbl outside probe area
G29 A ; activate mbl

; prepare for purge
M104 S260
G1 Z15.4 F15000 NEW Z MOVE
M109 S260

G92 E0
M569 S0 E ; set spreadcycle mode for extruder

;
; Extrude purge line
;
G92 E0 ; reset extruder position
G1 E2 F2400 ; deretraction after the initial one
G0 E5 X235 Z0.2 F500 ; purge
G0 X225 E4 F500 ; purge
G0 X215 E4 F650 ; purge
M73 P1 R18
M73 Q1 S18
G0 X205 E4 F800 ; purge
G0 X202 Z0.05 F8000 ; wipe, move close to the bed
G0 X199 Z0.2 F8000 ; wipe, move quickly away from the bed

G92 E0
M221 S100 ; set flow to 100%
G21 ; set units to millimeters
G90 ; use absolute coordinates
M83 ; use relative distances for extrusion
M572 S0 ; Filament gcode
M142 S40 ; set heatbreak target temp
M107 ; disable fan
;LAYER_CHANGE
;Z:0.2
;HEIGHT:0.2
G1 E-.7 F2700 ; retract
M486 S0
G1 X157.262 Y108.916 F21000 ; move to first layer point
G1 Z0.6 F15000 NEW Z MOVE
G1 E.7 F1500 ;  ; unretract
M204 P500 ; adjust acceleration
;TYPE:Internal infill
;WIDTH:0.5
G1 F900
G1 X156.58816666666667 Y108.24216666666666 Z25.723720900055557 E0.024893237257902295 F38.28124999999999 created lines
G1 X155.91433333333333 Y107.56833333333333 Z25.113625012500002 E0.024893237257902295 F38.28124999999999 created lines
G1 X155.2405 Y106.8945 Z24.510793946722224 E0.024893237257902295 F38.28124999999999 created lines
G1 X154.56666666666666 Y106.22066666666666 Z23.915227702722223 E0.024893237257902295 F38.28124999999999 created lines
G1 X153.89283333333333 Y105.54683333333332 Z23.326926280499997 E0.024893237257902295 F38.28124999999999 created lines
G1 X153.219 Y104.87299999999999 Z22.745889680055555 E0.024893237257902295 F38.28124999999999 created lines
G1 X152.54516666666666 Y104.19916666666667 Z22.172117901388887 E0.02489323725790203 F38.28124999999999 created lines
G1 X151.87133333333333 Y103.52533333333334 Z21.605610944499997 E0.024893237257902295 F38.28124999999999 created lines
G1 X151.1975 Y102.8515 Z21.046368809388884 E0.024893237257902295 F38.28124999999999 created lines
G1 X150.52366666666666 Y102.17766666666667 Z20.494391496055552 E0.024893237257902295 F38.28124999999999 created lines
G1 X149.84983333333332 Y101.50383333333333 Z19.94967900449999 E0.024893237257902295 F38.28124999999999 created lines
G1 X149.176 Y100.83 Z19.412231334722215 E0.024893237257902295 F38.28124999999999 created lines
G1 X148.276875 Y100.83 Z18.79412569153123 E0.023487346938775463 F38.28124999999999 created lines
G1 X147.37775 Y100.83 Z18.099614567781256 E0.023487346938775463 F38.28124999999999 created lines
G1 X146.478625 Y100.83 Z17.418038256281235 E0.023487346938775463 F38.28124999999999 created lines
G1 X145.5795 Y100.83 Z16.74939675703126 E0.023487346938775463 F38.28124999999999 created lines
G1 X144.680375 Y100.83 Z16.09369007003124 E0.023487346938775463 F38.28124999999999 created lines
G1 X143.78125 Y100.83 Z15.450918195281261 E0.023487346938775463 F38.28124999999999 created lines
G1 X142.882125 Y100.83 Z14.821081132781242 E0.023487346938775463 F38.28124999999999 created lines
G1 X141.983 Y100.83 Z14.204178882531261 E0.023487346938775463 F38.28124999999999 created lines
G1 X142.6707894736842 Y101.5177894736842 Z14.132528144509706 E0.025408815065904488 F38.28124999999999 created lines
G1 X143.35857894736841 Y102.20557894736842 Z14.602104461850404 E0.025408815065904748 F38.28124999999999 created lines
G1 X144.04636842105262 Y102.89336842105263 Z15.079249648952912 E0.025408815065904488 F38.28124999999999 created lines
G1 X144.73415789473685 Y103.58115789473683 Z15.563963705817173 E0.025408815065905012 F38.28124999999999 created lines
G1 X145.42194736842106 Y104.26894736842105 Z16.056246632443212 E0.025408815065904748 F38.28124999999999 created lines
G1 X146.10973684210526 Y104.95673684210526 Z16.556098428831042 E0.025408815065904488 F38.28124999999999 created lines
G1 X146.79752631578947 Y105.64452631578948 Z17.0635190949806 E0.025408815065904748 F38.28124999999999 created lines
G1 X147.48531578947367 Y106.33231578947368 Z17.578508630891974 E0.025408815065904488 F38.28124999999999 created lines
G1 X148.17310526315788 Y107.02010526315789 Z18.10106703656508 E0.025408815065904488 F38.28124999999999 created lines
G1 X148.8608947368421 Y107.7078947368421 Z18.631194311999998 E0.025408815065905272 F38.28124999999999 created lines
G1 X149.54868421052632 Y108.39568421052631 Z19.168890457196696 E0.025408815065904488 F38.28124999999999 created lines
G1 X150.23647368421052 Y109.08347368421052 Z19.714155472155113 E0.025408815065904488 F38.28124999999999 created lines
G1 X150.92426315789473 Y109.77126315789474 Z20.266989356875357 E0.025408815065904748 F38.28124999999999 created lines
G1 X151.61205263157893 Y110.45905263157894 Z20.827392111357323 E0.025408815065904488 F38.28124999999999 created lines
G1 X152.29984210526314 Y111.14684210526315 Z21.39536373560111 E0.025408815065904488 F38.28124999999999 created lines
G1 X152.98763157894734 Y111.83463157894737 Z21.97090422960662 E0.025408815065904748 F38.28124999999999 created lines
G1 X153.67542105263158 Y112.52242105263157 Z22.554013593373956 E0.025408815065905012 F38.28124999999999 created lines
G1 X154.36321052631578 Y113.21021052631579 Z23.144691826903056 E0.025408815065904748 F38.28124999999999 created lines
G1 X155.051 Y113.898 Z23.74293893019389 E0.025408815065904488 F38.28124999999999 created lines
G1 X155.051 Y114.83728571428571 Z24.04490080799999 E0.024536443148688115 F38.28124999999999 created lines
G1 X155.051 Y115.77657142857143 Z24.04490080799999 E0.024536443148688115 F38.28124999999999 created lines
G1 X155.051 Y116.71585714285715 Z24.04490080799999 E0.024536443148688115 F38.28124999999999 created lines
G1 X155.051 Y117.65514285714285 Z24.04490080799999 E0.024536443148687744 F38.28124999999999 created lines
G1 X155.051 Y118.59442857142857 Z24.04490080799999 E0.024536443148688115 F38.28124999999999 created lines
G1 X155.051 Y119.53371428571428 Z24.04490080799999 E0.024536443148688115 F38.28124999999999 created lines
G1 X155.051 Y120.473 Z24.04490080799999 E0.024536443148688115 F38.28124999999999 created lines
G1 X154.433 Y120.473 Z23.773492511999994 E0.016143673469387627 F38.28124999999999 created lines
G1 X153.74632142857143 Y119.78632142857143 Z23.20553116949235 E0.025367775313116982 F38.28124999999999 created lines
G1 X153.05964285714285 Y119.09964285714285 Z22.61502801400254 E0.02536777531311751 F38.28124999999999 created lines
G1 X152.3729642857143 Y118.41296428571428 Z22.032069297880103 E0.025367775313116982 F38.28124999999999 created lines
G1 X151.6862857142857 Y117.72628571428571 Z21.45665502112501 E0.02536777531311751 F38.28124999999999 created lines
G1 X150.99960714285714 Y117.03960714285714 Z20.888785183737244 E0.025367775313116982 F38.28124999999999 created lines
G1 X150.31292857142856 Y116.35292857142856 Z20.32845978571682 E0.02536777531311751 F38.28124999999999 created lines
G1 X149.62625 Y115.66624999999999 Z19.775678827063775 E0.025367775313116982 F38.28124999999999 created lines
G1 X148.9395714285714 Y114.97957142857143 Z19.23044230777807 E0.025367775313117246 F38.28124999999999 created lines
G1 X148.25289285714285 Y114.29289285714286 Z18.69275022785969 E0.025367775313116982 F38.28124999999999 created lines
G1 X147.56621428571427 Y113.60621428571429 Z18.162602587308655 E0.02536777531311751 F38.28124999999999 created lines
G1 X146.8795357142857 Y112.91953571428571 Z17.63999938612499 E0.025367775313116982 F38.28124999999999 created lines
G1 X146.19285714285712 Y112.23285714285714 Z17.124940624308678 E0.02536777531311751 F38.28124999999999 created lines
G1 X145.50617857142856 Y111.54617857142857 Z16.617426301859684 E0.025367775313116982 F38.28124999999999 created lines
G1 X144.8195 Y110.8595 Z16.117456418778062 E0.025367775313116982 F38.28124999999999 created lines
G1 X144.13282142857142 Y110.17282142857142 Z15.625030975063767 E0.02536777531311751 F38.28124999999999 created lines
G1 X143.44614285714286 Y109.48614285714285 Z15.140149970716834 E0.025367775313116982 F38.28124999999999 created lines
G1 X142.75946428571427 Y108.79946428571428 Z14.662813405737253 E0.02536777531311751 F38.28124999999999 created lines
G1 X142.07278571428571 Y108.1127857142857 Z14.193021280124997 E0.025367775313116982 F38.28124999999999 created lines
G1 X141.38610714285713 Y107.42610714285713 Z13.730773593880087 E0.02536777531311751 F38.28124999999999 created lines
G1 X140.69942857142857 Y106.73942857142856 Z13.276070347002545 E0.025367775313116982 F38.28124999999999 created lines
G1 X140.01274999999998 Y106.05275 Z12.82891153949235 E0.025367775313117246 F38.28124999999999 created lines
G1 X139.32607142857142 Y105.36607142857142 Z12.389297171349483 E0.025367775313117246 F38.28124999999999 created lines
G1 X138.63939285714284 Y104.67939285714286 Z11.957227242573962 E0.025367775313117246 F38.28124999999999 created lines
G1 X137.95271428571428 Y103.99271428571429 Z11.532701753165806 E0.025367775313116982 F38.28124999999999 created lines
G1 X137.2660357142857 Y103.30603571428571 Z11.115720703125 E0.02536777531311751 F38.28124999999999 created lines
G1 X136.57935714285713 Y102.61935714285714 Z10.706284092451522 E0.025367775313116982 F38.28124999999999 created lines
G1 X135.89267857142858 Y101.93267857142857 Z10.304391921145406 E0.025367775313116982 F38.28124999999999 created lines
G1 X135.206 Y101.246 Z9.910044189206623 E0.02536777531311751 F38.28124999999999 created lines
G1 X134.306875 Y101.246 Z9.464079581531253 E0.023487346938775463 F38.28124999999999 created lines
G1 X133.40775 Y101.246 Z8.970540877781238 E0.023487346938775463 F38.28124999999999 created lines
G1 X132.508625 Y101.246 Z11.018278493140627 E0.023487346938775463 F38.28124999999999 created lines
G1 X131.6095 Y101.246 Z10.640583953515618 E0.023487346938775463 F38.28124999999999 created lines
G1 X130.710375 Y101.246 Z10.269356820015629 E0.023487346938775463 F38.28124999999999 created lines
G1 X129.81125 Y101.246 Z9.90459709264062 E0.023487346938775463 F38.28124999999999 created lines
G1 X128.912125 Y101.246 Z9.54630477139063 E0.023487346938775463 F38.28124999999999 created lines
G1 X128.013 Y101.246 Z9.194479856265621 E0.023487346938775463 F38.28124999999999 created lines
G1 X128.6997142857143 Y101.93267857142857 Z9.153349104510207 E0.02536843501315238 F38.28124999999999 created lines
G1 X129.38642857142858 Y102.61935714285714 Z9.42089142059184 E0.02536843501315238 F38.28124999999999 created lines
G1 X130.07314285714287 Y103.30603571428571 Z9.692206348755105 E0.02536843501315238 F38.28124999999999 created lines
G1 X130.75985714285716 Y103.99271428571429 Z9.967293889000006 E0.02536843501315238 F38.28124999999999 created lines
G1 X131.44657142857145 Y104.67939285714286 Z10.246154041326538 E0.02536843501315238 F38.28124999999999 created lines
G1 X132.13328571428573 Y105.36607142857143 Z10.5287868057347 E0.02536843501315238 F38.28124999999999 created lines
G1 X132.82 Y106.05275 Z8.237858650163261 E0.025368435013151856 F38.28124999999999 created lines
G1 X133.50671428571428 Y106.73942857142856 Z8.598466055877548 E0.02536843501315212 F38.28124999999999 created lines
G1 X134.19342857142857 Y107.42610714285713 Z8.9666186857551 E0.02536843501315238 F38.28124999999999 created lines
G1 X134.88014285714286 Y108.1127857142857 Z9.342316539795917 E0.02536843501315238 F38.28124999999999 created lines
G1 X135.56685714285715 Y108.79946428571428 Z9.725559618 E0.02536843501315238 F38.28124999999999 created lines
G1 X136.25357142857143 Y109.48614285714285 Z10.116347920367348 E0.02536843501315238 F38.28124999999999 created lines
G1 X136.94028571428572 Y110.17282142857142 Z10.514681446897962 E0.02536843501315238 F38.28124999999999 created lines
G1 X137.627 Y110.8595 Z10.920560197591842 E0.02536843501315238 F38.28124999999999 created lines
G1 X138.3137142857143 Y111.54617857142857 Z11.333984172448988 E0.02536843501315238 F38.28124999999999 created lines
G1 X139.00042857142859 Y112.23285714285714 Z11.754953371469394 E0.02536843501315238 F38.28124999999999 created lines
G1 X139.68714285714287 Y112.91953571428571 Z12.18346779465307 E0.02536843501315238 F38.28124999999999 created lines
G1 X140.37385714285716 Y113.60621428571429 Z12.619527442000011 E0.02536843501315238 F38.28124999999999 created lines
G1 X141.06057142857145 Y114.29289285714286 Z13.063132313510218 E0.02536843501315238 F38.28124999999999 created lines
G1 X141.74728571428574 Y114.97957142857143 Z13.51428240918369 E0.02536843501315238 F38.28124999999999 created lines
G1 X142.43400000000003 Y115.66624999999999 Z13.972977729020425 E0.02536843501315212 F38.28124999999999 created lines
G1 X143.12071428571429 Y116.35292857142858 Z14.439218273020426 E0.02536843501315212 F38.28124999999999 created lines
G1 X143.80742857142857 Y117.03960714285714 Z14.913004041183674 E0.02536843501315212 F38.28124999999999 created lines
G1 X144.49414285714286 Y117.72628571428571 Z15.394335033510204 E0.02536843501315238 F38.28124999999999 created lines
G1 X145.18085714285715 Y118.41296428571428 Z15.883211250000004 E0.02536843501315238 F38.28124999999999 created lines
G1 X145.86757142857144 Y119.09964285714285 Z16.379632690653068 E0.02536843501315238 F38.28124999999999 created lines
G1 X146.55428571428573 Y119.78632142857143 Z16.8835993554694 E0.02536843501315238 F38.28124999999999 created lines
G1 X147.241 Y120.473 Z17.39511124444899 E0.02536843501315238 F38.28124999999999 created lines
G1 X146.34187500000002 Y120.473 Z17.315508986531274 E0.023487346938775463 F38.28124999999999 created lines
G1 X145.44275000000002 Y120.473 Z16.648834772781253 E0.023487346938775463 F38.28124999999999 created lines
G1 X144.54362500000002 Y120.473 Z15.995095371281275 E0.023487346938775463 F38.28124999999999 created lines
G1 X143.6445 Y120.473 Z15.354290782031253 E0.023487346938776202 F38.28124999999999 created lines
G1 X142.745375 Y120.473 Z14.726421005031236 E0.023487346938775463 F38.28124999999999 created lines
G1 X141.84625 Y120.473 Z14.111486040281259 E0.023487346938775463 F38.28124999999999 created lines
G1 X140.947125 Y120.473 Z13.50948588778124 E0.023487346938775463 F38.28124999999999 created lines
G1 X140.048 Y120.473 Z12.92042054753126 E0.023487346938775463 F38.28124999999999 created lines
