; generated by PrusaSlicer 2.9.2 on 2025-06-10 at 01:14:27 UTC


;
;

;
;

;
;

;
;
; 

; external perimeters extrusion width = 10.00mm
; perimeters extrusion width = 10.00mm
; infill extrusion width = 3.34mm
; solid infill extrusion width = 10.00mm
; top infill extrusion width = 10.00mm
; first layer extrusion width = 10.00mm

; external perimeters extrusion width = 10.00mm
; perimeters extrusion width = 10.00mm
; infill extrusion width = 3.34mm
; solid infill extrusion width = 10.00mm
; top infill extrusion width = 10.00mm
; first layer extrusion width = 10.00mm

M73 P0 R38
M73 Q0 S38
M201 X4000 Y4000 Z200 E2500 ; sets maximum accelerations, mm/sec^2
M203 X300 Y300 Z40 E100 ; sets maximum feedrates, mm / sec
M204 P4000 R1200 T4000 ; sets acceleration (P, T) and retract acceleration (R), mm/sec^2
M205 X8.00 Y8.00 Z2.00 E10.00 ; sets the jerk limits, mm/sec
M205 S0 T0 ; sets the minimum extruding and travel feed rate, mm/sec

M486 S0
M486 AShape-Box
M486 S-1
M486 S1
M486 AShape-Box
M486 S-1

;TYPE:Custom
M17 ; enable steppers
M862.1 P5 A0 F0 ; nozzle check
M862.3 P "MK4" ; printer model check
M862.5 P2 ; g-code level check
M862.6 P"Input shaper" ; FW feature check
M115 U6.2.4+8909

M555 X77.8994 Y87.0799 W59.6006 H30.4201

G90 ; use absolute coordinates
M83 ; extruder relative mode

M140 S60 ; set bed temp
M104 T0 S170 ; set extruder temp for bed leveling
M109 T0 R170 ; wait for temp

M84 E ; turn off E motor

G28 ; home all without mesh bed level

G1 X42 Y-4 Z5 F4800

M302 S160 ; lower cold extrusion limit to 160C


G1 E-2 F2400 ; retraction


M84 E ; turn off E motor

G29 P9 X10 Y-4 W32 H4

M106 S100

G0 Z40 F10000

M190 S60 ; wait for bed temp

M107

;
; MBL
;
M84 E ; turn off E motor
G29 P1 ; invalidate mbl & probe print area
G29 P1 X0 Y0 W50 H20 C ; probe near purge place
G29 P3.2 ; interpolate mbl probes
G29 P3.13 ; extrapolate mbl outside probe area
G29 A ; activate mbl

; prepare for purge
M104 S230
G1 Z53.79 F15000 NEW Z MOVE
M109 S230

G92 E0
M569 S0 E ; set spreadcycle mode for extruder

;
; Extrude purge line
;
G92 E0 ; reset extruder position
G1 E2 F2400 ; deretraction after the initial one before nozzle cleaning
G0 E7 X15 Z0.2 F500 ; purge
G0 X25 E4 F500 ; purge
G0 X35 E4 F650 ; purge
G0 X45 E4 F800 ; purge
G0 X48 Z0.05 F8000 ; wipe, move close to the bed
G0 X51 Z0.2 F8000 ; wipe, move quickly away from the bed

G92 E0
M221 S100 ; set flow to 100%
G21 ; set units to millimeters
G90 ; use absolute coordinates
M83 ; use relative distances for extrusion
M900 K0 ; Filament gcode


M572 S0 ; Filament gcode


M142 S36 ; set heatbreak target temp
M107 ; disable fan
;LAYER_CHANGE
;Z:1.21
;HEIGHT:1.21
G1 E-.7 F2100 ; retract
M486 S0
G1 X102.615 Y92.756 F18000 ; move to first layer point
G1 Z40.0 F15000 NEW Z MOVE
G1 E.7 F1500 ;  ; unretract
M204 P500 ; adjust acceleration
;TYPE:Internal infill
;WIDTH:10
G1 F76.363
G1 X98.00619999999999 Y92.756 Z40.0 E0.8026209523809529 F5.742187499999999 created lines
G1 X93.39739999999999 Y92.756 Z40.0 E0.8026209523809529 F5.742187499999999 created lines
G1 X88.7886 Y92.756 Z40.0 E0.8026209523809504 F5.742187499999999 created lines
G1 X84.1798 Y92.756 Z40.0 E0.8026209523809529 F5.742187499999999 created lines
G1 X79.571 Y92.756 Z40.0 E0.8026209523809529 F5.742187499999999 created lines
G1 X79.571 Y95.849 Z40.0 E0.5386448979591844 F5.742187499999999 created lines
M73 P1 R38
M73 Q1 S38
G1 X83.9022 Y95.849 Z40.0 E0.7542770068027205 F5.742187499999999 created lines
G1 X88.2334 Y95.849 Z40.0 E0.7542770068027229 F5.742187499999999 created lines
G1 X92.5646 Y95.849 Z40.0 E0.7542770068027205 F5.742187499999999 created lines
G1 X96.89580000000001 Y95.849 Z40.0 E0.7542770068027229 F5.742187499999999 created lines
G1 X101.227 Y95.849 Z40.0 E0.7542770068027205 F5.742187499999999 created lines
M73 P1 R37
G1 X101.227 Y98.941 Z40.0 E0.5384707482993196 F5.742187499999999 created lines
M73 P2 R37
M73 Q2 S37
G1 X96.89580000000001 Y98.941 Z40.0 E0.7542770068027205 F5.742187499999999 created lines
G1 X92.5646 Y98.941 Z40.0 E0.7542770068027229 F5.742187499999999 created lines
G1 X88.2334 Y98.941 Z40.0 E0.7542770068027205 F5.742187499999999 created lines
G1 X83.9022 Y98.941 Z40.0 E0.7542770068027229 F5.742187499999999 created lines
G1 X79.571 Y98.941 Z40.0 E0.7542770068027205 F5.742187499999999 created lines
G1 X79.571 Y102.034 Z40.0 E0.5386448979591844 F5.742187499999999 created lines
G1 X83.9022 Y102.034 Z40.0 E0.7542770068027205 F5.742187499999999 created lines
G1 X88.2334 Y102.034 Z40.0 E0.7542770068027229 F5.742187499999999 created lines
G1 X92.5646 Y102.034 Z40.0 E0.7542770068027205 F5.742187499999999 created lines
G1 X96.89580000000001 Y102.034 Z40.0 E0.7542770068027229 F5.742187499999999 created lines
G1 X101.227 Y102.034 Z40.0 E0.7542770068027205 F5.742187499999999 created lines
G1 X101.227 Y105.126 Z40.0 E0.5384707482993196 F5.742187499999999 created lines
M73 P3 R37
M73 Q3 S37
G1 X96.89580000000001 Y105.126 Z40.0 E0.7542770068027205 F5.742187499999999 created lines
G1 X92.5646 Y105.126 Z40.0 E0.7542770068027229 F5.742187499999999 created lines
G1 X88.2334 Y105.126 Z40.0 E0.7542770068027205 F5.742187499999999 created lines
G1 X83.9022 Y105.126 Z40.0 E0.7542770068027229 F5.742187499999999 created lines
G1 X79.571 Y105.126 Z40.0 E0.7542770068027205 F5.742187499999999 created lines
M73 P3 R36
G1 X79.571 Y108.219 Z40.0 E0.5386448979591819 F5.742187499999999 created lines
M73 P4 R36
M73 Q4 S36
G1 X83.9022 Y108.219 Z40.0 E0.7542770068027205 F5.742187499999999 created lines
G1 X88.2334 Y108.219 Z40.0 E0.7542770068027229 F5.742187499999999 created lines
G1 X92.5646 Y108.219 Z40.0 E0.7542770068027205 F5.742187499999999 created lines
G1 X96.89580000000001 Y108.219 Z40.0 E0.7542770068027229 F5.742187499999999 created lines
G1 X101.227 Y108.219 Z40.0 E0.7542770068027205 F5.742187499999999 created lines
G1 X101.227 Y111.311 Z40.0 E0.5384707482993221 F5.742187499999999 created lines
M73 P5 R36
M73 Q5 S36
G1 X96.89580000000001 Y111.311 Z40.0 E0.7542770068027205 F5.742187499999999 created lines
G1 X92.5646 Y111.311 Z40.0 E0.7542770068027229 F5.742187499999999 created lines
G1 X88.2334 Y111.311 Z40.0 E0.7542770068027205 F5.742187499999999 created lines
G1 X83.9022 Y111.311 Z40.0 E0.7542770068027229 F5.742187499999999 created lines
G1 X79.571 Y111.311 Z40.0 E0.7542770068027205 F5.742187499999999 created lines
G1 X79.571 Y114.404 Z40.0 E0.5386448979591819 F5.742187499999999 created lines
M73 P6 R36
M73 Q6 S36
G1 X84.1798 Y114.404 Z40.0 E0.8026209523809529 F5.742187499999999 created lines
G1 X88.7886 Y114.404 Z40.0 E0.8026209523809529 F5.742187499999999 created lines
G1 X93.3974 Y114.404 Z40.0 E0.8026209523809529 F5.742187499999999 created lines
G1 X98.00619999999999 Y114.404 Z40.0 E0.8026209523809504 F5.742187499999999 created lines
G1 X102.615 Y114.404 Z40.0 E0.8026209523809529 F5.742187499999999 created lines
M204 P4000 ; adjust acceleration
G1 E-.7 F2100 ; retract
M73 P7 R35
M73 Q7 S35
M204 T4000 ; adjust acceleration
M486 S-1
M486 S1
G1 X137.216 Y115.824 F18000 ; move to first infill point
G1 E.7 F1500 ;  ; unretract
M204 P500 ; adjust acceleration
G1 F76.363
G1 X132.6072 Y115.824 Z80.0 E0.8026209523809529 F5.742187499999999 created lines
G1 X127.9984 Y115.824 Z80.0 E0.8026209523809529 F5.742187499999999 created lines
G1 X123.3896 Y115.824 Z80.0 E0.8026209523809529 F5.742187499999999 created lines
G1 X118.7808 Y115.824 Z80.0 E0.8026209523809529 F5.742187499999999 created lines
G1 X114.172 Y115.824 Z80.0 E0.8026209523809529 F5.742187499999999 created lines
G1 X114.172 Y112.731 Z80.0 E0.5386448979591844 F5.742187499999999 created lines
G1 X118.50319999999999 Y112.731 Z80.0 E0.7542770068027205 F5.742187499999999 created lines
G1 X122.8344 Y112.731 Z80.0 E0.7542770068027229 F5.742187499999999 created lines
G1 X127.1656 Y112.731 Z80.0 E0.7542770068027205 F5.742187499999999 created lines
G1 X131.4968 Y112.731 Z80.0 E0.7542770068027229 F5.742187499999999 created lines
G1 X135.828 Y112.731 Z80.0 E0.7542770068027205 F5.742187499999999 created lines
M73 P8 R35
M73 Q8 S35
G1 X135.828 Y109.639 Z80.0 E0.5384707482993196 F5.742187499999999 created lines
G1 X131.4968 Y109.639 Z80.0 E0.7542770068027205 F5.742187499999999 created lines
G1 X127.1656 Y109.639 Z80.0 E0.7542770068027229 F5.742187499999999 created lines
G1 X122.8344 Y109.639 Z80.0 E0.7542770068027205 F5.742187499999999 created lines
G1 X118.50319999999999 Y109.639 Z80.0 E0.7542770068027229 F5.742187499999999 created lines
G1 X114.172 Y109.639 Z80.0 E0.7542770068027205 F5.742187499999999 created lines
G1 X114.172 Y106.546 Z80.0 E0.5386448979591819 F5.742187499999999 created lines
M73 P9 R34
M73 Q9 S34
G1 X118.50319999999999 Y106.546 Z80.0 E0.7542770068027205 F5.742187499999999 created lines
G1 X122.8344 Y106.546 Z80.0 E0.7542770068027229 F5.742187499999999 created lines
G1 X127.1656 Y106.546 Z80.0 E0.7542770068027205 F5.742187499999999 created lines
G1 X131.4968 Y106.546 Z80.0 E0.7542770068027229 F5.742187499999999 created lines
G1 X135.828 Y106.546 Z80.0 E0.7542770068027205 F5.742187499999999 created lines
G1 X135.828 Y103.454 Z80.0 E0.5384707482993221 F5.742187499999999 created lines
M73 P10 R34
M73 Q10 S34
G1 X131.4968 Y103.454 Z80.0 E0.7542770068027205 F5.742187499999999 created lines
G1 X127.1656 Y103.454 Z80.0 E0.7542770068027229 F5.742187499999999 created lines
G1 X122.8344 Y103.454 Z80.0 E0.7542770068027205 F5.742187499999999 created lines
G1 X118.50319999999999 Y103.454 Z80.0 E0.7542770068027229 F5.742187499999999 created lines
G1 X114.172 Y103.454 Z80.0 E0.7542770068027205 F5.742187499999999 created lines
G1 X114.172 Y100.361 Z80.0 E0.5386448979591819 F5.742187499999999 created lines
M73 P11 R34
M73 Q11 S34
G1 X118.50319999999999 Y100.361 Z80.0 E0.7542770068027205 F5.742187499999999 created lines
G1 X122.8344 Y100.361 Z80.0 E0.7542770068027229 F5.742187499999999 created lines
G1 X127.1656 Y100.361 Z80.0 E0.7542770068027205 F5.742187499999999 created lines
G1 X131.4968 Y100.361 Z80.0 E0.7542770068027229 F5.742187499999999 created lines
G1 X135.828 Y100.361 Z80.0 E0.7542770068027205 F5.742187499999999 created lines
G1 X135.828 Y97.269 Z80.0 E0.5384707482993196 F5.742187499999999 created lines
M73 P12 R33
M73 Q12 S33
G1 X131.4968 Y97.269 Z80.0 E0.7542770068027205 F5.742187499999999 created lines
G1 X127.1656 Y97.269 Z80.0 E0.7542770068027229 F5.742187499999999 created lines
G1 X122.8344 Y97.269 Z80.0 E0.7542770068027205 F5.742187499999999 created lines
G1 X118.50319999999999 Y97.269 Z80.0 E0.7542770068027229 F5.742187499999999 created lines
G1 X114.172 Y97.269 Z80.0 E0.7542770068027205 F5.742187499999999 created lines
G1 X114.172 Y94.176 Z80.0 E0.5386448979591844 F5.742187499999999 created lines
G1 X118.7808 Y94.176 Z80.0 E0.8026209523809529 F5.742187499999999 created lines
G1 X123.3896 Y94.176 Z80.0 E0.8026209523809529 F5.742187499999999 created lines
G1 X127.9984 Y94.176 Z80.0 E0.8026209523809529 F5.742187499999999 created lines
G1 X132.6072 Y94.176 Z80.0 E0.8026209523809529 F5.742187499999999 created lines
G1 X137.216 Y94.176 Z80.0 E0.8026209523809529 F5.742187499999999 created lines
M73 P13 R33
M73 Q13 S33
M204 P4000 ; adjust acceleration
M106 S127.5 ; enable fan
;LAYER_CHANGE
;Z:2.42
;HEIGHT:1.21
;BEFORE_LAYER_CHANGE
G92 E0.0
;2.42
M201 X3993.81 Y3993.81

G1 E-.7 F2100 ; retract
;AFTER_LAYER_CHANGE
;2.42
M74 W5.77771

M104 S225 ; set temperature
G1 Z81.21000000000001 F15000 NEW Z MOVE
M486 S-1
M486 S0
G1 X101.223 Y115.796 F18000 ; travel to first layer point
G1 E.7 F1500 ;  ; unretract
;WIDTH:3.344
G1 F241.155
G1 X101.223 Y111.1872 Z41.21 E0.8026209523809529 F5.742187499999999 created lines
G1 X101.223 Y106.5784 Z41.21 E0.8026209523809529 F5.742187499999999 created lines
G1 X101.223 Y101.9696 Z41.21 E0.8026209523809529 F5.742187499999999 created lines
G1 X101.223 Y97.3608 Z41.21 E0.8026209523809529 F5.742187499999999 created lines
G1 X101.223 Y92.752 Z41.21 E0.8026209523809529 F5.742187499999999 created lines
G1 X98.131 Y92.752 Z41.21 E0.5384707482993196 F5.742187499999999 created lines
M73 P14 R33
M73 Q14 S33
G1 X98.131 Y97.08319999999999 Z41.21 E0.7542770068027205 F5.742187499999999 created lines
G1 X98.131 Y101.4144 Z41.21 E0.7542770068027229 F5.742187499999999 created lines
G1 X98.131 Y105.7456 Z41.21 E0.7542770068027205 F5.742187499999999 created lines
G1 X98.131 Y110.07679999999999 Z41.21 E0.7542770068027205 F5.742187499999999 created lines
G1 X98.131 Y114.408 Z41.21 E0.7542770068027229 F5.742187499999999 created lines
G1 X95.038 Y114.408 Z41.21 E0.5386448979591844 F5.742187499999999 created lines
M73 P14 R32
M73 Q14 S32
G1 X95.038 Y110.0768 Z41.21 E0.7542770068027205 F5.742187499999999 created lines
G1 X95.038 Y105.7456 Z41.21 E0.7542770068027229 F5.742187499999999 created lines
G1 X95.038 Y101.4144 Z41.21 E0.7542770068027205 F5.742187499999999 created lines
G1 X95.038 Y97.0832 Z41.21 E0.7542770068027205 F5.742187499999999 created lines
G1 X95.038 Y92.752 Z41.21 E0.7542770068027229 F5.742187499999999 created lines
G1 X91.946 Y92.752 Z41.21 E0.5384707482993196 F5.742187499999999 created lines
G1 X91.946 Y97.08319999999999 Z41.21 E0.7542770068027205 F5.742187499999999 created lines
G1 X91.946 Y101.4144 Z41.21 E0.7542770068027229 F5.742187499999999 created lines
G1 X91.946 Y105.7456 Z41.21 E0.7542770068027205 F5.742187499999999 created lines
G1 X91.946 Y110.07679999999999 Z41.21 E0.7542770068027205 F5.742187499999999 created lines
G1 X91.946 Y114.408 Z41.21 E0.7542770068027229 F5.742187499999999 created lines
G1 X88.853 Y114.408 Z41.21 E0.5386448979591844 F5.742187499999999 created lines
G1 X88.853 Y110.0768 Z41.21 E0.7542770068027205 F5.742187499999999 created lines
G1 X88.853 Y105.7456 Z41.21 E0.7542770068027229 F5.742187499999999 created lines
G1 X88.853 Y101.4144 Z41.21 E0.7542770068027205 F5.742187499999999 created lines
G1 X88.853 Y97.0832 Z41.21 E0.7542770068027205 F5.742187499999999 created lines
G1 X88.853 Y92.752 Z41.21 E0.7542770068027229 F5.742187499999999 created lines
G1 X85.761 Y92.752 Z41.21 E0.5384707482993196 F5.742187499999999 created lines
M73 P15 R32
M73 Q15 S32
G1 X85.761 Y97.08319999999999 Z41.21 E0.7542770068027205 F5.742187499999999 created lines
G1 X85.761 Y101.4144 Z41.21 E0.7542770068027229 F5.742187499999999 created lines
G1 X85.761 Y105.7456 Z41.21 E0.7542770068027205 F5.742187499999999 created lines
G1 X85.761 Y110.07679999999999 Z41.21 E0.7542770068027205 F5.742187499999999 created lines
G1 X85.761 Y114.408 Z41.21 E0.7542770068027229 F5.742187499999999 created lines
G1 X82.668 Y114.408 Z41.21 E0.5386448979591819 F5.742187499999999 created lines
G1 X82.668 Y110.0768 Z41.21 E0.7542770068027205 F5.742187499999999 created lines
G1 X82.668 Y105.7456 Z41.21 E0.7542770068027229 F5.742187499999999 created lines
G1 X82.668 Y101.4144 Z41.21 E0.7542770068027205 F5.742187499999999 created lines
G1 X82.668 Y97.0832 Z41.21 E0.7542770068027205 F5.742187499999999 created lines
G1 X82.668 Y92.752 Z41.21 E0.7542770068027229 F5.742187499999999 created lines
G1 X79.575 Y92.752 Z41.21 E0.5386448979591844 F5.742187499999999 created lines
G1 X79.575 Y97.3608 Z41.21 E0.8026209523809529 F5.742187499999999 created lines
G1 X79.575 Y101.9696 Z41.21 E0.8026209523809529 F5.742187499999999 created lines
G1 X79.575 Y106.5784 Z41.21 E0.8026209523809529 F5.742187499999999 created lines
G1 X79.575 Y111.1872 Z41.21 E0.8026209523809529 F5.742187499999999 created lines
G1 X79.575 Y115.796 Z41.21 E0.8026209523809529 F5.742187499999999 created lines
G1 E-.7 F2100 ; retract
M73 P16 R32
M486 S-1
M486 S1
G1 X114.176 Y117.216 F18000 ; move to first infill point
M73 Q16 S32
G1 E.7 F1500 ;  ; unretract
G1 F241.155
G1 X114.176 Y112.60719999999999 Z81.21000000000001 E0.8026209523809529 F5.742187499999999 created lines
G1 X114.176 Y107.99839999999999 Z81.21000000000001 E0.8026209523809529 F5.742187499999999 created lines
G1 X114.176 Y103.3896 Z81.21000000000001 E0.8026209523809504 F5.742187499999999 created lines
G1 X114.176 Y98.7808 Z81.21000000000001 E0.8026209523809529 F5.742187499999999 created lines
