; generated by PrusaSlicer 2.9.2 on 2025-06-17 at 20:15:43 UTC


;
;

;
;

;
;

;
;

;
;
; 

; external perimeters extrusion width = 3.00mm
; perimeters extrusion width = 3.00mm
; infill extrusion width = 2.00mm
; solid infill extrusion width = 3.00mm
; top infill extrusion width = 3.00mm
G1 Z0 new support 
; first layer extrusion width = 2.00mm

M73 P0 R137
M73 Q0 S137
M201 X4000 Y4000 Z200 E2500 ; sets maximum accelerations, mm/sec^2
M203 X300 Y300 Z40 E100 ; sets maximum feedrates, mm / sec
M204 P4000 R1200 T4000 ; sets acceleration (P, T) and retract acceleration (R), mm/sec^2
M205 X8.00 Y8.00 Z2.00 E10.00 ; sets the jerk limits, mm/sec
M205 S0 T0 ; sets the minimum extruding and travel feed rate, mm/sec

M486 S0
M486 AShape-Box
M486 S-1

;TYPE:Custom
M17 ; enable steppers
M862.3 P "MK4" ; printer model check
M862.5 P2 ; g-code level check
M862.6 P"Input shaper" ; FW feature check
M115 U6.2.2+8853

M555 X100 Y96 W50 H54

G90 ; use absolute coordinates
M83 ; extruder relative mode

M140 S60 ; set bed temp
M104 T0 S170 ; set extruder temp for bed leveling
M109 T0 R170 ; wait for temp

M84 E ; turn off E motor

G28 ; home all without mesh bed level

G1 X42 Y-4 Z5 F4800

M302 S160 ; lower cold extrusion limit to 160C


G1 E-2 F2400 ; retraction


M84 E ; turn off E motor

G29 P9 X10 Y-4 W32 H4

M106 S100

G0 Z40 F10000

M190 S60 ; wait for bed temp

M107

;
; MBL
;
M84 E ; turn off E motor
G29 P1 ; invalidate mbl & probe print area
G29 P1 X0 Y0 W50 H20 C ; probe near purge place
G29 P3.2 ; interpolate mbl probes
G29 P3.13 ; extrapolate mbl outside probe area
G29 A ; activate mbl

; prepare for purge
M104 S230
G1 Z0.7 F15000 NEW Z MOVE
M109 S230

G92 E0
M569 S0 E ; set spreadcycle mode for extruder

;
; Extrude purge line
;
G92 E0 ; reset extruder position
G1 E2 F2400 ; deretraction after the initial one before nozzle cleaning
G0 E7 X15 Z0.2 F500 ; purge
G0 X25 E4 F500 ; purge
G0 X35 E4 F650 ; purge
G0 X45 E4 F800 ; purge
G0 X48 Z0.05 F8000 ; wipe, move close to the bed
G0 X51 Z0.2 F8000 ; wipe, move quickly away from the bed

G92 E0
M221 S100 ; set flow to 100%
G21 ; set units to millimeters
G90 ; use absolute coordinates
M83 ; use relative distances for extrusion
M900 K0 ; Filament gcode


M572 S0 ; Filament gcode


M142 S36 ; set heatbreak target temp
M107 ; disable fan
;LAYER_CHANGE
;Z:1.2
;HEIGHT:1.2
G1 E-.7 F2100 ; retract
M486 S0
G1 X149.584 Y103.942 F18000 ; move to first layer point
G1 Z1.9 F15000 NEW Z MOVE
G1 E.7 F1500 ;  ; unretract
M204 P500 ; adjust acceleration
;TYPE:Internal infill
;WIDTH:2
G1 F430.422
G1 X148.899 Y103.256 Z1.9 E0.193 F1254.292 created lines
G1 X148.213 Y102.571 Z1.9 E0.196 F1234.611 created lines
G1 X147.528 Y101.886 Z1.9 E0.199 F1214.93 created lines
G1 X146.842 Y101.2 Z1.9 E0.203 F1195.248 created lines
G1 X146.02 Y101.2 Z1.9 E0.174 F1179.505 created lines
G1 X145.197 Y101.2 Z1.9 E0.176 F1167.7 created lines
G1 X144.375 Y101.2 Z1.9 E0.178 F1155.895 created lines
G1 X145.007 Y101.832 Z1.9 E0.193 F1159.067 created lines
G1 X145.639 Y102.464 Z1.9 E0.19 F1177.217 created lines
G1 X146.271 Y103.096 Z1.9 E0.187 F1195.366 created lines
G1 X146.904 Y103.729 Z1.9 E0.184 F1213.516 created lines
G1 X147.536 Y104.361 Z1.9 E0.181 F1231.665 created lines
G1 X148.168 Y104.993 Z1.9 E0.179 F1249.814 created lines
G1 X148.8 Y105.625 Z1.9 E0.176 F1267.964 created lines
G1 X148.8 Y106.448 Z1.9 E0.16 F1282.943 created lines
G1 X148.8 Y107.27 Z1.9 E0.159 F1294.753 created lines
G1 X148.8 Y108.093 Z1.9 E0.157 F1306.563 created lines
G1 X148.111 Y107.404 Z1.9 E0.187 F1302.573 created lines
G1 X147.421 Y106.714 Z1.9 E0.19 F1282.782 created lines
G1 X146.732 Y106.025 Z1.9 E0.193 F1262.992 created lines
G1 X146.043 Y105.336 Z1.9 E0.196 F1243.201 created lines
G1 X145.353 Y104.647 Z1.9 E0.199 F1223.411 created lines
G1 X144.664 Y103.957 Z1.9 E0.202 F1203.62 created lines
G1 X143.975 Y103.268 Z1.9 E0.206 F1183.83 created lines
G1 X143.286 Y102.579 Z1.9 E0.209 F1164.04 created lines
G1 X142.596 Y101.889 Z1.9 E0.213 F1144.249 created lines
G1 X141.907 Y101.2 Z1.9 E0.217 F1124.459 created lines
G1 X141.085 Y101.2 Z1.9 E0.185 F1108.661 created lines
G1 X140.262 Y101.2 Z1.9 E0.187 F1096.856 created lines
G1 X139.44 Y101.2 Z1.9 E0.189 F1085.051 created lines
G1 X140.109 Y101.869 Z1.9 E0.217 F1088.746 created lines
G1 X140.777 Y102.537 Z1.9 E0.213 F1107.941 created lines
G1 X141.446 Y103.206 Z1.9 E0.21 F1127.137 created lines
G1 X142.114 Y103.874 Z1.9 E0.206 F1146.332 created lines
G1 X142.783 Y104.543 Z1.9 E0.203 F1165.527 created lines
G1 X143.451 Y105.211 Z1.9 E0.2 F1184.723 created lines
G1 X144.12 Y105.88 Z1.9 E0.196 F1203.918 created lines
G1 X144.789 Y106.549 Z1.9 E0.193 F1223.113 created lines
G1 X145.457 Y107.217 Z1.9 E0.19 F1242.309 created lines
G1 X146.126 Y107.886 Z1.9 E0.187 F1261.504 created lines
G1 X146.794 Y108.554 Z1.9 E0.185 F1280.699 created lines
G1 X147.463 Y109.223 Z1.9 E0.182 F1299.895 created lines
G1 X148.131 Y109.891 Z1.9 E0.179 F1319.09 created lines
G1 X148.8 Y110.56 Z1.9 E0.177 F1338.285 created lines
G1 X148.8 Y111.382 Z1.9 E0.152 F1353.785 created lines
G1 X148.8 Y112.205 Z1.9 E0.151 F1365.59 created lines
G1 X148.8 Y113.027 Z1.9 E0.149 F1377.395 created lines
G1 X148.104 Y112.331 Z1.9 E0.179 F1373.311 created lines
G1 X147.409 Y111.636 Z1.9 E0.182 F1353.336 created lines
G1 X146.713 Y110.94 Z1.9 E0.184 F1333.362 created lines
G1 X146.017 Y110.244 Z1.9 E0.187 F1313.387 created lines
G1 X145.321 Y109.548 Z1.9 E0.19 F1293.413 created lines
G1 X144.626 Y108.853 Z1.9 E0.193 F1273.439 created lines
G1 X143.93 Y108.157 Z1.9 E0.196 F1253.464 created lines
G1 X143.234 Y107.461 Z1.9 E0.199 F1233.49 created lines
G1 X142.539 Y106.766 Z1.9 E0.203 F1213.516 created lines
G1 X141.843 Y106.07 Z1.9 E0.206 F1193.541 created lines
G1 X141.147 Y105.374 Z1.9 E0.21 F1173.567 created lines
G1 X140.452 Y104.679 Z1.9 E0.213 F1153.593 created lines
G1 X139.756 Y103.983 Z1.9 E0.217 F1133.618 created lines
G1 X139.06 Y103.287 Z1.9 E0.221 F1113.644 created lines
G1 X138.364 Y102.591 Z1.9 E0.225 F1093.669 created lines
G1 X137.669 Y101.896 Z1.9 E0.229 F1073.695 created lines
G1 X136.973 Y101.2 Z1.9 E0.233 F1053.721 created lines
G1 X136.151 Y101.2 Z1.9 E0.198 F1037.831 created lines
G1 X135.328 Y101.2 Z1.9 E0.2 F1026.026 created lines
G1 X134.506 Y101.2 Z1.9 E0.203 F1014.221 created lines
G1 X135.187 Y101.881 Z1.9 E0.236 F1018.09 created lines
G1 X135.867 Y102.561 Z1.9 E0.232 F1037.632 created lines
G1 X136.548 Y103.242 Z1.9 E0.228 F1057.175 created lines
G1 X137.229 Y103.923 Z1.9 E0.224 F1076.718 created lines
G1 X137.909 Y104.603 Z1.9 E0.22 F1096.26 created lines
G1 X138.59 Y105.284 Z1.9 E0.216 F1115.803 created lines
G1 X139.271 Y105.965 Z1.9 E0.212 F1135.345 created lines
G1 X139.951 Y106.645 Z1.9 E0.208 F1154.888 created lines
G1 X140.632 Y107.326 Z1.9 E0.205 F1174.43 created lines
G1 X141.313 Y108.007 Z1.9 E0.202 F1193.973 created lines
G1 X141.993 Y108.687 Z1.9 E0.198 F1213.516 created lines
G1 X142.674 Y109.368 Z1.9 E0.195 F1233.058 created lines
G1 X143.355 Y110.049 Z1.9 E0.192 F1252.601 created lines
G1 X144.035 Y110.729 Z1.9 E0.189 F1272.143 created lines
G1 X144.716 Y111.41 Z1.9 E0.186 F1291.686 created lines
G1 X145.397 Y112.091 Z1.9 E0.184 F1311.229 created lines
G1 X146.077 Y112.771 Z1.9 E0.181 F1330.771 created lines
G1 X146.758 Y113.452 Z1.9 E0.178 F1350.314 created lines
G1 X147.439 Y114.133 Z1.9 E0.176 F1369.856 created lines
G1 X148.119 Y114.813 Z1.9 E0.173 F1389.399 created lines
G1 X148.8 Y115.494 Z1.9 E0.171 F1408.941 created lines
G1 X148.8 Y116.316 Z1.9 E0.144 F1424.615 created lines
G1 X148.8 Y117.139 Z1.9 E0.143 F1436.42 created lines
G1 X148.8 Y117.961 Z1.9 E0.142 F1448.225 created lines
G1 X148.102 Y117.263 Z1.9 E0.171 F1444.102 created lines
G1 X147.403 Y116.564 Z1.9 E0.173 F1424.051 created lines
G1 X146.705 Y115.866 Z1.9 E0.176 F1404.0 created lines
G1 X146.007 Y115.168 Z1.9 E0.178 F1383.949 created lines
G1 X145.308 Y114.469 Z1.9 E0.181 F1363.898 created lines
G1 X144.61 Y113.771 Z1.9 E0.184 F1343.847 created lines
G1 X143.911 Y113.072 Z1.9 E0.187 F1323.796 created lines
G1 X143.213 Y112.374 Z1.9 E0.189 F1303.745 created lines
G1 X142.515 Y111.676 Z1.9 E0.192 F1283.694 created lines
G1 X141.816 Y110.977 Z1.9 E0.195 F1263.643 created lines
G1 X141.118 Y110.279 Z1.9 E0.199 F1243.592 created lines
G1 X140.419 Y109.581 Z1.9 E0.202 F1223.541 created lines
G1 X139.721 Y108.882 Z1.9 E0.205 F1203.49 created lines
G1 X139.023 Y108.184 Z1.9 E0.209 F1183.439 created lines
G1 X138.324 Y107.485 Z1.9 E0.212 F1163.388 created lines
G1 X137.626 Y106.787 Z1.9 E0.216 F1143.337 created lines
G1 X136.928 Y106.089 Z1.9 E0.22 F1123.286 created lines
G1 X136.229 Y105.39 Z1.9 E0.224 F1103.235 created lines
G1 X135.531 Y104.692 Z1.9 E0.228 F1083.184 created lines
G1 X134.832 Y103.993 Z1.9 E0.232 F1063.133 created lines
G1 X134.134 Y103.295 Z1.9 E0.237 F1043.082 created lines
G1 X133.436 Y102.597 Z1.9 E0.241 F1023.031 created lines
G1 X132.737 Y101.898 Z1.9 E0.246 F1002.98 created lines
G1 X132.039 Y101.2 Z1.9 E0.251 F982.929 created lines
G1 X131.217 Y101.2 Z1.9 E0.213 F967.001 created lines
G1 X130.394 Y101.2 Z1.9 E0.215 F955.196 created lines
G1 X129.572 Y101.2 Z1.9 E0.218 F943.391 created lines
G1 X130.259 Y101.887 Z1.9 E0.256 F947.347 created lines
G1 X130.945 Y102.573 Z1.9 E0.251 F967.063 created lines
G1 X131.632 Y103.26 Z1.9 E0.246 F986.779 created lines
G1 X132.319 Y103.947 Z1.9 E0.241 F1006.495 created lines
G1 X133.006 Y104.634 Z1.9 E0.237 F1026.212 created lines
G1 X133.692 Y105.32 Z1.9 E0.232 F1045.928 created lines
G1 X134.379 Y106.007 Z1.9 E0.228 F1065.644 created lines
G1 X135.066 Y106.694 Z1.9 E0.224 F1085.36 created lines
G1 X135.752 Y107.38 Z1.9 E0.22 F1105.076 created lines
G1 X136.439 Y108.067 Z1.9 E0.216 F1124.793 created lines
G1 X137.126 Y108.754 Z1.9 E0.212 F1144.509 created lines
G1 X137.813 Y109.441 Z1.9 E0.209 F1164.225 created lines
G1 X138.499 Y110.127 Z1.9 E0.205 F1183.941 created lines
G1 X139.186 Y110.814 Z1.9 E0.202 F1203.658 created lines
G1 X139.873 Y111.501 Z1.9 E0.198 F1223.374 created lines
G1 X140.559 Y112.187 Z1.9 E0.195 F1243.09 created lines
G1 X141.246 Y112.874 Z1.9 E0.192 F1262.806 created lines
G1 X141.933 Y113.561 Z1.9 E0.189 F1282.522 created lines
G1 X142.62 Y114.248 Z1.9 E0.186 F1302.239 created lines
G1 X143.306 Y114.934 Z1.9 E0.184 F1321.955 created lines
G1 X143.993 Y115.621 Z1.9 E0.181 F1341.671 created lines
G1 X144.68 Y116.308 Z1.9 E0.178 F1361.387 created lines
G1 X145.366 Y116.994 Z1.9 E0.176 F1381.103 created lines
G1 X146.053 Y117.681 Z1.9 E0.173 F1400.82 created lines
G1 X146.74 Y118.368 Z1.9 E0.171 F1420.536 created lines
G1 X147.427 Y119.055 Z1.9 E0.169 F1440.252 created lines
G1 X148.113 Y119.741 Z1.9 E0.166 F1459.968 created lines
G1 X148.8 Y120.428 Z1.9 E0.164 F1479.684 created lines
G1 X148.8 Y121.25 Z1.9 E0.137 F1495.445 created lines
G1 X148.8 Y122.073 Z1.9 E0.136 F1507.25 created lines
G1 X148.8 Y122.895 Z1.9 E0.135 F1519.055 created lines
M73 P0 R136
G1 X148.1 Y122.195 Z1.9 E0.163 F1514.911 created lines
G1 X147.4 Y121.495 Z1.9 E0.166 F1494.818 created lines
G1 X146.7 Y120.795 Z1.9 E0.168 F1474.725 created lines
G1 X146.001 Y120.096 Z1.9 E0.17 F1454.632 created lines
G1 X145.301 Y119.396 Z1.9 E0.172 F1434.539 created lines
G1 X144.601 Y118.696 Z1.9 E0.175 F1414.446 created lines
G1 X143.901 Y117.996 Z1.9 E0.177 F1394.353 created lines
G1 X143.201 Y117.296 Z1.9 E0.18 F1374.26 created lines
G1 X142.501 Y116.596 Z1.9 E0.183 F1354.167 created lines
G1 X141.802 Y115.897 Z1.9 E0.185 F1334.074 created lines
G1 X141.102 Y115.197 Z1.9 E0.188 F1313.981 created lines
G1 X140.402 Y114.497 Z1.9 E0.191 F1293.888 created lines
G1 X139.702 Y113.797 Z1.9 E0.194 F1273.795 created lines
G1 X139.002 Y113.097 Z1.9 E0.197 F1253.702 created lines
G1 X138.302 Y112.397 Z1.9 E0.201 F1233.609 created lines
G1 X137.603 Y111.698 Z1.9 E0.204 F1213.516 created lines
G1 X136.903 Y110.998 Z1.9 E0.207 F1193.423 created lines
G1 X136.203 Y110.298 Z1.9 E0.211 F1173.33 created lines
G1 X135.503 Y109.598 Z1.9 E0.215 F1153.237 created lines
G1 X134.803 Y108.898 Z1.9 E0.218 F1133.144 created lines
G1 X134.103 Y108.198 Z1.9 E0.222 F1113.05 created lines
G1 X133.404 Y107.499 Z1.9 E0.226 F1092.957 created lines
G1 X132.704 Y106.799 Z1.9 E0.231 F1072.864 created lines
G1 X132.004 Y106.099 Z1.9 E0.235 F1052.771 created lines
G1 X131.304 Y105.399 Z1.9 E0.24 F1032.678 created lines
G1 X130.604 Y104.699 Z1.9 E0.244 F1012.585 created lines
G1 X129.904 Y103.999 Z1.9 E0.249 F992.492 created lines
G1 X129.205 Y103.3 Z1.9 E0.254 F972.399 created lines
G1 X128.505 Y102.6 Z1.9 E0.26 F952.306 created lines
G1 X127.805 Y101.9 Z1.9 E0.265 F932.213 created lines
G1 X127.105 Y101.2 Z1.9 E0.271 F912.12 created lines
G1 X126.283 Y101.2 Z1.9 E0.229 F896.171 created lines
G1 X125.46 Y101.2 Z1.9 E0.232 F884.366 created lines
G1 X124.638 Y101.2 Z1.9 E0.236 F872.561 created lines
G1 X125.328 Y101.89 Z1.9 E0.278 F876.569 created lines
G1 X126.019 Y102.581 Z1.9 E0.272 F896.389 created lines
G1 X126.709 Y103.271 Z1.9 E0.266 F916.21 created lines
G1 X127.399 Y103.961 Z1.9 E0.261 F936.03 created lines
G1 X128.09 Y104.652 Z1.9 E0.255 F955.851 created lines
G1 X128.78 Y105.342 Z1.9 E0.25 F975.671 created lines
G1 X129.47 Y106.032 Z1.9 E0.245 F995.491 created lines
G1 X130.161 Y106.723 Z1.9 E0.24 F1015.312 created lines
G1 X130.851 Y107.413 Z1.9 E0.236 F1035.132 created lines
G1 X131.541 Y108.103 Z1.9 E0.231 F1054.952 created lines
G1 X132.232 Y108.794 Z1.9 E0.227 F1074.773 created lines
G1 X132.922 Y109.484 Z1.9 E0.223 F1094.593 created lines
G1 X133.612 Y110.174 Z1.9 E0.219 F1114.414 created lines
G1 X134.303 Y110.865 Z1.9 E0.215 F1134.234 created lines
G1 X134.993 Y111.555 Z1.9 E0.211 F1154.054 created lines
G1 X135.683 Y112.245 Z1.9 E0.208 F1173.875 created lines
G1 X136.374 Y112.936 Z1.9 E0.204 F1193.695 created lines
G1 X137.064 Y113.626 Z1.9 E0.201 F1213.516 created lines
G1 X137.755 Y114.317 Z1.9 E0.198 F1233.336 created lines
G1 X138.445 Y115.007 Z1.9 E0.195 F1253.156 created lines
G1 X139.135 Y115.697 Z1.9 E0.192 F1272.977 created lines
G1 X139.826 Y116.388 Z1.9 E0.189 F1292.797 created lines
G1 X140.516 Y117.078 Z1.9 E0.186 F1312.618 created lines
G1 X141.206 Y117.768 Z1.9 E0.183 F1332.438 created lines
G1 X141.897 Y118.459 Z1.9 E0.18 F1352.258 created lines
G1 X142.587 Y119.149 Z1.9 E0.178 F1372.079 created lines
G1 X143.277 Y119.839 Z1.9 E0.175 F1391.899 created lines
G1 X143.968 Y120.53 Z1.9 E0.173 F1411.72 created lines
G1 X144.658 Y121.22 Z1.9 E0.17 F1431.54 created lines
G1 X145.348 Y121.91 Z1.9 E0.168 F1451.36 created lines
G1 X146.039 Y122.601 Z1.9 E0.166 F1471.181 created lines
G1 X146.729 Y123.291 Z1.9 E0.164 F1491.001 created lines
G1 X147.419 Y123.981 Z1.9 E0.162 F1510.821 created lines
G1 X148.11 Y124.672 Z1.9 E0.159 F1530.642 created lines
G1 X148.8 Y125.362 Z1.9 E0.157 F1550.462 created lines
G1 X148.8 Y126.185 Z1.9 E0.131 F1566.277 created lines
G1 X148.8 Y127.007 Z1.9 E0.13 F1578.087 created lines
G1 X148.8 Y127.83 Z1.9 E0.129 F1589.897 created lines
G1 X148.099 Y127.129 Z1.9 E0.156 F1585.742 created lines
G1 X147.398 Y126.428 Z1.9 E0.158 F1565.622 created lines
G1 X146.698 Y125.728 Z1.9 E0.16 F1545.502 created lines
G1 X145.997 Y125.027 Z1.9 E0.162 F1525.382 created lines
G1 X145.296 Y124.326 Z1.9 E0.165 F1505.262 created lines
G1 X144.595 Y123.625 Z1.9 E0.167 F1485.142 created lines
G1 X143.895 Y122.924 Z1.9 E0.169 F1465.022 created lines
G1 X143.194 Y122.224 Z1.9 E0.171 F1444.902 created lines
G1 X142.493 Y121.523 Z1.9 E0.174 F1424.782 created lines
G1 X141.792 Y120.822 Z1.9 E0.176 F1404.662 created lines
G1 X141.092 Y120.121 Z1.9 E0.179 F1384.542 created lines
G1 X140.391 Y119.421 Z1.9 E0.182 F1364.422 created lines
G1 X139.69 Y118.72 Z1.9 E0.184 F1344.302 created lines
G1 X138.989 Y118.019 Z1.9 E0.187 F1324.183 created lines
G1 X138.289 Y117.318 Z1.9 E0.19 F1304.063 created lines
G1 X137.588 Y116.617 Z1.9 E0.193 F1283.943 created lines
G1 X136.887 Y115.917 Z1.9 E0.196 F1263.823 created lines
G1 X136.186 Y115.216 Z1.9 E0.199 F1243.703 created lines
