; generated by PrusaSlicer 2.9.2 on 2025-06-17 at 20:15:43 UTC


;
;

;
;

;
;

;
;

;
;
; 

; external perimeters extrusion width = 3.00mm
; perimeters extrusion width = 3.00mm
; infill extrusion width = 2.00mm
; solid infill extrusion width = 3.00mm
; top infill extrusion width = 3.00mm
G1 Z0.000 ; new support
; first layer extrusion width = 2.00mm

M73 P0 R137
M73 Q0 S137
M201 X4000 Y4000 Z200 E2500 ; sets maximum accelerations, mm/sec^2
M203 X300 Y300 Z40 E100 ; sets maximum feedrates, mm / sec
M204 P4000 R1200 T4000 ; sets acceleration (P, T) and retract acceleration (R), mm/sec^2
M205 X8.00 Y8.00 Z2.00 E10.00 ; sets the jerk limits, mm/sec
M205 S0 T0 ; sets the minimum extruding and travel feed rate, mm/sec

M486 S0
M486 AShape-Box
M486 S-1

;TYPE:Custom
M17 ; enable steppers
M862.3 P "MK4" ; printer model check
M862.5 P2 ; g-code level check
M862.6 P"Input shaper" ; FW feature check
M115 U6.2.2+8853

M555 X100 Y96 W50 H54

G90 ; use absolute coordinates
M83 ; extruder relative mode

M140 S60 ; set bed temp
M104 T0 S170 ; set extruder temp for bed leveling
M109 T0 R170 ; wait for temp

M84 E ; turn off E motor

G28 ; home all without mesh bed level

G1 X42 Y-4 Z5 F4800

M302 S160 ; lower cold extrusion limit to 160C


G1 E-2 F2400 ; retraction


M84 E ; turn off E motor

G29 P9 X10 Y-4 W32 H4

M106 S100

G0 Z40 F10000

M190 S60 ; wait for bed temp

M107

;
; MBL
;
M84 E ; turn off E motor
G29 P1 ; invalidate mbl & probe print area
G29 P1 X0 Y0 W50 H20 C ; probe near purge place
G29 P3.2 ; interpolate mbl probes
G29 P3.13 ; extrapolate mbl outside probe area
G29 A ; activate mbl

; prepare for purge
M104 S230
G1 Z0.700 F15000.000 ; NEW Z MOVE
M109 S230

G92 E0
M569 S0 E ; set spreadcycle mode for extruder

;
; Extrude purge line
;
G92 E0 ; reset extruder position
G1 E2 F2400 ; deretraction after the initial one before nozzle cleaning
G0 E7 X15 Z0.2 F500 ; purge
G0 X25 E4 F500 ; purge
G0 X35 E4 F650 ; purge
G0 X45 E4 F800 ; purge
G0 X48 Z0.05 F8000 ; wipe, move close to the bed
G0 X51 Z0.2 F8000 ; wipe, move quickly away from the bed

G92 E0
M221 S100 ; set flow to 100%
G21 ; set units to millimeters
G90 ; use absolute coordinates
M83 ; use relative distances for extrusion
M900 K0 ; Filament gcode


M572 S0 ; Filament gcode


M142 S36 ; set heatbreak target temp
M107 ; disable fan
;LAYER_CHANGE
;Z:1.2
;HEIGHT:1.2
G1 E-.7 F2100 ; retract
M486 S0
G1 X149.584 Y103.942 F18000 ; move to first layer point
G1 Z1.900 F15000.000 ; NEW Z MOVE
G1 E.7 F1500 ;  ; unretract
M204 P500 ; adjust acceleration
;TYPE:Internal infill
;WIDTH:2
G1 F430.422
G1 X146.842 Y101.2 E3.37105 ; infill
G1 X144.375 Y101.2 E2.14463 ; infill
G1 X148.8 Y105.625 E5.44015 ; infill
G1 X148.8 Y108.093 E2.1455 ; infill
G1 X141.907 Y101.2 E8.47434 ; infill
G1 X139.44 Y101.2 E2.14463 ; infill
G1 X148.8 Y110.56 E11.5073 ; infill
G1 X148.8 Y113.027 E2.14463 ; infill
G1 X136.973 Y101.2 E14.54026 ; infill
G1 X134.506 Y101.2 E2.14463 ; infill
G1 X148.8 Y115.494 E17.57322 ; infill
G1 X148.8 Y117.961 E2.14463 ; infill
G1 X132.039 Y101.2 E20.60618 ; infill
G1 X129.572 Y101.2 E2.14463 ; infill
G1 X148.8 Y120.428 E23.63914 ; infill
G1 X148.8 Y122.895 E2.14463 ; infill
M73 P0 R136
G1 X127.105 Y101.2 E26.6721 ; infill
G1 X124.638 Y101.2 E2.14463 ; infill
G1 X148.8 Y125.362 E29.70506 ; infill
G1 X148.8 Y127.83 E2.1455 ; infill
G1 X122.171 Y101.2 E32.73863 ; infill
G1 X119.703 Y101.2 E2.1455 ; infill
M73 Q0 S136
G1 X148.8 Y130.297 E35.77221 ; infill
G1 X148.8 Y132.764 E2.14463 ; infill
G1 X117.236 Y101.2 E38.80517 ; infill
G1 X114.769 Y101.2 E2.14463 ; infill
G1 X148.8 Y135.231 E41.83813 ; infill
G1 X148.8 Y137.698 E2.14463 ; infill
G1 X112.302 Y101.2 E44.87109 ; infill
G1 X109.835 Y101.2 E2.14463 ; infill
G1 X148.8 Y140.165 E47.90405 ; infill
G1 X148.8 Y142.632 E2.14463 ; infill
G1 X107.368 Y101.2 E50.93701 ; infill
G1 X104.901 Y101.2 E2.14463 ; infill
M73 P1 R136
M73 Q1 S136
G1 X148.8 Y145.099 E53.96997 ; infill
G1 X148.8 Y147.566 E2.14463 ; infill
M73 P1 R135
G1 X102.434 Y101.2 E57.00293 ; infill
G1 X101.2 Y101.2 E1.07275 ; infill
M73 Q1 S135
G1 X101.2 Y102.434 E1.07275 ; infill
G1 X147.566 Y148.8 E57.00293 ; infill
G1 X145.099 Y148.8 E2.14463 ; infill
G1 X101.2 Y104.901 E53.96997 ; infill
G1 X101.2 Y107.368 E2.14463 ; infill
G1 X142.632 Y148.8 E50.93701 ; infill
G1 X140.165 Y148.8 E2.14463 ; infill
G1 X101.2 Y109.835 E47.90405 ; infill
G1 X101.2 Y112.302 E2.14463 ; infill
G1 X137.698 Y148.8 E44.87109 ; infill
G1 X135.231 Y148.8 E2.14463 ; infill
M73 P1 R134
G1 X101.2 Y114.769 E41.83813 ; infill
G1 X101.2 Y117.236 E2.14463 ; infill
G1 X132.764 Y148.8 E38.80517 ; infill
G1 X130.297 Y148.8 E2.14463 ; infill
M73 Q1 S134
G1 X101.2 Y119.703 E35.77221 ; infill
G1 X101.2 Y122.171 E2.1455 ; infill
M73 P2 R134
M73 Q2 S134
G1 X127.829 Y148.8 E32.73802 ; infill
G1 X125.362 Y148.8 E2.14463 ; infill
G1 X101.2 Y124.638 E29.70506 ; infill
G1 X101.2 Y127.105 E2.14463 ; infill
G1 X122.895 Y148.8 E26.6721 ; infill
G1 X120.428 Y148.8 E2.14463 ; infill
G1 X101.2 Y129.572 E23.63914 ; infill
G1 X101.2 Y132.039 E2.14463 ; infill
G1 X117.961 Y148.8 E20.60618 ; infill
G1 X115.494 Y148.8 E2.14463 ; infill
G1 X101.2 Y134.506 E17.57322 ; infill
G1 X101.2 Y136.973 E2.14463 ; infill
G1 X113.027 Y148.8 E14.54026 ; infill
G1 X110.56 Y148.8 E2.14463 ; infill
G1 X101.2 Y139.44 E11.5073 ; infill
G1 X101.2 Y141.908 E2.1455 ; infill
G1 X108.092 Y148.8 E8.47311 ; infill
G1 X105.625 Y148.8 E2.14463 ; infill
G1 X101.2 Y144.375 E5.44015 ; infill
G1 X101.2 Y146.842 E2.14463 ; infill
G1 X103.942 Y149.584 E3.37105 ; infill
M204 P4000 ; adjust acceleration
M106 S127.5 ; enable fan
;LAYER_CHANGE
;Z:2.4
;HEIGHT:1.2
;BEFORE_LAYER_CHANGE
G92 E0.0
;2.4
M201 X3996.13 Y3996.13

G1 E-.7 F2100 ; retract
G1 X103.942 Y149.584 Z1.2 F18000 ; layer change
G1 X130.461 Y149.71 Z2.126 ; layer change
G1 X134.389 Y149.728 Z2.246 ; layer change
G1 X138.316 Y149.747 Z2.331 ; layer change
G1 X146.171 Y149.784 Z2.4 ; layer change
G1 X146.228 Y149.784 Z2.4 ; layer change
;AFTER_LAYER_CHANGE
;2.4
M74 W3.60916

M104 S220 ; set temperature
G1 X146.228 Y149.784 ; move to first layer point
G1 Z3.100 F15000.000 ; NEW Z MOVE
G1 E.7 F1500 ;  ; unretract
G1 F430.422
G1 X149 Y147.012 E3.40793 ; infill
G1 X149 Y144.525 E2.16201 ; infill
G1 X144.525 Y149 E5.50162 ; infill
G1 X142.037 Y149 E2.16288 ; infill
G1 X149 Y142.037 E8.5604 ; infill
G1 X149 Y139.55 E2.16201 ; infill
G1 X139.55 Y149 E11.61795 ; infill
G1 X137.063 Y149 E2.16201 ; infill
M73 P2 R133
G1 X149 Y137.063 E14.67549 ; infill
G1 X149 Y134.576 E2.16201 ; infill
G1 X134.576 Y149 E17.73304 ; infill
G1 X132.089 Y149 E2.16201 ; infill
G1 X149 Y132.089 E20.79059 ; infill
G1 X149 Y129.602 E2.16201 ; infill
G1 X129.602 Y149 E23.84814 ; infill
G1 X127.115 Y149 E2.16201 ; infill
M73 Q2 S133
G1 X149 Y127.115 E26.90569 ; infill
G1 X149 Y124.628 E2.16201 ; infill
G1 X124.628 Y149 E29.96323 ; infill
G1 X122.14 Y149 E2.16288 ; infill
G1 X149 Y122.14 E33.02201 ; infill
G1 X149 Y119.653 E2.16201 ; infill
G1 X119.653 Y149 E36.07956 ; infill
G1 X117.166 Y149 E2.16201 ; infill
G1 X149 Y117.166 E39.13711 ; infill
G1 X149 Y114.679 E2.16201 ; infill
M73 P3 R133
M73 Q3 S133
G1 X114.679 Y149 E42.19466 ; infill
G1 X112.192 Y149 E2.16201 ; infill
G1 X149 Y112.192 E45.2522 ; infill
G1 X149 Y109.705 E2.16201 ; infill
G1 X109.705 Y149 E48.30975 ; infill
G1 X107.218 Y149 E2.16201 ; infill
M73 P3 R132
G1 X149 Y107.218 E51.3673 ; infill
G1 X149 Y104.731 E2.16201 ; infill
M73 Q3 S132
G1 X104.731 Y149 E54.42485 ; infill
G1 X102.243 Y149 E2.16288 ; infill
G1 X149 Y102.244 E57.48301 ; infill
G1 X149 Y101 E1.08144 ; infill
G1 X147.756 Y101 E1.08144 ; infill
G1 X101 Y147.756 E57.4824 ; infill
G1 X101 Y145.269 E2.16201 ; infill
G1 X145.269 Y101 E54.42485 ; infill
G1 X142.782 Y101 E2.16201 ; infill
G1 X101 Y142.782 E51.3673 ; infill
G1 X101 Y140.295 E2.16201 ; infill
M73 P3 R131
G1 X140.295 Y101 E48.30975 ; infill
G1 X137.808 Y101 E2.16201 ; infill
M73 P4 R131
M73 Q4 S132
G1 X101 Y137.808 E45.2522 ; infill
G1 X101 Y135.321 E2.16201 ; infill
M73 Q4 S131
G1 X135.321 Y101 E42.19466 ; infill
G1 X132.834 Y101 E2.16201 ; infill
G1 X101 Y132.834 E39.13711 ; infill
G1 X101 Y130.347 E2.16201 ; infill
G1 X130.347 Y101 E36.07956 ; infill
G1 X127.859 Y101 E2.16288 ; infill
G1 X101 Y127.859 E33.02078 ; infill
G1 X101 Y125.372 E2.16201 ; infill
G1 X125.372 Y101 E29.96323 ; infill
G1 X122.885 Y101 E2.16201 ; infill
G1 X101 Y122.885 E26.90569 ; infill
G1 X101 Y120.398 E2.16201 ; infill
G1 X120.398 Y101 E23.84814 ; infill
G1 X117.911 Y101 E2.16201 ; infill
G1 X101 Y117.911 E20.79059 ; infill
G1 X101 Y115.424 E2.16201 ; infill
G1 X115.424 Y101 E17.73304 ; infill
G1 X112.937 Y101 E2.16201 ; infill
M73 P4 R130
G1 X101 Y112.937 E14.67549 ; infill
G1 X101 Y110.45 E2.16201 ; infill
G1 X110.45 Y101 E11.61795 ; infill
G1 X107.962 Y101 E2.16288 ; infill
G1 X101 Y107.962 E8.55917 ; infill
G1 X101 Y105.475 E2.16201 ; infill
G1 X105.475 Y101 E5.50162 ; infill
G1 X102.988 Y101 E2.16201 ; infill
G1 X100.216 Y103.772 E3.40793 ; infill
M106 S255 ; enable fan
;LAYER_CHANGE
;Z:3.6
;HEIGHT:1.2
;BEFORE_LAYER_CHANGE
G92 E0.0
;3.6
M201 X3992.23 Y3992.23

G1 E-.7 F2100 ; retract
G1 X100.216 Y103.772 Z2.4 F18000 ; layer change
G1 X102.26 Y130.213 Z3.326 ; layer change
G1 X102.562 Y134.128 Z3.446 ; layer change
G1 X102.865 Y138.044 Z3.531 ; layer change
G1 X103.47 Y145.875 Z3.6 ; layer change
M73 Q4 S130
G1 X103.772 Y149.784 Z3.6 ; layer change
;AFTER_LAYER_CHANGE
;3.6
M74 W7.24949

G1 X103.772 Y149.784 ; move to first layer point
G1 Z4.300 F15000.000 ; NEW Z MOVE
G1 E.7 F1500 ;  ; unretract
G1 F430.422
G1 X101 Y147.012 E3.40793 ; infill
G1 X101 Y144.525 E2.16201 ; infill
G1 X105.475 Y149 E5.50162 ; infill
G1 X107.962 Y149 E2.16201 ; infill
G1 X101 Y142.038 E8.55917 ; infill
G1 X101 Y139.55 E2.16288 ; infill
G1 X110.45 Y149 E11.61795 ; infill
G1 X112.937 Y149 E2.16201 ; infill
G1 X101 Y137.063 E14.67549 ; infill
G1 X101 Y134.576 E2.16201 ; infill
G1 X115.424 Y149 E17.73304 ; infill
G1 X117.911 Y149 E2.16201 ; infill
G1 X101 Y132.089 E20.79059 ; infill
G1 X101 Y129.602 E2.16201 ; infill
M73 P5 R130
M73 Q5 S130
G1 X120.398 Y149 E23.84814 ; infill
G1 X122.885 Y149 E2.16201 ; infill
G1 X101 Y127.115 E26.90569 ; infill
G1 X101 Y124.628 E2.16201 ; infill
G1 X125.372 Y149 E29.96323 ; infill
G1 X127.859 Y149 E2.16201 ; infill
G1 X101 Y122.141 E33.02078 ; infill
G1 X101 Y119.653 E2.16288 ; infill
G1 X130.347 Y149 E36.07956 ; infill
G1 X132.834 Y149 E2.16201 ; infill
G1 X101 Y117.166 E39.13711 ; infill
G1 X101 Y114.679 E2.16201 ; infill
G1 X135.321 Y149 E42.19466 ; infill
G1 X137.808 Y149 E2.16201 ; infill
M73 P5 R129
G1 X101 Y112.192 E45.2522 ; infill
G1 X101 Y109.705 E2.16201 ; infill
M73 Q5 S129
G1 X140.295 Y149 E48.30975 ; infill
G1 X142.782 Y149 E2.16201 ; infill
G1 X101 Y107.218 E51.3673 ; infill
G1 X101 Y104.731 E2.16201 ; infill
G1 X145.269 Y149 E54.42485 ; infill
G1 X147.756 Y149 E2.16201 ; infill
G1 X101 Y102.244 E57.4824 ; infill
G1 X101 Y101 E1.08144 ; infill
M73 P6 R129
M73 Q6 S129
G1 X102.243 Y101 E1.08057 ; infill
G1 X149 Y147.757 E57.48363 ; infill
G1 X149 Y145.269 E2.16288 ; infill
G1 X104.731 Y101 E54.42485 ; infill
G1 X107.218 Y101 E2.16201 ; infill
M73 P6 R128
G1 X149 Y142.782 E51.3673 ; infill
G1 X149 Y140.295 E2.16201 ; infill
M73 Q6 S128
G1 X109.705 Y101 E48.30975 ; infill
G1 X112.192 Y101 E2.16201 ; infill
G1 X149 Y137.808 E45.2522 ; infill
G1 X149 Y135.321 E2.16201 ; infill
G1 X114.679 Y101 E42.19466 ; infill
G1 X117.166 Y101 E2.16201 ; infill
G1 X149 Y132.834 E39.13711 ; infill
G1 X149 Y130.347 E2.16201 ; infill
G1 X119.653 Y101 E36.07956 ; infill
G1 X122.14 Y101 E2.16201 ; infill
G1 X149 Y127.86 E33.02201 ; infill
G1 X149 Y125.372 E2.16288 ; infill
G1 X124.628 Y101 E29.96323 ; infill
G1 X127.115 Y101 E2.16201 ; infill
M73 P6 R127
G1 X149 Y122.885 E26.90569 ; infill
G1 X149 Y120.398 E2.16201 ; infill
G1 X129.602 Y101 E23.84814 ; infill
G1 X132.089 Y101 E2.16201 ; infill
M73 P7 R127
M73 Q7 S127
G1 X149 Y117.911 E20.79059 ; infill
G1 X149 Y115.424 E2.16201 ; infill
G1 X134.576 Y101 E17.73304 ; infill
G1 X137.063 Y101 E2.16201 ; infill
G1 X149 Y112.937 E14.67549 ; infill
G1 X149 Y110.45 E2.16201 ; infill
G1 X139.55 Y101 E11.61795 ; infill
G1 X142.037 Y101 E2.16201 ; infill
G1 X149 Y107.963 E8.5604 ; infill
G1 X149 Y105.475 E2.16288 ; infill
G1 X144.525 Y101 E5.50162 ; infill
G1 X147.012 Y101 E2.16201 ; infill
G1 X149.784 Y103.772 E3.40793 ; infill
;LAYER_CHANGE
;Z:4.8
;HEIGHT:1.2
;BEFORE_LAYER_CHANGE
G92 E0.0
;4.8
M201 X3988.33 Y3988.33

G1 E-.7 F2100 ; retract
G1 X149.784 Y103.772 Z3.6 F18000 ; layer change
G1 X147.74 Y130.213 Z4.526 ; layer change
G1 X147.438 Y134.128 Z4.646 ; layer change
G1 X147.135 Y138.044 Z4.731 ; layer change
G1 X146.53 Y145.876 Z4.8 ; layer change
G1 X146.228 Y149.784 Z4.8 ; layer change
;AFTER_LAYER_CHANGE
;4.8
M74 W10.8898

G1 X146.228 Y149.784 ; move to first layer point
G1 Z5.500 F15000.000 ; NEW Z MOVE
G1 E.7 F1500 ;  ; unretract
G1 F430.422
G1 X149 Y147.012 E3.40793 ; infill
G1 X149 Y144.525 E2.16201 ; infill
G1 X144.525 Y149 E5.50162 ; infill
G1 X142.037 Y149 E2.16288 ; infill
G1 X149 Y142.037 E8.5604 ; infill
G1 X149 Y139.55 E2.16201 ; infill
G1 X139.55 Y149 E11.61795 ; infill
G1 X137.063 Y149 E2.16201 ; infill
G1 X149 Y137.063 E14.67549 ; infill
G1 X149 Y134.576 E2.16201 ; infill
G1 X134.576 Y149 E17.73304 ; infill
G1 X132.089 Y149 E2.16201 ; infill
G1 X149 Y132.089 E20.79059 ; infill
G1 X149 Y129.602 E2.16201 ; infill
G1 X129.602 Y149 E23.84814 ; infill
G1 X127.115 Y149 E2.16201 ; infill
G1 X149 Y127.115 E26.90569 ; infill
G1 X149 Y124.628 E2.16201 ; infill
G1 X124.628 Y149 E29.96323 ; infill
G1 X122.14 Y149 E2.16288 ; infill
G1 X149 Y122.14 E33.02201 ; infill
G1 X149 Y119.653 E2.16201 ; infill
M73 P7 R126
G1 X119.653 Y149 E36.07956 ; infill
G1 X117.166 Y149 E2.16201 ; infill
G1 X149 Y117.166 E39.13711 ; infill
G1 X149 Y114.679 E2.16201 ; infill
M73 Q7 S126
G1 X114.679 Y149 E42.19466 ; infill
G1 X112.192 Y149 E2.16201 ; infill
G1 X149 Y112.192 E45.2522 ; infill
G1 X149 Y109.705 E2.16201 ; infill
G1 X109.705 Y149 E48.30975 ; infill
G1 X107.218 Y149 E2.16201 ; infill
M73 P8 R126
M73 Q8 S126
G1 X149 Y107.218 E51.3673 ; infill
G1 X149 Y104.731 E2.16201 ; infill
G1 X104.731 Y149 E54.42485 ; infill
G1 X102.243 Y149 E2.16288 ; infill
G1 X149 Y102.244 E57.48301 ; infill
G1 X149 Y101 E1.08144 ; infill
M73 P8 R125
G1 X147.756 Y101 E1.08144 ; infill
G1 X101 Y147.756 E57.4824 ; infill
G1 X101 Y145.269 E2.16201 ; infill
M73 Q8 S125
G1 X145.269 Y101 E54.42485 ; infill
G1 X142.782 Y101 E2.16201 ; infill
G1 X101 Y142.782 E51.3673 ; infill
G1 X101 Y140.295 E2.16201 ; infill
G1 X140.295 Y101 E48.30975 ; infill
G1 X137.808 Y101 E2.16201 ; infill
G1 X101 Y137.808 E45.2522 ; infill
G1 X101 Y135.321 E2.16201 ; infill
G1 X135.321 Y101 E42.19466 ; infill
G1 X132.834 Y101 E2.16201 ; infill
M73 P9 R125
M73 Q9 S125
G1 X101 Y132.834 E39.13711 ; infill
G1 X101 Y130.347 E2.16201 ; infill
M73 P9 R124
G1 X130.347 Y101 E36.07956 ; infill
G1 X127.859 Y101 E2.16288 ; infill
G1 X101 Y127.859 E33.02078 ; infill
G1 X101 Y125.372 E2.16201 ; infill
M73 Q9 S124
G1 X125.372 Y101 E29.96323 ; infill
G1 X122.885 Y101 E2.16201 ; infill
G1 X101 Y122.885 E26.90569 ; infill
G1 X101 Y120.398 E2.16201 ; infill
G1 X120.398 Y101 E23.84814 ; infill
G1 X117.911 Y101 E2.16201 ; infill
G1 X101 Y117.911 E20.79059 ; infill
G1 X101 Y115.424 E2.16201 ; infill
G1 X115.424 Y101 E17.73304 ; infill
G1 X112.937 Y101 E2.16201 ; infill
G1 X101 Y112.937 E14.67549 ; infill
G1 X101 Y110.45 E2.16201 ; infill
G1 X110.45 Y101 E11.61795 ; infill
G1 X107.962 Y101 E2.16288 ; infill
G1 X101 Y107.962 E8.55917 ; infill
G1 X101 Y105.475 E2.16201 ; infill
G1 X105.475 Y101 E5.50162 ; infill
G1 X102.988 Y101 E2.16201 ; infill
G1 X100.216 Y103.772 E3.40793 ; infill
;LAYER_CHANGE
;Z:6
;HEIGHT:1.2
;BEFORE_LAYER_CHANGE
G92 E0.0
;6
M201 X3984.43 Y3984.43

G1 E-.7 F2100 ; retract
G1 X100.216 Y103.772 Z4.8 F18000 ; layer change
G1 X102.26 Y130.213 Z5.726 ; layer change
G1 X102.562 Y134.128 Z5.846 ; layer change
G1 X102.865 Y138.044 Z5.931 ; layer change
