; generated by PrusaSlicer 2.9.2 on 2025-06-20 at 21:30:49 UTC


;
;

;
;

;
;

;
;

;
;
; 

; external perimeters extrusion width = 3.00mm
; perimeters extrusion width = 3.00mm
; infill extrusion width = 2.00mm
; solid infill extrusion width = 3.00mm
; top infill extrusion width = 3.00mm
; first layer extrusion width = 2.00mm

M73 P0 R421
M73 Q0 S422
M201 X4000 Y4000 Z200 E2500 ; sets maximum accelerations, mm/sec^2
M203 X300 Y300 Z40 E100 ; sets maximum feedrates, mm / sec
M204 P4000 R1200 T4000 ; sets acceleration (P, T) and retract acceleration (R), mm/sec^2
M205 X8.00 Y8.00 Z2.00 E10.00 ; sets the jerk limits, mm/sec
M205 S0 T0 ; sets the minimum extruding and travel feed rate, mm/sec

M486 S0
M486 AShape-Box
M486 S-1

;TYPE:Custom
M17 ; enable steppers
M862.1 P5 A0 F0 ; nozzle check
M862.3 P "MK4" ; printer model check
M862.5 P2 ; g-code level check
M862.6 P"Input shaper" ; FW feature check
M115 U6.2.2+8853

M555 X90.4401 Y88.6408 W32 H35.2614

G90 ; use absolute coordinates
M83 ; extruder relative mode

M140 S50 ; set bed temp
M104 T0 S210 ; set extruder temp for bed leveling
M109 T0 R210 ; wait for temp

M84 E ; turn off E motor

G28 ; home all without mesh bed level

G1 X42 Y-4 Z5 F4800

M302 S160 ; lower cold extrusion limit to 160C


G1 E-4 F2400 ; retraction


M84 E ; turn off E motor

G29 P9 X10 Y-4 W32 H4

M106 S100

G0 Z40 F10000

M190 S50 ; wait for bed temp

M107

;
; MBL
;
M84 E ; turn off E motor
G29 P1 ; invalidate mbl & probe print area
G29 P1 X0 Y0 W50 H20 C ; probe near purge place
G29 P3.2 ; interpolate mbl probes
G29 P3.13 ; extrapolate mbl outside probe area
G29 A ; activate mbl

; prepare for purge
M104 S230
G0 X0 Y-4 Z15 F4800 ; move away and ready for the purge
M109 S230

G92 E0
M569 S0 E ; set spreadcycle mode for extruder

;
; Extrude purge line
;
G92 E0 ; reset extruder position
G1 E4 F2400 ; deretraction after the initial one before nozzle cleaning
G0 E7 X15 Z0.2 F500 ; purge
G0 X25 E4 F500 ; purge
G0 X35 E4 F650 ; purge
G0 X45 E4 F800 ; purge
G0 X48 Z0.05 F8000 ; wipe, move close to the bed
G0 X51 Z0.2 F8000 ; wipe, move quickly away from the bed

G92 E0
M221 S100 ; set flow to 100%
G21 ; set units to millimeters
G90 ; use absolute coordinates
M83 ; use relative distances for extrusion
M900 K0 ; Filament gcode

M142 S36 ; set heatbreak target temp
M107 ; disable fan
;LAYER_CHANGE
;Z:1
;HEIGHT:1
G1 E-2.5 F3600 ; retract
G1 Z1.6 F720 ; lift
M486 S0
G1 X121.305 Y96.69 F18000 ; move to first layer point
G1 Z1 F720 ; move to first layer point
G1 E2.5 F1200 ;  ; unretract
M204 P500 ; adjust acceleration
;TYPE:Internal infill
;WIDTH:2
G1 F100.818
G1 X118.456 Y93.841 E3.22998 ; infill
G1 X115.902 Y93.841 E2.04745 ; infill
M73 Q0 S421
G1 X120.501 Y98.44 E5.214 ; infill
G1 X120.501 Y100.994 E2.04745 ; infill
G1 X113.348 Y93.841 E8.10954 ; infill
G1 X110.794 Y93.841 E2.04745 ; infill
G1 X120.501 Y103.548 E11.00507 ; infill
G1 X120.501 Y106.102 E2.04745 ; infill
G1 X108.24 Y93.841 E13.90061 ; infill
G1 X105.686 Y93.841 E2.04745 ; infill
G1 X120.501 Y108.656 E16.79614 ; infill
G1 X120.501 Y111.21 E2.04745 ; infill
M73 P0 R420
G1 X103.133 Y93.841 E19.69111 ; infill
G1 X100.579 Y93.841 E2.04745 ; infill
M73 Q0 S420
G1 X120.501 Y113.764 E22.58664 ; infill
G1 X120.501 Y116.318 E2.04745 ; infill
G1 X98.025 Y93.841 E25.48218 ; infill
G1 X95.471 Y93.841 E2.04745 ; infill
G1 X120.501 Y118.871 E28.37714 ; infill
G1 X120.501 Y121.425 E2.04745 ; infill
M73 P0 R419
M73 Q0 S419
G1 X92.917 Y93.841 E31.27268 ; infill
G1 X91.64 Y93.841 E1.02373 ; infill
G1 X91.64 Y95.118 E1.02373 ; infill
G1 X119.224 Y122.702 E31.27268 ; infill
G1 X116.671 Y122.702 E2.04665 ; infill
M73 P0 R418
G1 X91.64 Y97.672 E28.37771 ; infill
G1 X91.64 Y100.226 E2.04745 ; infill
M73 Q0 S418
G1 X114.117 Y122.702 E25.48218 ; infill
G1 X111.563 Y122.702 E2.04745 ; infill
G1 X91.64 Y102.78 E22.58664 ; infill
G1 X91.64 Y105.333 E2.04665 ; infill
M73 P0 R417
G1 X109.009 Y122.702 E19.69168 ; infill
M73 Q0 S417
G1 X106.455 Y122.702 E2.04745 ; infill
M73 P1 R417
M73 Q1 S417
G1 X91.64 Y107.887 E16.79614 ; infill
G1 X91.64 Y110.441 E2.04745 ; infill
G1 X103.901 Y122.702 E13.90061 ; infill
G1 X101.347 Y122.702 E2.04745 ; infill
G1 X91.64 Y112.995 E11.00507 ; infill
G1 X91.64 Y115.549 E2.04745 ; infill
M73 P1 R416
G1 X98.793 Y122.702 E8.10954 ; infill
G1 X96.239 Y122.702 E2.04745 ; infill
G1 X91.64 Y118.103 E5.214 ; infill
G1 X91.64 Y120.657 E2.04745 ; infill
M73 Q1 S416
G1 X94.489 Y123.506 E3.22998 ; infill
M204 P4000 ; adjust acceleration
;LAYER_CHANGE
;Z:2
;HEIGHT:1
;BEFORE_LAYER_CHANGE
G92 E0.0
;2
M201 X3998.7 Y3998.7

G1 E-2.5 F3600 ; retract
G1 X94.489 Y123.506 Z1 F18000 ; layer change
G1 X109.948 Y123.638 Z1.663 F16801.842 ; layer change
G1 X113.875 Y123.672 Z1.81 F18000 ; layer change
G1 X117.803 Y123.706 Z1.916 ; layer change
;AFTER_LAYER_CHANGE
;2
M74 W1.21582

G1 X117.803 Y123.706 ; move to first layer point
G1 Z2 F720 ; move to first layer point
G1 E2.5 F1200 ;  ; unretract
G1 F100.818
G1 X120.701 Y120.807 E3.2861 ; infill
G1 X120.701 Y118.219 E2.07471 ; infill
G1 X116.019 Y122.902 E5.30867 ; infill
G1 X113.432 Y122.902 E2.07391 ; infill
G1 X120.701 Y115.632 E8.24162 ; infill
G1 X120.701 Y113.045 E2.07391 ; infill
G1 X110.844 Y122.902 E11.17513 ; infill
G1 X108.257 Y122.902 E2.07391 ; infill
G1 X120.701 Y110.458 E14.10808 ; infill
G1 X120.701 Y107.871 E2.07391 ; infill
G1 X105.67 Y122.902 E17.04103 ; infill
G1 X103.083 Y122.902 E2.07391 ; infill
M73 P1 R415
G1 X120.701 Y105.283 E19.97454 ; infill
M73 Q1 S415
G1 X120.701 Y102.696 E2.07391 ; infill
G1 X100.495 Y122.902 E22.90805 ; infill
G1 X97.908 Y122.902 E2.07391 ; infill
G1 X120.701 Y100.109 E25.841 ; infill
G1 X120.701 Y97.522 E2.07391 ; infill
M73 P1 R414
G1 X95.321 Y122.902 E28.77395 ; infill
G1 X92.734 Y122.902 E2.07391 ; infill
M73 Q1 S414
G1 X120.701 Y94.934 E31.70746 ; infill
G1 X120.701 Y93.641 E1.03655 ; infill
G1 X119.408 Y93.641 E1.03655 ; infill
G1 X91.44 Y121.608 E31.70746 ; infill
G1 X91.44 Y119.021 E2.07391 ; infill
M73 P1 R413
M73 Q1 S413
G1 X116.821 Y93.641 E28.77452 ; infill
G1 X114.233 Y93.641 E2.07471 ; infill
M73 P2 R413
M73 Q2 S413
G1 X91.44 Y116.434 E25.841 ; infill
G1 X91.44 Y113.847 E2.07391 ; infill
M73 P2 R412
G1 X111.646 Y93.641 E22.90805 ; infill
G1 X109.059 Y93.641 E2.07391 ; infill
M73 Q2 S412
G1 X91.44 Y111.26 E19.97511 ; infill
G1 X91.44 Y108.672 E2.07471 ; infill
G1 X106.472 Y93.641 E17.04159 ; infill
G1 X103.884 Y93.641 E2.07471 ; infill
G1 X91.44 Y106.085 E14.10808 ; infill
G1 X91.44 Y103.498 E2.07391 ; infill
M73 P2 R411
G1 X101.297 Y93.641 E11.17513 ; infill
G1 X98.71 Y93.641 E2.07391 ; infill
M73 Q2 S411
G1 X91.44 Y100.911 E8.24218 ; infill
G1 X91.44 Y98.323 E2.07471 ; infill
G1 X96.123 Y93.641 E5.30867 ; infill
G1 X93.536 Y93.641 E2.07391 ; infill
G1 X90.637 Y96.54 E3.28667 ; infill
;LAYER_CHANGE
;Z:3
;HEIGHT:1
;BEFORE_LAYER_CHANGE
G92 E0.0
;3
M201 X3997.38 Y3997.38

G1 E-2.5 F3600 ; retract
G1 X90.637 Y96.54 Z2 F18000 ; layer change
G1 X93.278 Y115.923 Z2.714 ; layer change
G1 X93.809 Y119.814 Z2.839 ; layer change
G1 X94.339 Y123.706 Z2.928 ; layer change
;AFTER_LAYER_CHANGE
;3
M74 W2.44913

G1 X94.339 Y123.706 ; move to first layer point
G1 Z3 F720 ; move to first layer point
G1 E2.5 F1200 ;  ; unretract
G1 F100.818
G1 X91.44 Y120.807 E3.28667 ; infill
G1 X91.44 Y118.22 E2.07391 ; infill
G1 X96.123 Y122.902 E5.30867 ; infill
G1 X98.71 Y122.902 E2.07391 ; infill
G1 X91.44 Y115.632 E8.24218 ; infill
G1 X91.44 Y113.045 E2.07391 ; infill
G1 X101.297 Y122.902 E11.17513 ; infill
G1 X103.884 Y122.902 E2.07391 ; infill
G1 X91.44 Y110.458 E14.10808 ; infill
G1 X91.44 Y107.871 E2.07391 ; infill
M73 P2 R410
G1 X106.472 Y122.902 E17.04159 ; infill
G1 X109.059 Y122.902 E2.07391 ; infill
M73 Q2 S410
G1 X91.44 Y105.283 E19.97511 ; infill
G1 X91.44 Y102.696 E2.07391 ; infill
G1 X111.646 Y122.902 E22.90805 ; infill
G1 X114.233 Y122.902 E2.07391 ; infill
G1 X91.44 Y100.109 E25.841 ; infill
M73 P2 R409
G1 X91.44 Y97.522 E2.07391 ; infill
M73 Q2 S409
G1 X116.821 Y122.902 E28.77452 ; infill
G1 X119.408 Y122.902 E2.07391 ; infill
M73 P3 R409
M73 Q3 S409
G1 X91.44 Y94.934 E31.70803 ; infill
G1 X91.44 Y93.641 E1.03655 ; infill
M73 P3 R408
G1 X92.734 Y93.641 E1.03735 ; infill
G1 X120.701 Y121.609 E31.70746 ; infill
G1 X120.701 Y119.021 E2.07471 ; infill
M73 Q3 S408
G1 X95.321 Y93.641 E28.77395 ; infill
G1 X97.908 Y93.641 E2.07391 ; infill
G1 X120.701 Y116.434 E25.841 ; infill
G1 X120.701 Y113.847 E2.07391 ; infill
M73 P3 R407
M73 Q3 S407
G1 X100.495 Y93.641 E22.90805 ; infill
G1 X103.083 Y93.641 E2.07471 ; infill
G1 X120.701 Y111.26 E19.97454 ; infill
G1 X120.701 Y108.672 E2.07471 ; infill
G1 X105.67 Y93.641 E17.04103 ; infill
G1 X108.257 Y93.641 E2.07391 ; infill
M73 P3 R406
G1 X120.701 Y106.085 E14.10808 ; infill
G1 X120.701 Y103.498 E2.07391 ; infill
M73 Q3 S406
G1 X110.844 Y93.641 E11.17513 ; infill
G1 X113.432 Y93.641 E2.07471 ; infill
G1 X120.701 Y100.911 E8.24162 ; infill
G1 X120.701 Y98.324 E2.07391 ; infill
G1 X116.019 Y93.641 E5.30867 ; infill
G1 X118.606 Y93.641 E2.07391 ; infill
G1 X121.505 Y96.54 E3.28667 ; infill
M106 S76.5 ; enable fan
;LAYER_CHANGE
;Z:4
;HEIGHT:1
;BEFORE_LAYER_CHANGE
G92 E0.0
;4
M201 X3996.05 Y3996.05

G1 E-2.5 F3600 ; retract
G1 X121.505 Y96.54 Z3 F18000 ; layer change
G1 X118.863 Y115.923 Z3.714 ; layer change
G1 X118.333 Y119.814 Z3.839 ; layer change
G1 X117.803 Y123.706 Z3.928 ; layer change
;AFTER_LAYER_CHANGE
;4
M74 W3.68245

G1 X117.803 Y123.706 ; move to first layer point
G1 Z4 F720 ; move to first layer point
G1 E2.5 F1200 ;  ; unretract
G1 F100.818
G1 X120.701 Y120.807 E3.2861 ; infill
G1 X120.701 Y118.219 E2.07471 ; infill
G1 X116.019 Y122.902 E5.30867 ; infill
G1 X113.432 Y122.902 E2.07391 ; infill
G1 X120.701 Y115.632 E8.24162 ; infill
G1 X120.701 Y113.045 E2.07391 ; infill
M73 P3 R405
G1 X110.844 Y122.902 E11.17513 ; infill
G1 X108.257 Y122.902 E2.07391 ; infill
G1 X120.701 Y110.458 E14.10808 ; infill
M73 Q3 S405
G1 X120.701 Y107.871 E2.07391 ; infill
G1 X105.67 Y122.902 E17.04103 ; infill
G1 X103.083 Y122.902 E2.07391 ; infill
G1 X120.701 Y105.283 E19.97454 ; infill
G1 X120.701 Y102.696 E2.07391 ; infill
G1 X100.495 Y122.902 E22.90805 ; infill
G1 X97.908 Y122.902 E2.07391 ; infill
M73 P4 R404
M73 Q4 S405
G1 X120.701 Y100.109 E25.841 ; infill
M73 Q4 S404
G1 X120.701 Y97.522 E2.07391 ; infill
G1 X95.321 Y122.902 E28.77395 ; infill
G1 X92.734 Y122.902 E2.07391 ; infill
G1 X120.701 Y94.934 E31.70746 ; infill
G1 X120.701 Y93.641 E1.03655 ; infill
M73 P4 R403
M73 Q4 S403
G1 X119.408 Y93.641 E1.03655 ; infill
G1 X91.44 Y121.608 E31.70746 ; infill
G1 X91.44 Y119.021 E2.07391 ; infill
G1 X116.821 Y93.641 E28.77452 ; infill
G1 X114.233 Y93.641 E2.07471 ; infill
M73 P4 R402
G1 X91.44 Y116.434 E25.841 ; infill
G1 X91.44 Y113.847 E2.07391 ; infill
M73 Q4 S402
G1 X111.646 Y93.641 E22.90805 ; infill
G1 X109.059 Y93.641 E2.07391 ; infill
G1 X91.44 Y111.26 E19.97511 ; infill
G1 X91.44 Y108.672 E2.07471 ; infill
M73 P4 R401
G1 X106.472 Y93.641 E17.04159 ; infill
G1 X103.884 Y93.641 E2.07471 ; infill
M73 Q4 S401
G1 X91.44 Y106.085 E14.10808 ; infill
G1 X91.44 Y103.498 E2.07391 ; infill
G1 X101.297 Y93.641 E11.17513 ; infill
G1 X98.71 Y93.641 E2.07391 ; infill
G1 X91.44 Y100.911 E8.24218 ; infill
G1 X91.44 Y98.323 E2.07471 ; infill
G1 X96.123 Y93.641 E5.30867 ; infill
G1 X93.536 Y93.641 E2.07391 ; infill
G1 X90.637 Y96.54 E3.28667 ; infill
;LAYER_CHANGE
;Z:5
;HEIGHT:1
;BEFORE_LAYER_CHANGE
G92 E0.0
;5
M201 X3994.73 Y3994.73

G1 E-2.5 F3600 ; retract
G1 X90.637 Y96.54 Z4 F18000 ; layer change
G1 X93.278 Y115.923 Z4.714 ; layer change
G1 X93.809 Y119.814 Z4.839 ; layer change
G1 X94.339 Y123.706 Z4.928 ; layer change
;AFTER_LAYER_CHANGE
;5
M74 W4.91577

G1 X94.339 Y123.706 ; move to first layer point
G1 Z5 F720 ; move to first layer point
G1 E2.5 F1200 ;  ; unretract
G1 F100.818
G1 X91.44 Y120.807 E3.28667 ; infill
G1 X91.44 Y118.22 E2.07391 ; infill
G1 X96.123 Y122.902 E5.30867 ; infill
M73 P4 R400
G1 X98.71 Y122.902 E2.07391 ; infill
G1 X91.44 Y115.632 E8.24218 ; infill
G1 X91.44 Y113.045 E2.07391 ; infill
M73 P5 R400
M73 Q5 S400
G1 X101.297 Y122.902 E11.17513 ; infill
G1 X103.884 Y122.902 E2.07391 ; infill
G1 X91.44 Y110.458 E14.10808 ; infill
G1 X91.44 Y107.871 E2.07391 ; infill
G1 X106.472 Y122.902 E17.04159 ; infill
G1 X109.059 Y122.902 E2.07391 ; infill
G1 X91.44 Y105.283 E19.97511 ; infill
G1 X91.44 Y102.696 E2.07391 ; infill
M73 P5 R399
G1 X111.646 Y122.902 E22.90805 ; infill
G1 X114.233 Y122.902 E2.07391 ; infill
M73 Q5 S399
G1 X91.44 Y100.109 E25.841 ; infill
G1 X91.44 Y97.522 E2.07391 ; infill
G1 X116.821 Y122.902 E28.77452 ; infill
G1 X119.408 Y122.902 E2.07391 ; infill
M73 P5 R398
G1 X91.44 Y94.934 E31.70803 ; infill
G1 X91.44 Y93.641 E1.03655 ; infill
M73 Q5 S398
G1 X92.734 Y93.641 E1.03735 ; infill
G1 X120.701 Y121.609 E31.70746 ; infill
G1 X120.701 Y119.021 E2.07471 ; infill
G1 X95.321 Y93.641 E28.77395 ; infill
G1 X97.908 Y93.641 E2.07391 ; infill
M73 P5 R397
M73 Q5 S397
G1 X120.701 Y116.434 E25.841 ; infill
G1 X120.701 Y113.847 E2.07391 ; infill
G1 X100.495 Y93.641 E22.90805 ; infill
G1 X103.083 Y93.641 E2.07471 ; infill
G1 X120.701 Y111.26 E19.97454 ; infill
M73 P5 R396
G1 X120.701 Y108.672 E2.07471 ; infill
M73 Q5 S396
G1 X105.67 Y93.641 E17.04103 ; infill
G1 X108.257 Y93.641 E2.07391 ; infill
M73 P6 R396
M73 Q6 S396
G1 X120.701 Y106.085 E14.10808 ; infill
G1 X120.701 Y103.498 E2.07391 ; infill
G1 X110.844 Y93.641 E11.17513 ; infill
G1 X113.432 Y93.641 E2.07471 ; infill
G1 X120.701 Y100.911 E8.24162 ; infill
G1 X120.701 Y98.324 E2.07391 ; infill
G1 X116.019 Y93.641 E5.30867 ; infill
M73 P6 R395
G1 X118.606 Y93.641 E2.07391 ; infill
G1 X121.505 Y96.54 E3.28667 ; infill
;LAYER_CHANGE
;Z:6
;HEIGHT:1
;BEFORE_LAYER_CHANGE
G92 E0.0
;6
M201 X3993.41 Y3993.41

G1 E-2.5 F3600 ; retract
G1 X121.505 Y96.54 Z5 F18000 ; layer change
G1 X118.863 Y115.923 Z5.714 ; layer change
G1 X118.333 Y119.814 Z5.839 ; layer change
G1 X117.803 Y123.706 Z5.928 ; layer change
;AFTER_LAYER_CHANGE
;6
M74 W6.14909

G1 X117.803 Y123.706 ; move to first layer point
G1 Z6 F720 ; move to first layer point
G1 E2.5 F1200 ;  ; unretract
G1 F100.818
G1 X120.701 Y120.807 E3.2861 ; infill
G1 X120.701 Y118.219 E2.07471 ; infill
M73 Q6 S395
G1 X116.019 Y122.902 E5.30867 ; infill
G1 X113.432 Y122.902 E2.07391 ; infill
G1 X120.701 Y115.632 E8.24162 ; infill
G1 X120.701 Y113.045 E2.07391 ; infill
G1 X110.844 Y122.902 E11.17513 ; infill
G1 X108.257 Y122.902 E2.07391 ; infill
G1 X120.701 Y110.458 E14.10808 ; infill
G1 X120.701 Y107.871 E2.07391 ; infill
G1 X105.67 Y122.902 E17.04103 ; infill
G1 X103.083 Y122.902 E2.07391 ; infill
M73 P6 R394
G1 X120.701 Y105.283 E19.97454 ; infill
G1 X120.701 Y102.696 E2.07391 ; infill
M73 Q6 S394
G1 X100.495 Y122.902 E22.90805 ; infill
G1 X97.908 Y122.902 E2.07391 ; infill
G1 X120.701 Y100.109 E25.841 ; infill
G1 X120.701 Y97.522 E2.07391 ; infill
G1 X95.321 Y122.902 E28.77395 ; infill
G1 X92.734 Y122.902 E2.07391 ; infill
M73 P6 R393
M73 Q6 S393
G1 X120.701 Y94.934 E31.70746 ; infill
G1 X120.701 Y93.641 E1.03655 ; infill
G1 X119.408 Y93.641 E1.03655 ; infill
G1 X91.44 Y121.608 E31.70746 ; infill
G1 X91.44 Y119.021 E2.07391 ; infill
M73 P6 R392
G1 X116.821 Y93.641 E28.77452 ; infill
M73 Q6 S392
G1 X114.233 Y93.641 E2.07471 ; infill
G1 X91.44 Y116.434 E25.841 ; infill
G1 X91.44 Y113.847 E2.07391 ; infill
M73 P7 R392
M73 Q7 S392
G1 X111.646 Y93.641 E22.90805 ; infill
G1 X109.059 Y93.641 E2.07391 ; infill
M73 P7 R391
M73 Q7 S391
G1 X91.44 Y111.26 E19.97511 ; infill
G1 X91.44 Y108.672 E2.07471 ; infill
G1 X106.472 Y93.641 E17.04159 ; infill
G1 X103.884 Y93.641 E2.07471 ; infill
G1 X91.44 Y106.085 E14.10808 ; infill
G1 X91.44 Y103.498 E2.07391 ; infill
G1 X101.297 Y93.641 E11.17513 ; infill
G1 X98.71 Y93.641 E2.07391 ; infill
M73 P7 R390
G1 X91.44 Y100.911 E8.24218 ; infill
G1 X91.44 Y98.323 E2.07471 ; infill
M73 Q7 S390
G1 X96.123 Y93.641 E5.30867 ; infill
G1 X93.536 Y93.641 E2.07391 ; infill
G1 X90.637 Y96.54 E3.28667 ; infill
;LAYER_CHANGE
;Z:7
;HEIGHT:1
;BEFORE_LAYER_CHANGE
G92 E0.0
;7
M201 X3992.09 Y3992.09

