; generated by PrusaSlicer 2.9.2 on 2025-06-16 at 16:17:41 UTC


;
;

;
;

;
;

;
;

;
;
; 

; external perimeters extrusion width = 3.00mm
; perimeters extrusion width = 3.00mm
; infill extrusion width = 3.00mm
; solid infill extrusion width = 3.00mm
; top infill extrusion width = 3.00mm
; support material extrusion width = 0.50mm
; first layer extrusion width = 3.00mm

M73 P0 R109
M73 Q0 S112
M201 X4000 Y4000 Z200 E2500 ; sets maximum accelerations, mm/sec^2
M203 X300 Y300 Z40 E100 ; sets maximum feedrates, mm / sec
M204 P4000 R1200 T4000 ; sets acceleration (P, T) and retract acceleration (R), mm/sec^2
M205 X8.00 Y8.00 Z2.00 E10.00 ; sets the jerk limits, mm/sec
M205 S0 T0 ; sets the minimum extruding and travel feed rate, mm/sec

M486 S0
M486 AShape-Box
M486 S-1

;TYPE:Custom
M17 ; enable steppers
M862.1 P3 A0 F0 ; nozzle check
M862.3 P "MK4" ; printer model check
M862.5 P2 ; g-code level check
M862.6 P"Input shaper" ; FW feature check
M115 U6.2.2+8853

M555 X91.011 Y80.9502 W67.8359 H54.0997

G90 ; use absolute coordinates
M83 ; extruder relative mode

M140 S100 ; set bed temp
M104 T0 S170 ; set extruder temp for bed leveling
M109 T0 R170 ; wait for temp

M84 E ; turn off E motor

G28 ; home all without mesh bed level

G1 X42 Y-4 Z5 F4800

M302 S160 ; lower cold extrusion limit to 160C


G1 E-2 F2400 ; retraction


M84 E ; turn off E motor

G29 P9 X10 Y-4 W32 H4



G0 Z40 F10000

M190 S100 ; wait for bed temp

M107

;
; MBL
;
M84 E ; turn off E motor
G29 P1 ; invalidate mbl & probe print area
G29 P1 X0 Y0 W50 H20 C ; probe near purge place
G29 P3.2 ; interpolate mbl probes
G29 P3.13 ; extrapolate mbl outside probe area
G29 A ; activate mbl

; prepare for purge
M104 S260
G0 X0 Y-4 Z15 F4800 ; move away and ready for the purge
M109 S260

G92 E0
M569 S0 E ; set spreadcycle mode for extruder

;
; Extrude purge line
;
G92 E0 ; reset extruder position
G1 E2 F2400 ; deretraction after the initial one before nozzle cleaning
G0 E7 X15 Z0.2 F500 ; purge
G0 X25 E4 F500 ; purge
G0 X35 E4 F650 ; purge
G0 X45 E4 F800 ; purge
G0 X48 Z0.05 F8000 ; wipe, move close to the bed
G0 X51 Z0.2 F8000 ; wipe, move quickly away from the bed

G92 E0
M221 S100 ; set flow to 100%
G21 ; set units to millimeters
G90 ; use absolute coordinates
M83 ; use relative distances for extrusion
T1 ; change extruder
M900 K0 ; Filament gcode


M572 S0 ; Filament gcode


M142 S40 ; set heatbreak target temp
M107 ; disable fan
;LAYER_CHANGE
;Z:0.3
;HEIGHT:0.3
M486 S0
G1 E-.7 F2100 ; retract
G1 Z1.8 F720 ; lift
G1 X157.379 Y133.582 F18000 ; move to first layer point
G1 Z.3 F720 ; move to first layer point
G1 E.7 F1500 ;  ; unretract
M204 P500 ; adjust acceleration
;TYPE:Support material
;WIDTH:3
G1 F1021.931
G1 X128.736 Y133.582 E10.48754 ; support material
G1 X129.121 Y133.197 E.19936 ; support material
G1 X129.121 Y86.803 E16.98701 ; support material
G1 X128.736 Y86.418 E.19936 ; support material
G1 X157.379 Y86.418 E10.48754 ; support material
G1 X157.379 Y133.142 E17.10784 ; support material
M204 P4000 ; adjust acceleration
M204 T4000 ; adjust acceleration
G1 X154.356 Y132.261 F18000 ; move to first support material point
M204 P500 ; adjust acceleration
G1 F1021.931
G1 X154.356 Y89.06 E15.8179 ; support material
G1 X150.687 Y89.06 E1.34339 ; support material
G1 X150.687 Y130.94 E15.33422 ; support material
G1 X147.017 Y130.94 E1.34376 ; support material
G1 X147.017 Y89.06 E15.33422 ; support material
G1 X143.348 Y89.06 E1.34339 ; support material
M73 Q0 S111
G1 X143.348 Y130.94 E15.33422 ; support material
G1 X139.678 Y130.94 E1.34376 ; support material
G1 X139.678 Y89.06 E15.33422 ; support material
G1 X136.009 Y89.06 E1.34339 ; support material
G1 X136.009 Y130.94 E15.33422 ; support material
G1 X132.339 Y130.94 E1.34376 ; support material
G1 X132.339 Y87.739 E15.8179 ; support material
M204 P4000 ; adjust acceleration
G1 E-.7 F2100 ; retract
G1 X121.021 Y86.803 Z.498 F18000 ; move to first support material point
G1 Z.3 F720 ; move to first support material point
G1 E.7 F1500 ;  ; unretract
M204 P500 ; adjust acceleration
G1 F1021.931
G1 X121.021 Y133.197 E16.98701 ; support material
G1 X121.406 Y133.582 E.19936 ; support material
M73 P0 R108
G1 X92.479 Y133.582 E10.59152 ; support material
G1 X92.479 Y86.418 E17.26894 ; support material
G1 X121.406 Y86.418 E10.59152 ; support material
G1 X121.332 Y86.491 E.03806 ; support material
M204 P4000 ; adjust acceleration
G1 X117.661 Y132.261 F18000 ; move to first support material point
M204 P500 ; adjust acceleration
G1 F1021.931
G1 X117.661 Y89.06 E15.8179 ; support material
G1 X113.991 Y89.06 E1.34376 ; support material
G1 X113.991 Y130.94 E15.33422 ; support material
G1 X110.322 Y130.94 E1.34339 ; support material
G1 X110.322 Y89.06 E15.33422 ; support material
G1 X106.652 Y89.06 E1.34376 ; support material
G1 X106.652 Y130.94 E15.33422 ; support material
G1 X102.983 Y130.94 E1.34339 ; support material
M73 P1 R108
M73 Q1 S111
G1 X102.983 Y89.06 E15.33422 ; support material
G1 X99.313 Y89.06 E1.34376 ; support material
G1 X99.313 Y130.94 E15.33422 ; support material
G1 X95.644 Y130.94 E1.34339 ; support material
G1 X95.644 Y87.739 E15.8179 ; support material
M204 P4000 ; adjust acceleration
;LAYER_CHANGE
;Z:0.5
;HEIGHT:0.2
;BEFORE_LAYER_CHANGE
G92 E0.0
;0.5
M201 X3999.08 Y3999.08

G1 E-.7 F2100 ; retract
G1 X95.644 Y87.739 Z.3 F18000 ; layer change
G1 X94.697 Y129.703 Z1.033 ; layer change
;AFTER_LAYER_CHANGE
;0.5
M74 W0.860218

M140 S110 ; set bed temperature
G1 X94.697 Y129.703 ; move to first layer point
G1 Z.5 F720 ; move to first layer point
G1 E.7 F1500 ;  ; unretract
;WIDTH:0.5
G1 F7200
G1 X94.697 Y131.364 E.06313 ; support material
G1 X121.7 Y131.364 E1.02628 ; support material
G1 X121.7 Y129.485 E.07141 ; support material
G1 X94.697 Y129.485 E1.02628 ; support material
G1 X94.697 Y127.267 E.0843 ; support material
G1 X94.697 Y90.297 F18000 ; move to first support material point
G1 F7200
G1 X94.697 Y88.636 E.06313 ; support material
G1 X121.7 Y88.636 E1.02628 ; support material
G1 X121.7 Y90.515 E.07141 ; support material
G1 X94.697 Y90.515 E1.02628 ; support material
G1 X94.697 Y92.951 E.09258 ; support material
G1 X121.7 Y92.951 E1.02628 ; support material
G1 X121.7 Y95.386 E.09255 ; support material
G1 X94.697 Y95.386 E1.02628 ; support material
G1 X94.697 Y97.822 E.09258 ; support material
G1 X121.7 Y97.822 E1.02628 ; support material
G1 X121.7 Y100.258 E.09258 ; support material
G1 X94.697 Y100.258 E1.02628 ; support material
G1 X94.697 Y102.693 E.09255 ; support material
G1 X121.7 Y102.693 E1.02628 ; support material
G1 X121.7 Y105.129 E.09258 ; support material
G1 X94.697 Y105.129 E1.02628 ; support material
G1 X94.697 Y107.564 E.09255 ; support material
G1 X121.7 Y107.564 E1.02628 ; support material
G1 X121.7 Y110 E.09258 ; support material
G1 X94.697 Y110 E1.02628 ; support material
G1 X94.697 Y112.436 E.09258 ; support material
G1 X121.7 Y112.436 E1.02628 ; support material
G1 X121.7 Y114.871 E.09255 ; support material
G1 X94.697 Y114.871 E1.02628 ; support material
G1 X94.697 Y117.307 E.09258 ; support material
G1 X121.7 Y117.307 E1.02628 ; support material
G1 X121.7 Y119.742 E.09255 ; support material
G1 X94.697 Y119.742 E1.02628 ; support material
G1 X94.697 Y122.178 E.09258 ; support material
G1 X121.7 Y122.178 E1.02628 ; support material
G1 X121.7 Y124.614 E.09258 ; support material
G1 X94.697 Y124.614 E1.02628 ; support material
G1 X94.697 Y127.049 E.09255 ; support material
G1 X121.7 Y127.049 E1.02628 ; support material
G1 X121.7 Y129.267 E.0843 ; support material
G1 E-.7 F2100 ; retract
G1 X128.436 Y129.703 Z.618 F18000 ; move to first support material point
G1 Z.5 F720 ; move to first support material point
G1 E.7 F1500 ;  ; unretract
G1 F7200
G1 X128.436 Y131.364 E.06313 ; support material
G1 X155.161 Y131.364 E1.01572 ; support material
G1 X155.161 Y129.485 E.07141 ; support material
G1 X128.436 Y129.485 E1.01572 ; support material
G1 X128.436 Y127.267 E.0843 ; support material
G1 X155.161 Y129.267 F18000 ; move to first support material point
G1 F7200
G1 X155.161 Y127.049 E.0843 ; support material
G1 X128.436 Y127.049 E1.01572 ; support material
G1 X128.436 Y124.614 E.09255 ; support material
G1 X155.161 Y124.614 E1.01572 ; support material
G1 X155.161 Y122.178 E.09258 ; support material
G1 X128.436 Y122.178 E1.01572 ; support material
G1 X128.436 Y119.742 E.09258 ; support material
G1 X155.161 Y119.742 E1.01572 ; support material
G1 X155.161 Y117.307 E.09255 ; support material
G1 X128.436 Y117.307 E1.01572 ; support material
G1 X128.436 Y114.871 E.09258 ; support material
G1 X155.161 Y114.871 E1.01572 ; support material
G1 X155.161 Y112.436 E.09255 ; support material
G1 X128.436 Y112.436 E1.01572 ; support material
G1 X128.436 Y110 E.09258 ; support material
G1 X155.161 Y110 E1.01572 ; support material
G1 X155.161 Y107.564 E.09258 ; support material
G1 X128.436 Y107.564 E1.01572 ; support material
G1 X128.436 Y105.129 E.09255 ; support material
G1 X155.161 Y105.129 E1.01572 ; support material
G1 X155.161 Y102.693 E.09258 ; support material
G1 X128.436 Y102.693 E1.01572 ; support material
G1 X128.436 Y100.258 E.09255 ; support material
G1 X155.161 Y100.258 E1.01572 ; support material
G1 X155.161 Y97.822 E.09258 ; support material
G1 X128.436 Y97.822 E1.01572 ; support material
G1 X128.436 Y95.386 E.09258 ; support material
G1 X155.161 Y95.386 E1.01572 ; support material
G1 X155.161 Y92.951 E.09255 ; support material
G1 X128.436 Y92.951 E1.01572 ; support material
G1 X128.436 Y90.515 E.09258 ; support material
G1 X155.161 Y90.515 E1.01572 ; support material
G1 X155.161 Y88.636 E.07141 ; support material
G1 X128.436 Y88.636 E1.01572 ; support material
G1 X128.436 Y90.297 E.06313 ; support material
;LAYER_CHANGE
;Z:0.7
;HEIGHT:0.2
;BEFORE_LAYER_CHANGE
G92 E0.0
;0.7
M201 X3998.96 Y3998.96

G1 E-.7 F2100 ; retract
G1 X128.436 Y90.297 Z.5 F18000 ; layer change
G1 X94.697 Y129.703 Z1.406 ; layer change
;AFTER_LAYER_CHANGE
;0.7
M74 W0.966407

G1 X94.697 Y129.703 ; move to first layer point
G1 Z.7 F720 ; move to first layer point
G1 E.7 F1500 ;  ; unretract
G1 F7200
G1 X94.697 Y131.364 E.06313 ; support material
G1 X121.7 Y131.364 E1.02628 ; support material
G1 X121.7 Y129.485 E.07141 ; support material
G1 X94.697 Y129.485 E1.02628 ; support material
G1 X94.697 Y127.267 E.0843 ; support material
G1 X94.697 Y90.297 F18000 ; move to first support material point
G1 F7200
G1 X94.697 Y88.636 E.06313 ; support material
G1 X121.7 Y88.636 E1.02628 ; support material
G1 X121.7 Y90.515 E.07141 ; support material
G1 X94.697 Y90.515 E1.02628 ; support material
G1 X94.697 Y92.951 E.09258 ; support material
G1 X121.7 Y92.951 E1.02628 ; support material
G1 X121.7 Y95.386 E.09255 ; support material
G1 X94.697 Y95.386 E1.02628 ; support material
G1 X94.697 Y97.822 E.09258 ; support material
G1 X121.7 Y97.822 E1.02628 ; support material
G1 X121.7 Y100.258 E.09258 ; support material
G1 X94.697 Y100.258 E1.02628 ; support material
G1 X94.697 Y102.693 E.09255 ; support material
G1 X121.7 Y102.693 E1.02628 ; support material
G1 X121.7 Y105.129 E.09258 ; support material
G1 X94.697 Y105.129 E1.02628 ; support material
G1 X94.697 Y107.564 E.09255 ; support material
G1 X121.7 Y107.564 E1.02628 ; support material
G1 X121.7 Y110 E.09258 ; support material
G1 X94.697 Y110 E1.02628 ; support material
G1 X94.697 Y112.436 E.09258 ; support material
G1 X121.7 Y112.436 E1.02628 ; support material
G1 X121.7 Y114.871 E.09255 ; support material
G1 X94.697 Y114.871 E1.02628 ; support material
G1 X94.697 Y117.307 E.09258 ; support material
G1 X121.7 Y117.307 E1.02628 ; support material
G1 X121.7 Y119.742 E.09255 ; support material
G1 X94.697 Y119.742 E1.02628 ; support material
G1 X94.697 Y122.178 E.09258 ; support material
G1 X121.7 Y122.178 E1.02628 ; support material
G1 X121.7 Y124.614 E.09258 ; support material
G1 X94.697 Y124.614 E1.02628 ; support material
G1 X94.697 Y127.049 E.09255 ; support material
G1 X121.7 Y127.049 E1.02628 ; support material
G1 X121.7 Y129.267 E.0843 ; support material
M73 Q1 S110
G1 E-.7 F2100 ; retract
G1 X128.436 Y129.703 Z.818 F18000 ; move to first support material point
G1 Z.7 F720 ; move to first support material point
G1 E.7 F1500 ;  ; unretract
G1 F7200
G1 X128.436 Y131.364 E.06313 ; support material
G1 X155.161 Y131.364 E1.01572 ; support material
G1 X155.161 Y129.485 E.07141 ; support material
G1 X128.436 Y129.485 E1.01572 ; support material
G1 X128.436 Y127.267 E.0843 ; support material
G1 X155.161 Y129.267 F18000 ; move to first support material point
G1 F7200
G1 X155.161 Y127.049 E.0843 ; support material
G1 X128.436 Y127.049 E1.01572 ; support material
G1 X128.436 Y124.614 E.09255 ; support material
G1 X155.161 Y124.614 E1.01572 ; support material
G1 X155.161 Y122.178 E.09258 ; support material
G1 X128.436 Y122.178 E1.01572 ; support material
G1 X128.436 Y119.742 E.09258 ; support material
G1 X155.161 Y119.742 E1.01572 ; support material
G1 X155.161 Y117.307 E.09255 ; support material
G1 X128.436 Y117.307 E1.01572 ; support material
G1 X128.436 Y114.871 E.09258 ; support material
G1 X155.161 Y114.871 E1.01572 ; support material
G1 X155.161 Y112.436 E.09255 ; support material
G1 X128.436 Y112.436 E1.01572 ; support material
G1 X128.436 Y110 E.09258 ; support material
G1 X155.161 Y110 E1.01572 ; support material
G1 X155.161 Y107.564 E.09258 ; support material
G1 X128.436 Y107.564 E1.01572 ; support material
G1 X128.436 Y105.129 E.09255 ; support material
G1 X155.161 Y105.129 E1.01572 ; support material
G1 X155.161 Y102.693 E.09258 ; support material
G1 X128.436 Y102.693 E1.01572 ; support material
G1 X128.436 Y100.258 E.09255 ; support material
G1 X155.161 Y100.258 E1.01572 ; support material
G1 X155.161 Y97.822 E.09258 ; support material
G1 X128.436 Y97.822 E1.01572 ; support material
G1 X128.436 Y95.386 E.09258 ; support material
G1 X155.161 Y95.386 E1.01572 ; support material
G1 X155.161 Y92.951 E.09255 ; support material
G1 X128.436 Y92.951 E1.01572 ; support material
G1 X128.436 Y90.515 E.09258 ; support material
G1 X155.161 Y90.515 E1.01572 ; support material
G1 X155.161 Y88.636 E.07141 ; support material
G1 X128.436 Y88.636 E1.01572 ; support material
G1 X128.436 Y90.297 E.06313 ; support material
;LAYER_CHANGE
;Z:0.85
;HEIGHT:0.15
;BEFORE_LAYER_CHANGE
G92 E0.0
;0.85
M201 X3998.85 Y3998.85

G1 E-.7 F2100 ; retract
G1 X128.436 Y90.297 Z.7 F18000 ; layer change
G1 X94.697 Y129.703 Z1.606 ; layer change
;AFTER_LAYER_CHANGE
;0.85
M74 W1.0726

G1 X94.697 Y129.703 ; move to first layer point
G1 Z.85 F720 ; move to first layer point
G1 E.7 F1500 ;  ; unretract
G1 F7200
G1 X94.697 Y131.364 E.04846 ; support material
G1 X121.399 Y131.364 E.779 ; support material
G1 X121.399 Y129.485 E.05482 ; support material
G1 X94.697 Y129.485 E.779 ; support material
G1 X94.697 Y127.267 E.06471 ; support material
G1 X94.697 Y90.297 F18000 ; move to first support material point
G1 F7200
G1 X94.697 Y88.636 E.04846 ; support material
G1 X121.399 Y88.636 E.779 ; support material
G1 X121.399 Y90.515 E.05482 ; support material
G1 X94.697 Y90.515 E.779 ; support material
G1 X94.697 Y92.951 E.07107 ; support material
G1 X121.399 Y92.951 E.779 ; support material
G1 X121.399 Y95.386 E.07104 ; support material
G1 X94.697 Y95.386 E.779 ; support material
G1 X94.697 Y97.822 E.07107 ; support material
G1 X121.399 Y97.822 E.779 ; support material
G1 X121.399 Y100.258 E.07107 ; support material
G1 X94.697 Y100.258 E.779 ; support material
G1 X94.697 Y102.693 E.07104 ; support material
G1 X121.399 Y102.693 E.779 ; support material
G1 X121.399 Y105.129 E.07107 ; support material
G1 X94.697 Y105.129 E.779 ; support material
G1 X94.697 Y107.564 E.07104 ; support material
G1 X121.399 Y107.564 E.779 ; support material
G1 X121.399 Y110 E.07107 ; support material
G1 X94.697 Y110 E.779 ; support material
G1 X94.697 Y112.436 E.07107 ; support material
G1 X121.399 Y112.436 E.779 ; support material
G1 X121.399 Y114.871 E.07104 ; support material
G1 X94.697 Y114.871 E.779 ; support material
