; generated by PrusaSlicer 2.9.2 on 2025-06-10 at 02:17:47 UTC


;
;

;
;

;
;

;
;
; 

; external perimeters extrusion width = 10.00mm
; perimeters extrusion width = 10.00mm
; infill extrusion width = 3.34mm
; solid infill extrusion width = 10.00mm
; top infill extrusion width = 10.00mm
; first layer extrusion width = 10.00mm

M73 P0 R501
M73 Q0 S501
M201 X4000 Y4000 Z200 E2500 ; sets maximum accelerations, mm/sec^2
M203 X300 Y300 Z40 E100 ; sets maximum feedrates, mm / sec
M204 P4000 R1200 T4000 ; sets acceleration (P, T) and retract acceleration (R), mm/sec^2
M205 X8.00 Y8.00 Z2.00 E10.00 ; sets the jerk limits, mm/sec
M205 S0 T0 ; sets the minimum extruding and travel feed rate, mm/sec

M486 S0
M486 AShape-Box.stl
M486 S-1

;TYPE:Custom
M17 ; enable steppers
M862.1 P5 A0 F0 ; nozzle check
M862.3 P "MK4" ; printer model check
M862.5 P2 ; g-code level check
M862.6 P"Input shaper" ; FW feature check
M115 U6.2.4+8909

M555 X60.6628 Y76 W128.674 H54

G90 ; use absolute coordinates
M83 ; extruder relative mode

M140 S60 ; set bed temp
M104 T0 S170 ; set extruder temp for bed leveling
M109 T0 R170 ; wait for temp

M84 E ; turn off E motor

G28 ; home all without mesh bed level

G1 X42 Y-4 Z5 F4800

M302 S160 ; lower cold extrusion limit to 160C


G1 E-2 F2400 ; retraction


M84 E ; turn off E motor

G29 P9 X10 Y-4 W32 H4

M106 S100

G0 Z40 F10000

M190 S60 ; wait for bed temp

M107

;
; MBL
;
M84 E ; turn off E motor
G29 P1 ; invalidate mbl & probe print area
G29 P1 X0 Y0 W50 H20 C ; probe near purge place
G29 P3.2 ; interpolate mbl probes
G29 P3.13 ; extrapolate mbl outside probe area
G29 A ; activate mbl

; prepare for purge
M104 S230
G0 X0 Y-4 Z15 F4800 ; move away and ready for the purge
M109 S230

G92 E0
M569 S0 E ; set spreadcycle mode for extruder

;
; Extrude purge line
;
G92 E0 ; reset extruder position
G1 E2 F2400 ; deretraction after the initial one before nozzle cleaning
G0 E7 X15 Z0.2 F500 ; purge
G0 X25 E4 F500 ; purge
G0 X35 E4 F650 ; purge
G0 X45 E4 F800 ; purge
G0 X48 Z0.05 F8000 ; wipe, move close to the bed
G0 X51 Z0.2 F8000 ; wipe, move quickly away from the bed

G92 E0
M221 S100 ; set flow to 100%
G21 ; set units to millimeters
G90 ; use absolute coordinates
M83 ; use relative distances for extrusion
M900 K0 ; Filament gcode


M572 S0 ; Filament gcode


M142 S36 ; set heatbreak target temp
M107 ; disable fan
;LAYER_CHANGE
;Z:1.21
;HEIGHT:1.21
G1 E-.7 F2100 ; retract
G1 Z1.21 F720 ; lift
M486 S0
G1 X188.853 Y81.975 F18000 ; move to first layer point
G1 Z1.21 F720 ; move to first layer point
G1 E.7 F1500 ;  ; unretract
M204 P500 ; adjust acceleration
;TYPE:Internal infill
;WIDTH:10
G1 F76.363
G1 X62.535 Y81.975 E618.95404 ; infill
G1 X62.535 Y85.264 E16.11599 ; infill
M73 P0 R499
M73 Q0 S499
G1 X187.465 Y85.264 E612.15288 ; infill
G1 X187.465 Y88.553 E16.11599 ; infill
M73 P0 R497
M73 Q0 S498
G1 X62.535 Y88.553 E612.15288 ; infill
G1 X62.535 Y91.843 E16.12089 ; infill
M73 P1 R496
M73 Q1 S496
G1 X187.465 Y91.843 E612.15288 ; infill
G1 X187.465 Y95.132 E16.11599 ; infill
M73 P1 R494
M73 Q1 S494
G1 X62.535 Y95.132 E612.15288 ; infill
G1 X62.535 Y98.421 E16.11599 ; infill
M73 P1 R492
M73 Q1 S493
G1 X187.465 Y98.421 E612.15288 ; infill
G1 X187.465 Y101.711 E16.12089 ; infill
M73 P2 R491
M73 Q2 S491
G1 X62.535 Y101.711 E612.15288 ; infill
G1 X62.535 Y105 E16.11599 ; infill
M73 P2 R489
M73 Q2 S489
G1 X187.465 Y105 E612.15288 ; infill
G1 X187.465 Y108.289 E16.11599 ; infill
M73 P2 R487
M73 Q2 S488
G1 X62.535 Y108.289 E612.15288 ; infill
M73 Q2 S487
G1 X62.535 Y111.579 E16.12089 ; infill
M73 P3 R486
M73 Q3 S486
G1 X187.465 Y111.579 E612.15288 ; infill
G1 X187.465 Y114.868 E16.11599 ; infill
M73 P3 R484
M73 Q3 S484
G1 X62.535 Y114.868 E612.15288 ; infill
G1 X62.535 Y118.157 E16.11599 ; infill
M73 P3 R482
M73 Q3 S482
G1 X187.465 Y118.157 E612.15288 ; infill
G1 X187.465 Y121.447 E16.12089 ; infill
M73 P4 R481
M73 Q4 S481
G1 X62.535 Y121.447 E612.15288 ; infill
G1 X62.535 Y124.736 E16.11599 ; infill
M73 P4 R479
M73 Q4 S479
G1 X187.465 Y124.736 E612.15288 ; infill
G1 X187.465 Y128.026 E16.12089 ; infill
M73 P4 R477
M73 Q4 S477
G1 X61.147 Y128.026 E618.95404 ; infill
M204 P4000 ; adjust acceleration
M106 S127.5 ; enable fan
;LAYER_CHANGE
;Z:2.42
;HEIGHT:1.21
;BEFORE_LAYER_CHANGE
G92 E0.0
;2.42
M201 X3969.89 Y3969.89

G1 E-.7 F2100 ; retract
M73 P5 R476
M73 Q5 S476
G1 Z2.42 F720 ; simple layer change
;AFTER_LAYER_CHANGE
;2.42
M74 W28.1002

M104 S225 ; set temperature
M204 T4000 ; adjust acceleration
G1 Z2.42 ; travel to first layer point
G1 X62.359 Y80.284 F18000 ; travel to first layer point
G1 E.7 F1500 ;  ; unretract
;WIDTH:3.344
G1 F241.155
G1 X62.359 Y128.328 E74.5452 ; infill
G1 X65.491 Y128.328 E4.85962 ; infill
M73 P5 R475
G1 X65.491 Y81.672 E72.39157 ; infill
G1 X68.623 Y81.672 E4.85962 ; infill
M73 Q5 S475
G1 X68.623 Y128.328 E72.39157 ; infill
G1 X71.755 Y128.328 E4.85962 ; infill
G1 X71.755 Y81.672 E72.39157 ; infill
G1 X74.887 Y81.672 E4.85962 ; infill
G1 X74.887 Y128.328 E72.39157 ; infill
G1 X78.019 Y128.328 E4.85962 ; infill
G1 X78.019 Y81.672 E72.39157 ; infill
G1 X81.151 Y81.672 E4.85962 ; infill
M73 P5 R474
G1 X81.151 Y128.328 E72.39157 ; infill
M73 Q5 S474
G1 X84.283 Y128.328 E4.85962 ; infill
G1 X84.283 Y81.672 E72.39157 ; infill
G1 X87.415 Y81.672 E4.85962 ; infill
G1 X87.415 Y128.328 E72.39157 ; infill
G1 X90.547 Y128.328 E4.85962 ; infill
G1 X90.547 Y81.672 E72.39157 ; infill
G1 X93.679 Y81.672 E4.85962 ; infill
G1 X93.679 Y128.328 E72.39157 ; infill
G1 X96.811 Y128.328 E4.85962 ; infill
M73 P5 R473
M73 Q5 S473
G1 X96.811 Y81.672 E72.39157 ; infill
G1 X99.943 Y81.672 E4.85962 ; infill
G1 X99.943 Y128.328 E72.39157 ; infill
G1 X103.075 Y128.328 E4.85962 ; infill
G1 X103.075 Y81.672 E72.39157 ; infill
G1 X106.208 Y81.672 E4.86117 ; infill
G1 X106.208 Y128.328 E72.39157 ; infill
G1 X109.34 Y128.328 E4.85962 ; infill
M73 P5 R472
G1 X109.34 Y81.672 E72.39157 ; infill
G1 X112.472 Y81.672 E4.85962 ; infill
M73 Q5 S472
G1 X112.472 Y128.328 E72.39157 ; infill
G1 X115.604 Y128.328 E4.85962 ; infill
G1 X115.604 Y81.672 E72.39157 ; infill
G1 X118.736 Y81.672 E4.85962 ; infill
G1 X118.736 Y128.328 E72.39157 ; infill
G1 X121.868 Y128.328 E4.85962 ; infill
G1 X121.868 Y81.672 E72.39157 ; infill
G1 X125 Y81.672 E4.85962 ; infill
M73 P5 R471
G1 X125 Y128.328 E72.39157 ; infill
G1 X128.132 Y128.328 E4.85962 ; infill
M73 Q5 S471
G1 X128.132 Y81.672 E72.39157 ; infill
G1 X131.264 Y81.672 E4.85962 ; infill
G1 X131.264 Y128.328 E72.39157 ; infill
G1 X134.396 Y128.328 E4.85962 ; infill
G1 X134.396 Y81.672 E72.39157 ; infill
M73 P6 R471
M73 Q6 S471
G1 X137.528 Y81.672 E4.85962 ; infill
G1 X137.528 Y128.328 E72.39157 ; infill
G1 X140.66 Y128.328 E4.85962 ; infill
M73 P6 R470
G1 X140.66 Y81.672 E72.39157 ; infill
G1 X143.792 Y81.672 E4.85962 ; infill
M73 Q6 S470
G1 X143.792 Y128.328 E72.39157 ; infill
G1 X146.924 Y128.328 E4.85962 ; infill
G1 X146.924 Y81.672 E72.39157 ; infill
G1 X150.057 Y81.672 E4.86117 ; infill
G1 X150.057 Y128.328 E72.39157 ; infill
G1 X153.189 Y128.328 E4.85962 ; infill
G1 X153.189 Y81.672 E72.39157 ; infill
G1 X156.321 Y81.672 E4.85962 ; infill
M73 P6 R469
G1 X156.321 Y128.328 E72.39157 ; infill
G1 X159.453 Y128.328 E4.85962 ; infill
M73 Q6 S469
G1 X159.453 Y81.672 E72.39157 ; infill
G1 X162.585 Y81.672 E4.85962 ; infill
G1 X162.585 Y128.328 E72.39157 ; infill
G1 X165.717 Y128.328 E4.85962 ; infill
G1 X165.717 Y81.672 E72.39157 ; infill
G1 X168.849 Y81.672 E4.85962 ; infill
G1 X168.849 Y128.328 E72.39157 ; infill
G1 X171.981 Y128.328 E4.85962 ; infill
M73 P6 R468
G1 X171.981 Y81.672 E72.39157 ; infill
G1 X175.113 Y81.672 E4.85962 ; infill
M73 Q6 S468
G1 X175.113 Y128.328 E72.39157 ; infill
G1 X178.245 Y128.328 E4.85962 ; infill
G1 X178.245 Y81.672 E72.39157 ; infill
G1 X181.377 Y81.672 E4.85962 ; infill
G1 X181.377 Y128.328 E72.39157 ; infill
G1 X184.509 Y128.328 E4.85962 ; infill
G1 X184.509 Y81.672 E72.39157 ; infill
G1 X187.641 Y81.672 E4.85962 ; infill
M73 P6 R467
M73 Q6 S467
G1 X187.641 Y129.716 E74.5452 ; infill
M106 S255 ; enable fan
;LAYER_CHANGE
;Z:3.63
;HEIGHT:1.21
;BEFORE_LAYER_CHANGE
G92 E0.0
;3.63
M201 X3959.77 Y3959.77

G1 E-.7 F2100 ; retract
G1 Z3.63 F720 ; simple layer change
;AFTER_LAYER_CHANGE
;3.63
M74 W37.5452

G1 Z3.63 ; travel to first layer point
G1 X189.053 Y128.316 F18000 ; travel to first layer point
G1 E.7 F1500 ;  ; unretract
G1 F241.155
G1 X62.335 Y128.316 E196.61598 ; infill
G1 X62.335 Y125.207 E4.82393 ; infill
G1 X187.665 Y125.207 E194.46235 ; infill
G1 X187.665 Y122.098 E4.82393 ; infill
M73 P6 R466
M73 Q6 S466
G1 X62.335 Y122.098 E194.46235 ; infill
G1 X62.335 Y118.99 E4.82238 ; infill
M73 P7 R466
M73 Q7 S466
G1 X187.665 Y118.99 E194.46235 ; infill
G1 X187.665 Y115.881 E4.82393 ; infill
M73 P7 R465
M73 Q7 S465
G1 X62.335 Y115.881 E194.46235 ; infill
G1 X62.335 Y112.772 E4.82393 ; infill
M73 P7 R464
G1 X187.665 Y112.772 E194.46235 ; infill
G1 X187.665 Y109.663 E4.82393 ; infill
M73 Q7 S464
G1 X62.335 Y109.663 E194.46235 ; infill
G1 X62.335 Y106.554 E4.82393 ; infill
M73 P7 R463
G1 X187.665 Y106.554 E194.46235 ; infill
G1 X187.665 Y103.446 E4.82238 ; infill
M73 Q7 S463
G1 X62.335 Y103.446 E194.46235 ; infill
G1 X62.335 Y100.337 E4.82393 ; infill
M73 P7 R462
M73 Q7 S462
G1 X187.665 Y100.337 E194.46235 ; infill
G1 X187.665 Y97.228 E4.82393 ; infill
G1 X62.335 Y97.228 E194.46235 ; infill
G1 X62.335 Y94.119 E4.82393 ; infill
M73 P7 R461
M73 Q7 S461
G1 X187.665 Y94.119 E194.46235 ; infill
G1 X187.665 Y91.011 E4.82238 ; infill
M73 P8 R461
M73 Q8 S461
G1 X62.335 Y91.011 E194.46235 ; infill
G1 X62.335 Y87.902 E4.82393 ; infill
M73 P8 R460
M73 Q8 S460
G1 X187.665 Y87.902 E194.46235 ; infill
G1 X187.665 Y84.793 E4.82393 ; infill
G1 X62.335 Y84.793 E194.46235 ; infill
G1 X62.335 Y81.684 E4.82393 ; infill
M73 P8 R459
M73 Q8 S459
G1 X189.053 Y81.684 E196.61598 ; infill
;LAYER_CHANGE
;Z:4.84
;HEIGHT:1.21
;BEFORE_LAYER_CHANGE
G92 E0.0
;4.84
M201 X3949.59 Y3949.59

G1 E-.7 F2100 ; retract
G1 Z4.84 F720 ; simple layer change
;AFTER_LAYER_CHANGE
;4.84
M74 W47.0538

G1 Z4.84 ; travel to first layer point
G1 X187.641 Y129.716 F18000 ; travel to first layer point
G1 E.7 F1500 ;  ; unretract
G1 F241.155
G1 X187.641 Y81.672 E74.5452 ; infill
G1 X184.509 Y81.672 E4.85962 ; infill
M73 P8 R458
G1 X184.509 Y128.328 E72.39157 ; infill
G1 X181.377 Y128.328 E4.85962 ; infill
M73 Q8 S458
G1 X181.377 Y81.672 E72.39157 ; infill
G1 X178.245 Y81.672 E4.85962 ; infill
G1 X178.245 Y128.328 E72.39157 ; infill
G1 X175.113 Y128.328 E4.85962 ; infill
G1 X175.113 Y81.672 E72.39157 ; infill
G1 X171.981 Y81.672 E4.85962 ; infill
G1 X171.981 Y128.328 E72.39157 ; infill
G1 X168.849 Y128.328 E4.85962 ; infill
M73 P8 R457
G1 X168.849 Y81.672 E72.39157 ; infill
M73 Q8 S457
G1 X165.717 Y81.672 E4.85962 ; infill
G1 X165.717 Y128.328 E72.39157 ; infill
G1 X162.585 Y128.328 E4.85962 ; infill
G1 X162.585 Y81.672 E72.39157 ; infill
G1 X159.453 Y81.672 E4.85962 ; infill
G1 X159.453 Y128.328 E72.39157 ; infill
G1 X156.321 Y128.328 E4.85962 ; infill
G1 X156.321 Y81.672 E72.39157 ; infill
G1 X153.189 Y81.672 E4.85962 ; infill
M73 P8 R456
M73 Q8 S456
G1 X153.189 Y128.328 E72.39157 ; infill
G1 X150.057 Y128.328 E4.85962 ; infill
G1 X150.057 Y81.672 E72.39157 ; infill
G1 X146.924 Y81.672 E4.86117 ; infill
G1 X146.924 Y128.328 E72.39157 ; infill
G1 X143.792 Y128.328 E4.85962 ; infill
M73 P9 R456
M73 Q9 S456
G1 X143.792 Y81.672 E72.39157 ; infill
G1 X140.66 Y81.672 E4.85962 ; infill
M73 P9 R455
G1 X140.66 Y128.328 E72.39157 ; infill
G1 X137.528 Y128.328 E4.85962 ; infill
M73 Q9 S455
G1 X137.528 Y81.672 E72.39157 ; infill
G1 X134.396 Y81.672 E4.85962 ; infill
G1 X134.396 Y128.328 E72.39157 ; infill
G1 X131.264 Y128.328 E4.85962 ; infill
G1 X131.264 Y81.672 E72.39157 ; infill
G1 X128.132 Y81.672 E4.85962 ; infill
G1 X128.132 Y128.328 E72.39157 ; infill
G1 X125 Y128.328 E4.85962 ; infill
M73 P9 R454
G1 X125 Y81.672 E72.39157 ; infill
G1 X121.868 Y81.672 E4.85962 ; infill
M73 Q9 S454
G1 X121.868 Y128.328 E72.39157 ; infill
G1 X118.736 Y128.328 E4.85962 ; infill
G1 X118.736 Y81.672 E72.39157 ; infill
G1 X115.604 Y81.672 E4.85962 ; infill
G1 X115.604 Y128.328 E72.39157 ; infill
G1 X112.472 Y128.328 E4.85962 ; infill
G1 X112.472 Y81.672 E72.39157 ; infill
G1 X109.34 Y81.672 E4.85962 ; infill
M73 P9 R453
G1 X109.34 Y128.328 E72.39157 ; infill
G1 X106.208 Y128.328 E4.85962 ; infill
M73 Q9 S453
G1 X106.208 Y81.672 E72.39157 ; infill
G1 X103.075 Y81.672 E4.86117 ; infill
G1 X103.075 Y128.328 E72.39157 ; infill
G1 X99.943 Y128.328 E4.85962 ; infill
G1 X99.943 Y81.672 E72.39157 ; infill
G1 X96.811 Y81.672 E4.85962 ; infill
G1 X96.811 Y128.328 E72.39157 ; infill
G1 X93.679 Y128.328 E4.85962 ; infill
M73 P9 R452
G1 X93.679 Y81.672 E72.39157 ; infill
G1 X90.547 Y81.672 E4.85962 ; infill
M73 Q9 S452
G1 X90.547 Y128.328 E72.39157 ; infill
G1 X87.415 Y128.328 E4.85962 ; infill
G1 X87.415 Y81.672 E72.39157 ; infill
G1 X84.283 Y81.672 E4.85962 ; infill
G1 X84.283 Y128.328 E72.39157 ; infill
G1 X81.151 Y128.328 E4.85962 ; infill
G1 X81.151 Y81.672 E72.39157 ; infill
G1 X78.019 Y81.672 E4.85962 ; infill
M73 P9 R451
G1 X78.019 Y128.328 E72.39157 ; infill
G1 X74.887 Y128.328 E4.85962 ; infill
M73 Q9 S451
G1 X74.887 Y81.672 E72.39157 ; infill
G1 X71.755 Y81.672 E4.85962 ; infill
G1 X71.755 Y128.328 E72.39157 ; infill
G1 X68.623 Y128.328 E4.85962 ; infill
M73 P10 R451
M73 Q10 S451
G1 X68.623 Y81.672 E72.39157 ; infill
G1 X65.491 Y81.672 E4.85962 ; infill
G1 X65.491 Y128.328 E72.39157 ; infill
G1 X62.359 Y128.328 E4.85962 ; infill
M73 P10 R450
M73 Q10 S450
G1 X62.359 Y80.284 E74.5452 ; infill
;LAYER_CHANGE
;Z:6.05
;HEIGHT:1.21
;BEFORE_LAYER_CHANGE
G92 E0.0
;6.05
M201 X3939.47 Y3939.47

G1 E-.7 F2100 ; retract
G1 Z6.05 F720 ; simple layer change
;AFTER_LAYER_CHANGE
;6.05
M74 W56.4987

G1 Z6.05 ; travel to first layer point
G1 X189.053 Y81.684 F18000 ; travel to first layer point
G1 E.7 F1500 ;  ; unretract
G1 F241.155
G1 X62.335 Y81.684 E196.61598 ; infill
G1 X62.335 Y84.793 E4.82393 ; infill
G1 X187.665 Y84.793 E194.46235 ; infill
G1 X187.665 Y87.902 E4.82393 ; infill
M73 P10 R449
M73 Q10 S449
G1 X62.335 Y87.902 E194.46235 ; infill
G1 X62.335 Y91.011 E4.82393 ; infill
G1 X187.665 Y91.011 E194.46235 ; infill
M73 P10 R448
G1 X187.665 Y94.119 E4.82238 ; infill
M73 Q10 S448
G1 X62.335 Y94.119 E194.46235 ; infill
G1 X62.335 Y97.228 E4.82393 ; infill
M73 P10 R447
G1 X187.665 Y97.228 E194.46235 ; infill
G1 X187.665 Y100.337 E4.82393 ; infill
M73 Q10 S447
G1 X62.335 Y100.337 E194.46235 ; infill
G1 X62.335 Y103.446 E4.82393 ; infill
M73 P10 R446
G1 X187.665 Y103.446 E194.46235 ; infill
G1 X187.665 Y106.554 E4.82238 ; infill
M73 Q10 S446
G1 X62.335 Y106.554 E194.46235 ; infill
G1 X62.335 Y109.663 E4.82393 ; infill
M73 P11 R445
M73 Q11 S445
G1 X187.665 Y109.663 E194.46235 ; infill
G1 X187.665 Y112.772 E4.82393 ; infill
G1 X62.335 Y112.772 E194.46235 ; infill
G1 X62.335 Y115.881 E4.82393 ; infill
M73 P11 R444
M73 Q11 S444
G1 X187.665 Y115.881 E194.46235 ; infill
G1 X187.665 Y118.99 E4.82393 ; infill
G1 X62.335 Y118.99 E194.46235 ; infill
G1 X62.335 Y122.098 E4.82238 ; infill
M73 P11 R443
M73 Q11 S443
G1 X187.665 Y122.098 E194.46235 ; infill
G1 X187.665 Y125.207 E4.82393 ; infill
G1 X62.335 Y125.207 E194.46235 ; infill
G1 X62.335 Y128.316 E4.82393 ; infill
M73 P11 R442
M73 Q11 S442
G1 X189.053 Y128.316 E196.61598 ; infill
;LAYER_CHANGE
;Z:7.26
;HEIGHT:1.21
;BEFORE_LAYER_CHANGE
G92 E0.0
;7.26
M201 X3929.28 Y3929.28

G1 E-.7 F2100 ; retract
G1 Z7.26 F720 ; simple layer change
;AFTER_LAYER_CHANGE
;7.26
M74 W66.0073

G1 Z7.26 ; travel to first layer point
G1 X187.641 Y129.716 F18000 ; travel to first layer point
G1 E.7 F1500 ;  ; unretract
G1 F241.155
G1 X187.641 Y81.672 E74.5452 ; infill
G1 X184.509 Y81.672 E4.85962 ; infill
M73 P11 R441
G1 X184.509 Y128.328 E72.39157 ; infill
G1 X181.377 Y128.328 E4.85962 ; infill
M73 Q11 S441
G1 X181.377 Y81.672 E72.39157 ; infill
G1 X178.245 Y81.672 E4.85962 ; infill
G1 X178.245 Y128.328 E72.39157 ; infill
G1 X175.113 Y128.328 E4.85962 ; infill
G1 X175.113 Y81.672 E72.39157 ; infill
