; generated by PrusaSlicer 2.9.2 on 2025-06-10 at 20:01:12 UTC


;
;

;
;

;
;

;
;

;
;
; 

; external perimeters extrusion width = 0.45mm
; perimeters extrusion width = 0.45mm
; infill extrusion width = 5.00mm
; solid infill extrusion width = 0.45mm
; top infill extrusion width = 0.42mm
; first layer extrusion width = 0.50mm

M73 P0 R18
M73 Q0 S19
M201 X10000 Y10000 Z400 E5000 ; sets maximum accelerations, mm/sec^2
M203 X350 Y350 Z12 E100 ; sets maximum feedrates, mm / sec
M204 P7000 R2500 T7000 ; sets acceleration (P, T) and retract acceleration (R), mm/sec^2
M205 X10.00 Y10.00 Z2.00 E10.00 ; sets the jerk limits, mm/sec
M205 S0 T0 ; sets the minimum extruding and travel feed rate, mm/sec

M486 S0
M486 AMerged
M486 S-1

;TYPE:Custom
M17 ; enable steppers
M862.1 P5 A0 F1 ; nozzle check
M862.3 P "COREONE" ; printer model check
M862.5 P2 ; g-code level check
M862.6 P"Input shaper" ; FW feature check
M115 U6.3.0+10073

M555 X110.332 Y94.1516 W47.3971 H29.4155

G90 ; use absolute coordinates
M83 ; extruder relative mode


M140 S115 ; set bed temp for chamber heating


M109 R170 ; wait for temp

M84 E ; turn off E motor

G28 ; home all without mesh bed level


; Min chamber temp section
M104 S130 ; set idle temp
G1 Z10 F720 ; set bed position
G1 X242 Y-9 F4800 ; set print head position
M73 Q0 S18
M191 S40 ; wait for minimal chamber temp
M141 S0 ; set nominal chamber temp
M107
M140 S110 ; set bed temp



G0 Z40 F10000
M104 T0 S130
M190 R110 ; wait for bed temp
M107

G29 G ; absorb heat

M109 R170 ; wait for MBL temp

M302 S160 ; lower cold extrusion limit to 160C


G1 E-2 F2400 ; retraction


M84 E ; turn off E motor

G29 P9 X208 Y-2.5 W32 H4

;
; MBL
;
M84 E ; turn off E motor
G29 P1 ; invalidate mbl & probe print area
G29 P1 X150 Y0 W100 H20 C ; probe near purge place
G29 P3.2 ; interpolate mbl probes
G29 P3.13 ; extrapolate mbl outside probe area
G29 A ; activate mbl

; prepare for purge
M104 S260
G0 X249 Y-2.5 Z15 F4800 ; move away and ready for the purge
M109 S260

G92 E0
M569 S0 E ; set spreadcycle mode for extruder

;
; Extrude purge line
;
G92 E0 ; reset extruder position
G1 E2 F2400 ; deretraction after the initial one
G0 E5 X235 Z0.2 F500 ; purge
G0 X225 E4 F500 ; purge
G0 X215 E4 F650 ; purge
M73 P1 R18
M73 Q1 S18
G0 X205 E4 F800 ; purge
G0 X202 Z0.05 F8000 ; wipe, move close to the bed
G0 X199 Z0.2 F8000 ; wipe, move quickly away from the bed

G92 E0
M221 S100 ; set flow to 100%
G21 ; set units to millimeters
G90 ; use absolute coordinates
M83 ; use relative distances for extrusion
M572 S0 ; Filament gcode
M142 S40 ; set heatbreak target temp
M107 ; disable fan
;LAYER_CHANGE
;Z:0.2
;HEIGHT:0.2
G1 E-.7 F2700 ; retract
G1 Z1.7 F720 ; lift
M486 S0
G1 X157.262 Y108.916 F21000 ; move to first layer point
G1 Z.2 F720 ; move to first layer point
G1 E.7 F1500 ;  ; unretract
M204 P500 ; adjust acceleration
;TYPE:Internal infill
;WIDTH:0.5
G1 F900
G1 X149.176 Y100.83 E.43461 ; infill
G1 X141.983 Y100.83 E.27338 ; infill
G1 X155.051 Y113.898 E.70239 ; infill
G1 X155.051 Y120.473 E.24989 ; infill
G1 X154.433 Y120.473 E.02349 ; infill
G1 X135.206 Y101.246 E1.03343 ; infill
G1 X128.013 Y101.246 E.27338 ; infill
G1 X147.241 Y120.473 E1.03346 ; infill
G1 X140.048 Y120.473 E.27338 ; infill
G1 X120.821 Y101.246 E1.03343 ; infill
M73 Q2 S18
G1 X113.628 Y101.246 E.27338 ; infill
M73 P2 R18
G1 X132.855 Y120.473 E1.03343 ; infill
G1 X132.654 Y120.473 E.00764 ; infill
G1 X132.654 Y120.889 E.01581 ; infill
G1 X126.078 Y120.889 E.24993 ; infill
G1 X113.011 Y107.821 E.70237 ; infill
G1 X113.011 Y115.014 E.27338 ; infill
G1 X121.097 Y123.1 E.43461 ; infill
M204 P3000 ; adjust acceleration
;LAYER_CHANGE
;Z:0.6
;HEIGHT:0.4
;BEFORE_LAYER_CHANGE
G92 E0.0
;0.6


G1 E-.7 F2700 ; retract
G1 X121.097 Y123.1 Z.2 F21000 ; layer change
G1 X110.621 Y109.136 Z.6 ; layer change
;AFTER_LAYER_CHANGE
;0.6
G1 X110.621 Y109.136 ; move to first layer point
G1 Z.6 F720 ; move to first layer point
G1 E.7 F1500 ;  ; unretract
M204 P7000 ; adjust acceleration
;WIDTH:5
G1 F763.101
G1 X118.689 Y101.067 E9.32505 ; infill
G1 X125.87 Y101.067 E5.86851 ; infill
G1 X112.832 Y114.105 E15.06847 ; infill
G1 X112.832 Y121.067 E5.68954 ; infill
G1 X113.051 Y121.067 E.17897 ; infill
G1 X133.051 Y101.067 E23.1147 ; infill
G1 X135.229 Y101.067 E1.77992 ; infill
M73 P3 R18
M73 Q3 S18
G1 X135.229 Y100.652 E.33915 ; infill
G1 X140.648 Y100.652 E4.42856 ; infill
G1 X120.232 Y121.067 E23.59491 ; infill
G1 X127.413 Y121.067 E5.86851 ; infill
G1 X147.829 Y100.652 E23.59491 ; infill
G1 X155.01 Y100.652 E5.86851 ; infill
G1 X135.01 Y120.652 E23.1147 ; infill
G1 X142.191 Y120.652 E5.86851 ; infill
G1 X155.229 Y107.613 E15.06905 ; infill
G1 X155.229 Y114.794 E5.86851 ; infill
M73 P4 R18
M73 Q4 S18
G1 X147.161 Y122.863 E9.32505 ; infill
M204 P3000 ; adjust acceleration
;LAYER_CHANGE
;Z:1
;HEIGHT:0.4
;BEFORE_LAYER_CHANGE
G92 E0.0
;1


G1 E-.7 F2700 ; retract
G1 X147.161 Y122.863 Z.6 F21000 ; layer change
G1 X157.441 Y108.845 Z1 ; layer change
;AFTER_LAYER_CHANGE
;1
G1 X157.441 Y108.845 ; move to first layer point
G1 Z1 F720 ; move to first layer point
G1 E.7 F1500 ;  ; unretract
M204 P7000 ; adjust acceleration
G1 F763.101
G1 X149.247 Y100.652 E9.46951 ; infill
G1 X141.983 Y100.652 E5.93634 ; infill
G1 X155.229 Y113.898 E15.30887 ; infill
G1 X155.229 Y120.652 E5.51956 ; infill
G1 X154.719 Y120.652 E.41679 ; infill
G1 X135.135 Y101.067 E22.63449 ; infill
G1 X127.87 Y101.067 E5.93716 ; infill
M73 P4 R17
G1 X147.455 Y120.652 E22.63507 ; infill
G1 X140.191 Y120.652 E5.93634 ; infill
G1 X120.606 Y101.067 E22.63507 ; infill
M73 Q5 S18
G1 X113.342 Y101.067 E5.93634 ; infill
M73 P5 R17
G1 X132.927 Y120.652 E22.63507 ; infill
G1 X132.832 Y120.652 E.07764 ; infill
M73 Q5 S17
G1 X132.832 Y121.067 E.33915 ; infill
G1 X126.078 Y121.067 E5.51956 ; infill
G1 X112.832 Y107.821 E15.30887 ; infill
G1 X112.832 Y115.085 E5.93634 ; infill
G1 X121.025 Y123.278 E9.46894 ; infill
M204 P3000 ; adjust acceleration
;LAYER_CHANGE
;Z:1.4
;HEIGHT:0.4
;BEFORE_LAYER_CHANGE
G92 E0.0
;1.4


G1 E-.7 F2700 ; retract
G1 X121.025 Y123.278 Z1 F21000 ; layer change
G1 X113.789 Y113.442 Z1.278 ; layer change
G1 X112.521 Y111.719 Z1.322 ; layer change
G1 X111.254 Y109.997 Z1.356 ; layer change
G1 X110.621 Y109.136 Z1.37 ; layer change
;AFTER_LAYER_CHANGE
;1.4
G1 X110.621 Y109.136 ; move to first layer point
G1 Z1.4 F720 ; move to first layer point
G1 E.7 F1500 ;  ; unretract
M204 P7000 ; adjust acceleration
G1 F763.101
G1 X118.689 Y101.067 E9.32505 ; infill
G1 X125.87 Y101.067 E5.86851 ; infill
G1 X112.832 Y114.105 E15.06847 ; infill
G1 X112.832 Y121.067 E5.68954 ; infill
M73 P6 R17
M73 Q6 S17
G1 X113.051 Y121.067 E.17897 ; infill
G1 X133.051 Y101.067 E23.1147 ; infill
G1 X135.229 Y101.067 E1.77992 ; infill
G1 X135.229 Y100.652 E.33915 ; infill
G1 X140.648 Y100.652 E4.42856 ; infill
G1 X120.232 Y121.067 E23.59491 ; infill
G1 X127.413 Y121.067 E5.86851 ; infill
G1 X147.829 Y100.652 E23.59491 ; infill
G1 X155.01 Y100.652 E5.86851 ; infill
G1 X135.01 Y120.652 E23.1147 ; infill
G1 X142.191 Y120.652 E5.86851 ; infill
M73 P7 R17
M73 Q7 S17
G1 X155.229 Y107.613 E15.06905 ; infill
G1 X155.229 Y114.794 E5.86851 ; infill
G1 X147.161 Y122.863 E9.32505 ; infill
M204 P3000 ; adjust acceleration
M106 S51 ; enable fan
;LAYER_CHANGE
;Z:1.8
;HEIGHT:0.4
;BEFORE_LAYER_CHANGE
G92 E0.0
;1.8


G1 E-.7 F2700 ; retract
G1 X147.161 Y122.863 Z1.4 F21000 ; layer change
G1 X157.441 Y108.845 Z1.8 ; layer change
;AFTER_LAYER_CHANGE
;1.8
G1 X157.441 Y108.845 ; move to first layer point
G1 Z1.8 F720 ; move to first layer point
G1 E.7 F1500 ;  ; unretract
M204 P7000 ; adjust acceleration
G1 F763.101
G1 X149.247 Y100.652 E9.46951 ; infill
G1 X141.983 Y100.652 E5.93634 ; infill
G1 X155.229 Y113.898 E15.30887 ; infill
G1 X155.229 Y120.652 E5.51956 ; infill
G1 X154.719 Y120.652 E.41679 ; infill
G1 X135.135 Y101.067 E22.63449 ; infill
G1 X127.87 Y101.067 E5.93716 ; infill
G1 X147.455 Y120.652 E22.63507 ; infill
G1 X140.191 Y120.652 E5.93634 ; infill
M73 P8 R17
M73 Q8 S17
G1 X120.606 Y101.067 E22.63507 ; infill
G1 X113.342 Y101.067 E5.93634 ; infill
G1 X132.927 Y120.652 E22.63507 ; infill
G1 X132.832 Y120.652 E.07764 ; infill
G1 X132.832 Y121.067 E.33915 ; infill
G1 X126.078 Y121.067 E5.51956 ; infill
G1 X112.832 Y107.821 E15.30887 ; infill
G1 X112.832 Y115.085 E5.93634 ; infill
G1 X121.025 Y123.278 E9.46894 ; infill
M204 P3000 ; adjust acceleration
;LAYER_CHANGE
;Z:2.2
;HEIGHT:0.4
;BEFORE_LAYER_CHANGE
G92 E0.0
;2.2


G1 E-.7 F2700 ; retract
G1 X121.025 Y123.278 Z1.8 F21000 ; layer change
G1 X113.789 Y113.442 Z2.078 ; layer change
G1 X112.521 Y111.719 Z2.122 ; layer change
G1 X111.254 Y109.997 Z2.156 ; layer change
G1 X110.621 Y109.136 Z2.17 ; layer change
;AFTER_LAYER_CHANGE
;2.2
G1 X110.621 Y109.136 ; move to first layer point
G1 Z2.2 F720 ; move to first layer point
G1 E.7 F1500 ;  ; unretract
M204 P7000 ; adjust acceleration
G1 F763.101
G1 X118.689 Y101.067 E9.32505 ; infill
G1 X125.87 Y101.067 E5.86851 ; infill
M73 Q9 S17
G1 X112.832 Y114.105 E15.06847 ; infill
M73 P9 R17
G1 X112.832 Y121.067 E5.68954 ; infill
G1 X113.051 Y121.067 E.17897 ; infill
G1 X133.051 Y101.067 E23.1147 ; infill
G1 X135.229 Y101.067 E1.77992 ; infill
G1 X135.229 Y100.652 E.33915 ; infill
G1 X140.648 Y100.652 E4.42856 ; infill
G1 X120.232 Y121.067 E23.59491 ; infill
G1 X127.413 Y121.067 E5.86851 ; infill
G1 X147.829 Y100.652 E23.59491 ; infill
G1 X155.01 Y100.652 E5.86851 ; infill
M73 P9 R16
G1 X135.01 Y120.652 E23.1147 ; infill
G1 X142.191 Y120.652 E5.86851 ; infill
M73 P10 R16
M73 Q10 S17
G1 X155.229 Y107.613 E15.06905 ; infill
G1 X155.229 Y114.794 E5.86851 ; infill
G1 X147.161 Y122.863 E9.32505 ; infill
M204 P3000 ; adjust acceleration
;LAYER_CHANGE
;Z:2.6
;HEIGHT:0.4
;BEFORE_LAYER_CHANGE
G92 E0.0
;2.6


G1 E-.7 F2700 ; retract
G1 X147.161 Y122.863 Z2.2 F21000 ; layer change
G1 X157.441 Y108.845 Z2.6 ; layer change
;AFTER_LAYER_CHANGE
;2.6
G1 X157.441 Y108.845 ; move to first layer point
G1 Z2.6 F720 ; move to first layer point
G1 E.7 F1500 ;  ; unretract
M204 P7000 ; adjust acceleration
G1 F763.101
G1 X149.247 Y100.652 E9.46951 ; infill
G1 X141.983 Y100.652 E5.93634 ; infill
M73 Q10 S16
G1 X155.229 Y113.898 E15.30887 ; infill
G1 X155.229 Y120.652 E5.51956 ; infill
G1 X154.719 Y120.652 E.41679 ; infill
G1 X135.135 Y101.067 E22.63449 ; infill
G1 X127.87 Y101.067 E5.93716 ; infill
G1 X147.455 Y120.652 E22.63507 ; infill
M73 P11 R16
M73 Q11 S16
G1 X140.191 Y120.652 E5.93634 ; infill
G1 X120.606 Y101.067 E22.63507 ; infill
G1 X113.342 Y101.067 E5.93634 ; infill
G1 X132.927 Y120.652 E22.63507 ; infill
G1 X132.832 Y120.652 E.07764 ; infill
G1 X132.832 Y121.067 E.33915 ; infill
G1 X126.078 Y121.067 E5.51956 ; infill
G1 X112.832 Y107.821 E15.30887 ; infill
G1 X112.832 Y115.085 E5.93634 ; infill
G1 X121.025 Y123.278 E9.46894 ; infill
M204 P3000 ; adjust acceleration
;LAYER_CHANGE
;Z:3
;HEIGHT:0.4
;BEFORE_LAYER_CHANGE
G92 E0.0
;3


G1 E-.7 F2700 ; retract
M73 P12 R16
M73 Q12 S16
G1 X121.025 Y123.278 Z2.6 F21000 ; layer change
G1 X113.789 Y113.442 Z2.878 ; layer change
G1 X112.521 Y111.719 Z2.922 ; layer change
G1 X111.254 Y109.997 Z2.956 ; layer change
G1 X110.621 Y109.136 Z2.97 ; layer change
;AFTER_LAYER_CHANGE
;3
G1 X110.621 Y109.136 ; move to first layer point
G1 Z3 F720 ; move to first layer point
G1 E.7 F1500 ;  ; unretract
M204 P7000 ; adjust acceleration
G1 F763.101
G1 X118.689 Y101.067 E9.32505 ; infill
G1 X125.87 Y101.067 E5.86851 ; infill
G1 X112.832 Y114.105 E15.06847 ; infill
G1 X112.832 Y121.067 E5.68954 ; infill
G1 X113.051 Y121.067 E.17897 ; infill
G1 X133.051 Y101.067 E23.1147 ; infill
G1 X135.229 Y101.067 E1.77992 ; infill
G1 X135.229 Y100.652 E.33915 ; infill
G1 X140.648 Y100.652 E4.42856 ; infill
G1 X120.232 Y121.067 E23.59491 ; infill
G1 X127.413 Y121.067 E5.86851 ; infill
G1 X147.829 Y100.652 E23.59491 ; infill
G1 X155.01 Y100.652 E5.86851 ; infill
M73 P13 R16
M73 Q13 S16
G1 X135.01 Y120.652 E23.1147 ; infill
G1 X142.191 Y120.652 E5.86851 ; infill
G1 X155.229 Y107.613 E15.06905 ; infill
G1 X155.229 Y114.794 E5.86851 ; infill
G1 X147.161 Y122.863 E9.32505 ; infill
M204 P3000 ; adjust acceleration
;LAYER_CHANGE
;Z:3.4
;HEIGHT:0.4
;BEFORE_LAYER_CHANGE
G92 E0.0
;3.4


G1 E-.7 F2700 ; retract
G1 X147.161 Y122.863 Z3 F21000 ; layer change
G1 X157.441 Y108.845 Z3.4 ; layer change
;AFTER_LAYER_CHANGE
;3.4
G1 X157.441 Y108.845 ; move to first layer point
G1 Z3.4 F720 ; move to first layer point
G1 E.7 F1500 ;  ; unretract
M204 P7000 ; adjust acceleration
G1 F763.101
G1 X149.247 Y100.652 E9.46951 ; infill
G1 X141.983 Y100.652 E5.93634 ; infill
G1 X155.229 Y113.898 E15.30887 ; infill
G1 X155.229 Y120.652 E5.51956 ; infill
G1 X154.719 Y120.652 E.41679 ; infill
G1 X135.135 Y101.067 E22.63449 ; infill
G1 X127.87 Y101.067 E5.93716 ; infill
M73 P14 R16
M73 Q14 S16
G1 X147.455 Y120.652 E22.63507 ; infill
G1 X140.191 Y120.652 E5.93634 ; infill
G1 X120.606 Y101.067 E22.63507 ; infill
G1 X113.342 Y101.067 E5.93634 ; infill
G1 X132.927 Y120.652 E22.63507 ; infill
G1 X132.832 Y120.652 E.07764 ; infill
G1 X132.832 Y121.067 E.33915 ; infill
G1 X126.078 Y121.067 E5.51956 ; infill
G1 X112.832 Y107.821 E15.30887 ; infill
G1 X112.832 Y115.085 E5.93634 ; infill
M73 P15 R16
M73 Q15 S16
G1 X121.025 Y123.278 E9.46894 ; infill
M204 P3000 ; adjust acceleration
;LAYER_CHANGE
;Z:3.8
;HEIGHT:0.4
;BEFORE_LAYER_CHANGE
G92 E0.0
;3.8


G1 E-.7 F2700 ; retract
G1 X121.025 Y123.278 Z3.4 F21000 ; layer change
G1 X113.789 Y113.442 Z3.678 ; layer change
G1 X112.521 Y111.719 Z3.722 ; layer change
G1 X111.254 Y109.997 Z3.756 ; layer change
G1 X110.621 Y109.136 Z3.77 ; layer change
;AFTER_LAYER_CHANGE
;3.8
G1 X110.621 Y109.136 ; move to first layer point
G1 Z3.8 F720 ; move to first layer point
G1 E.7 F1500 ;  ; unretract
M204 P7000 ; adjust acceleration
G1 F763.101
G1 X118.689 Y101.067 E9.32505 ; infill
G1 X125.87 Y101.067 E5.86851 ; infill
M73 P15 R15
G1 X112.832 Y114.105 E15.06847 ; infill
G1 X112.832 Y121.067 E5.68954 ; infill
G1 X113.051 Y121.067 E.17897 ; infill
G1 X133.051 Y101.067 E23.1147 ; infill
G1 X135.229 Y101.067 E1.77992 ; infill
G1 X135.229 Y100.652 E.33915 ; infill
G1 X140.648 Y100.652 E4.42856 ; infill
G1 X120.232 Y121.067 E23.59491 ; infill
G1 X127.413 Y121.067 E5.86851 ; infill
M73 Q15 S15
G1 X147.829 Y100.652 E23.59491 ; infill
M73 Q16 S15
G1 X155.01 Y100.652 E5.86851 ; infill
M73 P16 R15
G1 X135.01 Y120.652 E23.1147 ; infill
G1 X142.191 Y120.652 E5.86851 ; infill
G1 X155.229 Y107.613 E15.06905 ; infill
G1 X155.229 Y114.794 E5.86851 ; infill
G1 X147.161 Y122.863 E9.32505 ; infill
M204 P3000 ; adjust acceleration
;LAYER_CHANGE
;Z:4.2
;HEIGHT:0.4
;BEFORE_LAYER_CHANGE
G92 E0.0
;4.2


G1 E-.7 F2700 ; retract
G1 X147.161 Y122.863 Z3.8 F21000 ; layer change
G1 X157.441 Y108.845 Z4.2 ; layer change
;AFTER_LAYER_CHANGE
;4.2
G1 X157.441 Y108.845 ; move to first layer point
G1 Z4.2 F720 ; move to first layer point
G1 E.7 F1500 ;  ; unretract
M204 P7000 ; adjust acceleration
G1 F763.101
G1 X149.247 Y100.652 E9.46951 ; infill
G1 X141.983 Y100.652 E5.93634 ; infill
G1 X155.229 Y113.898 E15.30887 ; infill
G1 X155.229 Y120.652 E5.51956 ; infill
M73 P17 R15
M73 Q17 S15
G1 X154.719 Y120.652 E.41679 ; infill
G1 X135.135 Y101.067 E22.63449 ; infill
G1 X127.87 Y101.067 E5.93716 ; infill
G1 X147.455 Y120.652 E22.63507 ; infill
G1 X140.191 Y120.652 E5.93634 ; infill
G1 X120.606 Y101.067 E22.63507 ; infill
G1 X113.342 Y101.067 E5.93634 ; infill
G1 X132.927 Y120.652 E22.63507 ; infill
G1 X132.832 Y120.652 E.07764 ; infill
G1 X132.832 Y121.067 E.33915 ; infill
G1 X126.078 Y121.067 E5.51956 ; infill
M73 Q18 S15
G1 X112.832 Y107.821 E15.30887 ; infill
M73 P18 R15
G1 X112.832 Y115.085 E5.93634 ; infill
G1 X121.025 Y123.278 E9.46894 ; infill
M204 P3000 ; adjust acceleration
;LAYER_CHANGE
;Z:4.6
;HEIGHT:0.4
;BEFORE_LAYER_CHANGE
G92 E0.0
;4.6


G1 E-.7 F2700 ; retract
G1 X121.025 Y123.278 Z4.2 F21000 ; layer change
G1 X113.789 Y113.442 Z4.478 ; layer change
G1 X112.521 Y111.719 Z4.522 ; layer change
G1 X111.254 Y109.997 Z4.556 ; layer change
G1 X110.621 Y109.136 Z4.57 ; layer change
;AFTER_LAYER_CHANGE
